(Project Mecanizado1_exportado_dxf_12)
(Created by Estlcam version 11 build 11,118)
(Machining time about 04:30:17 hours)

(Required tools:)
(End mill 3mm)

G90
G91.1
M03 S24000
G00 Z5.0000


(No. 1: Helical drill 53)
G00 X43.0842 Y9.2248
G00 Z0.5000
G02 X42.8592 Y9.0949 Z0.3333 I-0.1500 J0.0000 F100 S24000
G02 Y9.3547 Z0.1667 I0.0750 J0.1299
G02 X43.0842 Y9.2248 Z0.0000 I0.0750 J-0.1299
G02 X42.8592 Y9.0949 Z-0.1667 I-0.1500 J0.0000
G02 Y9.3547 Z-0.3333 I0.0750 J0.1299
G02 X43.0842 Y9.2248 Z-0.5000 I0.0750 J-0.1299
G02 X42.8592 Y9.0949 Z-0.6667 I-0.1500 J0.0000
G02 Y9.3547 Z-0.8333 I0.0750 J0.1299
G02 X43.0842 Y9.2248 Z-1.0000 I0.0750 J-0.1299
G02 X42.8592 Y9.0949 Z-1.1667 I-0.1500 J0.0000
G02 Y9.3547 Z-1.3333 I0.0750 J0.1299
G02 X43.0842 Y9.2248 Z-1.5000 I0.0750 J-0.1299
G02 X42.8592 Y9.0949 Z-1.6667 I-0.1500 J0.0000
G02 Y9.3547 Z-1.8333 I0.0750 J0.1299
G02 X43.0842 Y9.2248 Z-2.0000 I0.0750 J-0.1299
G02 X42.8592 Y9.0949 Z-2.1667 I-0.1500 J0.0000
G02 Y9.3547 Z-2.3333 I0.0750 J0.1299
G02 X43.0842 Y9.2248 Z-2.5000 I0.0750 J-0.1299
G02 X42.8592 Y9.0949 Z-2.6667 I-0.1500 J0.0000
G02 Y9.3547 Z-2.8333 I0.0750 J0.1299
G02 X43.0842 Y9.2248 Z-3.0000 I0.0750 J-0.1299
G02 X42.8592 Y9.0949 Z-3.1667 I-0.1500 J0.0000
G02 Y9.3547 Z-3.3333 I0.0750 J0.1299
G02 X43.0842 Y9.2248 Z-3.5000 I0.0750 J-0.1299
G02 X42.8592 Y9.0949 Z-3.6667 I-0.1500 J0.0000
G02 Y9.3547 Z-3.8333 I0.0750 J0.1299
G02 X43.0842 Y9.2248 Z-4.0000 I0.0750 J-0.1299
G02 X42.8592 Y9.0949 Z-4.1667 I-0.1500 J0.0000
G02 Y9.3547 Z-4.3333 I0.0750 J0.1299
G02 X43.0842 Y9.2248 Z-4.5000 I0.0750 J-0.1299
G02 X42.8592 Y9.0949 Z-4.6667 I-0.1500 J0.0000
G02 Y9.3547 Z-4.8333 I0.0750 J0.1299
G02 X43.0842 Y9.2248 Z-5.0000 I0.0750 J-0.1299
G02 X42.8592 Y9.0949 Z-5.1667 I-0.1500 J0.0000
G02 Y9.3547 Z-5.3333 I0.0750 J0.1299
G02 X43.0842 Y9.2248 Z-5.5000 I0.0750 J-0.1299
G02 X42.8592 Y9.0949 Z-5.6667 I-0.1500 J0.0000
G02 Y9.3547 Z-5.8333 I0.0750 J0.1299
G02 X43.0842 Y9.2248 Z-6.0000 I0.0750 J-0.1299
G02 X42.8592 Y9.0949 Z-6.1667 I-0.1500 J0.0000
G02 Y9.3547 Z-6.3333 I0.0750 J0.1299
G02 X43.0842 Y9.2248 Z-6.5000 I0.0750 J-0.1299
G02 X42.8592 Y9.0949 Z-6.6667 I-0.1500 J0.0000
G02 Y9.3547 Z-6.8333 I0.0750 J0.1299
G02 X43.0842 Y9.2248 Z-7.0000 I0.0750 J-0.1299
G02 X42.8592 Y9.0949 Z-7.1667 I-0.1500 J0.0000
G02 Y9.3547 Z-7.3333 I0.0750 J0.1299
G02 X43.0842 Y9.2248 Z-7.5000 I0.0750 J-0.1299
G02 X42.8592 Y9.0949 Z-7.6667 I-0.1500 J0.0000
G02 Y9.3547 Z-7.8333 I0.0750 J0.1299
G02 X43.0842 Y9.2248 Z-8.0000 I0.0750 J-0.1299
G02 X42.8592 Y9.0949 Z-8.1000 I-0.1500 J0.0000
G02 Y9.3547 Z-8.2000 I0.0750 J0.1299
G02 X43.0842 Y9.2248 Z-8.3000 I0.0750 J-0.1299
G02 X42.8592 Y9.0949 I-0.1500 J0.0000
G02 Y9.3547 I0.0750 J0.1299
G02 X43.0842 Y9.2248 I0.0750 J-0.1299
G02 X42.9342 Z-7.8000 I-0.0750 J0.0000
G00 Z5.0000


(No. 2: Hole 3)
G00 X44.2842 Y27.7248 Z5.0000
G00 Z0.5000
G02 X42.2592 Y26.5557 Z0.3333 I-1.3500 J0.0000 F100
G02 Y28.8939 Z0.1667 I0.6750 J1.1691
G02 X44.2842 Y27.7248 Z0.0000 I0.6750 J-1.1691
G02 X42.2592 Y26.5557 I-1.3500 J0.0000
G02 Y28.8939 I0.6750 J1.1691
G02 X44.2842 Y27.7248 I0.6750 J-1.1691
G02 X42.2592 Y26.5557 Z-0.1667 I-1.3500 J0.0000
G02 Y28.8939 Z-0.3333 I0.6750 J1.1691
G02 X44.2842 Y27.7248 Z-0.5000 I0.6750 J-1.1691
G02 X42.2592 Y26.5557 I-1.3500 J0.0000
G02 Y28.8939 I0.6750 J1.1691
G02 X44.2842 Y27.7248 I0.6750 J-1.1691
G02 X44.3027 Y27.1580 I-1.3424 J-0.3275 F500
G02 X44.0744 Y26.5846 I-1.4923 J0.2621
G02 X43.6015 Y26.1138 I-1.3754 J0.9086
G02 X42.9342 Y25.8498 I-0.9755 J1.4905
G02 X42.1665 Y25.8713 I-0.3315 J1.8853
G02 X41.4228 Y26.2134 I0.4663 J1.9931
G02 X40.8382 Y26.8566 I1.2881 J1.7580
G02 X40.5342 Y27.7248 I1.9864 J1.1827
G02 X40.5957 Y28.6935 I2.4215 J0.3327
G02 X41.0516 Y29.6075 I2.4878 J-0.6702
G02 X41.8651 Y30.3059 I2.1362 J-1.6653
G02 X42.9342 Y30.6498 I1.3873 J-2.4789
G02 X44.1038 Y30.5484 I0.3331 J-2.9540
G02 X45.1881 Y29.9787 I-0.8735 J-2.9792
G02 X46.0004 Y28.9948 I-2.0409 J-2.5120
G02 X46.3842 Y27.7248 I-2.9693 J-1.5905
G02 X46.2429 Y26.3543 I-3.4843 J-0.3331
G02 X45.5594 Y25.0997 I-3.4689 J1.0763
G02 X44.4052 Y24.1736 I-2.8865 J2.4154
G02 X42.9342 Y23.7498 I-1.7930 J3.4583
G02 X41.3628 Y23.9311 I-0.3331 J4.0133
G02 X39.9379 Y24.7284 I1.2787 J3.9573
G02 X38.8980 Y26.0530 I2.7892 J3.2601
G02 X38.4342 Y27.7248 I3.9464 J1.9951
G02 X38.6555 Y29.4971 I4.5415 J0.3329
G02 X39.5666 Y31.0924 I4.4450 J-1.4809
G02 X41.0615 Y32.2460 I3.6332 J-3.1625
G02 X42.9342 Y32.7498 I2.1968 J-4.4339
G02 X44.9074 Y32.4886 I0.3328 J-5.0689
G02 X46.6731 Y31.4636 I-1.6828 J-4.9322
G02 X47.9405 Y29.7985 I-3.5354 J-4.0059
G02 X48.4842 Y27.7248 I-4.9210 J-2.3984
G02 X48.1830 Y25.5507 I-5.5960 J-0.3326
G02 X47.0443 Y23.6147 I-5.4190 J1.8846
G02 X45.2088 Y22.2335 I-4.3783 J3.9080
G02 X42.9342 Y21.6498 I-2.5999 J5.4077
G02 X40.5592 Y21.9910 I-0.3325 J6.1226
G02 X38.4529 Y23.2435 I2.0862 J5.9054
G02 X36.9579 Y25.2493 I4.2804 J4.7506
G02 X36.3342 Y27.7248 I5.8942 J2.8012
G02 X36.7154 Y30.3007 I6.6491 J0.3324
G02 X38.0817 Y32.5773 I6.3917 J-2.2878
G02 X40.2578 Y34.1862 I5.1226 J-4.6527
G02 X42.9342 Y34.8498 I3.0025 J-6.3804
G02 X45.7111 Y34.4287 I0.3322 J-7.1753
G02 X48.1580 Y32.9486 I-2.4893 J-6.8777
G02 X49.8806 Y30.6021 I-5.0248 J-5.4946
G02 X50.5842 Y27.7248 I-6.8665 J-3.2037
G02 X50.1232 Y24.7470 I-7.7013 J-0.3321
G02 X48.5292 Y22.1298 I-7.3637 J2.6907
G02 X46.0124 Y20.2933 I-5.8664 J5.3968
G02 X42.9342 Y19.5498 I-3.4049 J7.3524
G02 X39.7556 Y20.0508 I-0.3320 J8.2272
G02 X36.9680 Y21.7586 I2.8920 J7.8495
G02 X35.0177 Y24.4457 I5.7687 J6.2382
G02 X34.2342 Y27.7248 I7.8383 J3.6060
G02 X34.7752 Y31.1044 I8.7530 J0.3319
G02 X36.5968 Y34.0622 I8.3352 J-3.0933
G02 X39.4542 Y36.1263 I6.6099 J-6.1405
G02 X42.9342 Y36.9498 I3.8071 J-8.3240
G02 X46.5147 Y36.3689 I0.3318 J-9.2787
G02 X49.6429 Y34.4335 I-3.2945 J-8.8208
G02 X51.8208 Y31.4057 I-6.5123 J-6.9815
G02 X52.6842 Y27.7248 I-8.8097 J-4.0082
G02 X52.0633 Y23.9434 I-9.8044 J-0.3318
G02 X50.0141 Y20.6449 I-9.3064 J3.4958
G02 X46.8161 Y18.3532 I-7.3531 J6.8840
G02 X42.9342 Y17.4498 I-4.2093 J9.2953
G02 X38.9519 Y18.1107 I-0.3317 J10.3300
G02 X35.4831 Y20.2737 I3.6970 J9.7919
G02 X33.0776 Y23.6420 I7.2557 J7.7247
G02 X32.1342 Y27.7248 I9.7809 J4.4103
G02 X32.8351 Y31.9080 I10.8555 J0.3316
G02 X35.1119 Y35.5472 I10.2774 J-3.8981
G02 X38.6506 Y38.0665 I8.0962 J-7.6273
G02 X42.9342 Y39.0498 I4.6114 J-10.2664
G02 X47.3183 Y38.3090 I0.3316 J-11.3809
G02 X51.1278 Y35.9184 I-4.0993 J-10.7629
G02 X53.7609 Y32.2094 I-7.9989 J-8.4677
G02 X54.7842 Y27.7248 I-10.7518 J-4.8124
G02 X54.0035 Y23.1398 I-11.9064 J-0.3315
G02 X51.4991 Y19.1600 I-11.2483 J4.3004
G02 X47.6197 Y16.4131 I-8.8392 J8.3704
G02 X42.9342 Y15.3498 I-5.0134 J11.2373
G02 X38.1483 Y16.1705 I-0.3314 J12.4318
G02 X34.0600 Y18.8506 I4.6922 J11.6157
G02 X31.3395 Y22.9221 I8.8742 J8.8742
G02 X30.3842 Y27.7248 I11.5947 J4.8027
G02 X31.3395 Y32.5275 I12.5500 J0.0000
G02 X34.0600 Y36.5990 I11.5947 J-4.8027
G02 X38.1315 Y39.3195 I8.8742 J-8.8742
G02 X42.9342 Y40.2748 I4.8027 J-11.5947
G02 X47.7369 Y39.3195 I0.0000 J-12.5500
G02 X51.8084 Y36.5990 I-4.8027 J-11.5947
G02 X54.5289 Y32.5275 I-8.8742 J-8.8742
G02 X55.4842 Y27.7248 I-11.5947 J-4.8027
G02 X36.6592 Y16.8562 I-12.5500 J0.0000
G02 Y38.5934 I6.2750 J10.8686
G02 X55.4842 Y27.7248 I6.2750 J-10.8686
G02 X41.5842 I-6.9500 J0.0000
G02 X44.2842 I1.3500 J0.0000
G02 X42.2592 Y26.5557 Z-0.6667 I-1.3500 J0.0000 F100
G02 Y28.8939 Z-0.8333 I0.6750 J1.1691
G02 X44.2842 Y27.7248 Z-1.0000 I0.6750 J-1.1691
G02 X42.2592 Y26.5557 I-1.3500 J0.0000
G02 Y28.8939 I0.6750 J1.1691
G02 X44.2842 Y27.7248 I0.6750 J-1.1691
G02 X44.3027 Y27.1580 I-1.3424 J-0.3275 F500
G02 X44.0744 Y26.5846 I-1.4923 J0.2621
G02 X43.6015 Y26.1138 I-1.3754 J0.9086
G02 X42.9342 Y25.8498 I-0.9755 J1.4905
G02 X42.1665 Y25.8713 I-0.3315 J1.8853
G02 X41.4228 Y26.2134 I0.4663 J1.9931
G02 X40.8382 Y26.8566 I1.2881 J1.7580
G02 X40.5342 Y27.7248 I1.9864 J1.1827
G02 X40.5957 Y28.6935 I2.4215 J0.3327
G02 X41.0516 Y29.6075 I2.4878 J-0.6702
G02 X41.8651 Y30.3059 I2.1362 J-1.6653
G02 X42.9342 Y30.6498 I1.3873 J-2.4789
G02 X44.1038 Y30.5484 I0.3331 J-2.9540
G02 X45.1881 Y29.9787 I-0.8735 J-2.9792
G02 X46.0004 Y28.9948 I-2.0409 J-2.5120
G02 X46.3842 Y27.7248 I-2.9693 J-1.5905
G02 X46.2429 Y26.3543 I-3.4843 J-0.3331
G02 X45.5594 Y25.0997 I-3.4689 J1.0763
G02 X44.4052 Y24.1736 I-2.8865 J2.4154
G02 X42.9342 Y23.7498 I-1.7930 J3.4583
G02 X41.3628 Y23.9311 I-0.3331 J4.0133
G02 X39.9379 Y24.7284 I1.2787 J3.9573
G02 X38.8980 Y26.0530 I2.7892 J3.2601
G02 X38.4342 Y27.7248 I3.9464 J1.9951
G02 X38.6555 Y29.4971 I4.5415 J0.3329
G02 X39.5666 Y31.0924 I4.4450 J-1.4809
G02 X41.0615 Y32.2460 I3.6332 J-3.1625
G02 X42.9342 Y32.7498 I2.1968 J-4.4339
G02 X44.9074 Y32.4886 I0.3328 J-5.0689
G02 X46.6731 Y31.4636 I-1.6828 J-4.9322
G02 X47.9405 Y29.7985 I-3.5354 J-4.0059
G02 X48.4842 Y27.7248 I-4.9210 J-2.3984
G02 X48.1830 Y25.5507 I-5.5960 J-0.3326
G02 X47.0443 Y23.6147 I-5.4190 J1.8846
G02 X45.2088 Y22.2335 I-4.3783 J3.9080
G02 X42.9342 Y21.6498 I-2.5999 J5.4077
G02 X40.5592 Y21.9910 I-0.3325 J6.1226
G02 X38.4529 Y23.2435 I2.0862 J5.9054
G02 X36.9579 Y25.2493 I4.2804 J4.7506
G02 X36.3342 Y27.7248 I5.8942 J2.8012
G02 X36.7154 Y30.3007 I6.6491 J0.3324
G02 X38.0817 Y32.5773 I6.3917 J-2.2878
G02 X40.2578 Y34.1862 I5.1226 J-4.6527
G02 X42.9342 Y34.8498 I3.0025 J-6.3804
G02 X45.7111 Y34.4287 I0.3322 J-7.1753
G02 X48.1580 Y32.9486 I-2.4893 J-6.8777
G02 X49.8806 Y30.6021 I-5.0248 J-5.4946
G02 X50.5842 Y27.7248 I-6.8665 J-3.2037
G02 X50.1232 Y24.7470 I-7.7013 J-0.3321
G02 X48.5292 Y22.1298 I-7.3637 J2.6907
G02 X46.0124 Y20.2933 I-5.8664 J5.3968
G02 X42.9342 Y19.5498 I-3.4049 J7.3524
G02 X39.7556 Y20.0508 I-0.3320 J8.2272
G02 X36.9680 Y21.7586 I2.8920 J7.8495
G02 X35.0177 Y24.4457 I5.7687 J6.2382
G02 X34.2342 Y27.7248 I7.8383 J3.6060
G02 X34.7752 Y31.1044 I8.7530 J0.3319
G02 X36.5968 Y34.0622 I8.3352 J-3.0933
G02 X39.4542 Y36.1263 I6.6099 J-6.1405
G02 X42.9342 Y36.9498 I3.8071 J-8.3240
G02 X46.5147 Y36.3689 I0.3318 J-9.2787
G02 X49.6429 Y34.4335 I-3.2945 J-8.8208
G02 X51.8208 Y31.4057 I-6.5123 J-6.9815
G02 X52.6842 Y27.7248 I-8.8097 J-4.0082
G02 X52.0633 Y23.9434 I-9.8044 J-0.3318
G02 X50.0141 Y20.6449 I-9.3064 J3.4958
G02 X46.8161 Y18.3532 I-7.3531 J6.8840
G02 X42.9342 Y17.4498 I-4.2093 J9.2953
G02 X38.9519 Y18.1107 I-0.3317 J10.3300
G02 X35.4831 Y20.2737 I3.6970 J9.7919
G02 X33.0776 Y23.6420 I7.2557 J7.7247
G02 X32.1342 Y27.7248 I9.7809 J4.4103
G02 X32.8351 Y31.9080 I10.8555 J0.3316
G02 X35.1119 Y35.5472 I10.2774 J-3.8981
G02 X38.6506 Y38.0665 I8.0962 J-7.6273
G02 X42.9342 Y39.0498 I4.6114 J-10.2664
G02 X47.3183 Y38.3090 I0.3316 J-11.3809
G02 X51.1278 Y35.9184 I-4.0993 J-10.7629
G02 X53.7609 Y32.2094 I-7.9989 J-8.4677
G02 X54.7842 Y27.7248 I-10.7518 J-4.8124
G02 X54.0035 Y23.1398 I-11.9064 J-0.3315
G02 X51.4991 Y19.1600 I-11.2483 J4.3004
G02 X47.6197 Y16.4131 I-8.8392 J8.3704
G02 X42.9342 Y15.3498 I-5.0134 J11.2373
G02 X38.1483 Y16.1705 I-0.3314 J12.4318
G02 X34.0600 Y18.8506 I4.6922 J11.6157
G02 X31.3395 Y22.9221 I8.8742 J8.8742
G02 X30.3842 Y27.7248 I11.5947 J4.8027
G02 X31.3395 Y32.5275 I12.5500 J0.0000
G02 X34.0600 Y36.5990 I11.5947 J-4.8027
G02 X38.1315 Y39.3195 I8.8742 J-8.8742
G02 X42.9342 Y40.2748 I4.8027 J-11.5947
G02 X47.7369 Y39.3195 I0.0000 J-12.5500
G02 X51.8084 Y36.5990 I-4.8027 J-11.5947
G02 X54.5289 Y32.5275 I-8.8742 J-8.8742
G02 X55.4842 Y27.7248 I-11.5947 J-4.8027
G02 X36.6592 Y16.8562 I-12.5500 J0.0000
G02 Y38.5934 I6.2750 J10.8686
G02 X55.4842 Y27.7248 I6.2750 J-10.8686
G02 X41.5842 I-6.9500 J0.0000
G02 X44.2842 I1.3500 J0.0000
G02 X42.2592 Y26.5557 Z-1.1667 I-1.3500 J0.0000 F100
G02 Y28.8939 Z-1.3333 I0.6750 J1.1691
G02 X44.2842 Y27.7248 Z-1.5000 I0.6750 J-1.1691
G02 X42.2592 Y26.5557 I-1.3500 J0.0000
G02 Y28.8939 I0.6750 J1.1691
G02 X44.2842 Y27.7248 I0.6750 J-1.1691
G02 X44.3027 Y27.1580 I-1.3424 J-0.3275 F500
G02 X44.0744 Y26.5846 I-1.4923 J0.2621
G02 X43.6015 Y26.1138 I-1.3754 J0.9086
G02 X42.9342 Y25.8498 I-0.9755 J1.4905
G02 X42.1665 Y25.8713 I-0.3315 J1.8853
G02 X41.4228 Y26.2134 I0.4663 J1.9931
G02 X40.8382 Y26.8566 I1.2881 J1.7580
G02 X40.5342 Y27.7248 I1.9864 J1.1827
G02 X40.5957 Y28.6935 I2.4215 J0.3327
G02 X41.0516 Y29.6075 I2.4878 J-0.6702
G02 X41.8651 Y30.3059 I2.1362 J-1.6653
G02 X42.9342 Y30.6498 I1.3873 J-2.4789
G02 X44.1038 Y30.5484 I0.3331 J-2.9540
G02 X45.1881 Y29.9787 I-0.8735 J-2.9792
G02 X46.0004 Y28.9948 I-2.0409 J-2.5120
G02 X46.3842 Y27.7248 I-2.9693 J-1.5905
G02 X46.2429 Y26.3543 I-3.4843 J-0.3331
G02 X45.5594 Y25.0997 I-3.4689 J1.0763
G02 X44.4052 Y24.1736 I-2.8865 J2.4154
G02 X42.9342 Y23.7498 I-1.7930 J3.4583
G02 X41.3628 Y23.9311 I-0.3331 J4.0133
G02 X39.9379 Y24.7284 I1.2787 J3.9573
G02 X38.8980 Y26.0530 I2.7892 J3.2601
G02 X38.4342 Y27.7248 I3.9464 J1.9951
G02 X38.6555 Y29.4971 I4.5415 J0.3329
G02 X39.5666 Y31.0924 I4.4450 J-1.4809
G02 X41.0615 Y32.2460 I3.6332 J-3.1625
G02 X42.9342 Y32.7498 I2.1968 J-4.4339
G02 X44.9074 Y32.4886 I0.3328 J-5.0689
G02 X46.6731 Y31.4636 I-1.6828 J-4.9322
G02 X47.9405 Y29.7985 I-3.5354 J-4.0059
G02 X48.4842 Y27.7248 I-4.9210 J-2.3984
G02 X48.1830 Y25.5507 I-5.5960 J-0.3326
G02 X47.0443 Y23.6147 I-5.4190 J1.8846
G02 X45.2088 Y22.2335 I-4.3783 J3.9080
G02 X42.9342 Y21.6498 I-2.5999 J5.4077
G02 X40.5592 Y21.9910 I-0.3325 J6.1226
G02 X38.4529 Y23.2435 I2.0862 J5.9054
G02 X36.9579 Y25.2493 I4.2804 J4.7506
G02 X36.3342 Y27.7248 I5.8942 J2.8012
G02 X36.7154 Y30.3007 I6.6491 J0.3324
G02 X38.0817 Y32.5773 I6.3917 J-2.2878
G02 X40.2578 Y34.1862 I5.1226 J-4.6527
G02 X42.9342 Y34.8498 I3.0025 J-6.3804
G02 X45.7111 Y34.4287 I0.3322 J-7.1753
G02 X48.1580 Y32.9486 I-2.4893 J-6.8777
G02 X49.8806 Y30.6021 I-5.0248 J-5.4946
G02 X50.5842 Y27.7248 I-6.8665 J-3.2037
G02 X50.1232 Y24.7470 I-7.7013 J-0.3321
G02 X48.5292 Y22.1298 I-7.3637 J2.6907
G02 X46.0124 Y20.2933 I-5.8664 J5.3968
G02 X42.9342 Y19.5498 I-3.4049 J7.3524
G02 X39.7556 Y20.0508 I-0.3320 J8.2272
G02 X36.9680 Y21.7586 I2.8920 J7.8495
G02 X35.0177 Y24.4457 I5.7687 J6.2382
G02 X34.2342 Y27.7248 I7.8383 J3.6060
G02 X34.7752 Y31.1044 I8.7530 J0.3319
G02 X36.5968 Y34.0622 I8.3352 J-3.0933
G02 X39.4542 Y36.1263 I6.6099 J-6.1405
G02 X42.9342 Y36.9498 I3.8071 J-8.3240
G02 X46.5147 Y36.3689 I0.3318 J-9.2787
G02 X49.6429 Y34.4335 I-3.2945 J-8.8208
G02 X51.8208 Y31.4057 I-6.5123 J-6.9815
G02 X52.6842 Y27.7248 I-8.8097 J-4.0082
G02 X52.0633 Y23.9434 I-9.8044 J-0.3318
G02 X50.0141 Y20.6449 I-9.3064 J3.4958
G02 X46.8161 Y18.3532 I-7.3531 J6.8840
G02 X42.9342 Y17.4498 I-4.2093 J9.2953
G02 X38.9519 Y18.1107 I-0.3317 J10.3300
G02 X35.4831 Y20.2737 I3.6970 J9.7919
G02 X33.0776 Y23.6420 I7.2557 J7.7247
G02 X32.1342 Y27.7248 I9.7809 J4.4103
G02 X32.8351 Y31.9080 I10.8555 J0.3316
G02 X35.1119 Y35.5472 I10.2774 J-3.8981
G02 X38.6506 Y38.0665 I8.0962 J-7.6273
G02 X42.9342 Y39.0498 I4.6114 J-10.2664
G02 X47.3183 Y38.3090 I0.3316 J-11.3809
G02 X51.1278 Y35.9184 I-4.0993 J-10.7629
G02 X53.7609 Y32.2094 I-7.9989 J-8.4677
G02 X54.7842 Y27.7248 I-10.7518 J-4.8124
G02 X54.0035 Y23.1398 I-11.9064 J-0.3315
G02 X51.4991 Y19.1600 I-11.2483 J4.3004
G02 X47.6197 Y16.4131 I-8.8392 J8.3704
G02 X42.9342 Y15.3498 I-5.0134 J11.2373
G02 X38.1483 Y16.1705 I-0.3314 J12.4318
G02 X34.0600 Y18.8506 I4.6922 J11.6157
G02 X31.3395 Y22.9221 I8.8742 J8.8742
G02 X30.3842 Y27.7248 I11.5947 J4.8027
G02 X31.3395 Y32.5275 I12.5500 J0.0000
G02 X34.0600 Y36.5990 I11.5947 J-4.8027
G02 X38.1315 Y39.3195 I8.8742 J-8.8742
G02 X42.9342 Y40.2748 I4.8027 J-11.5947
G02 X47.7369 Y39.3195 I0.0000 J-12.5500
G02 X51.8084 Y36.5990 I-4.8027 J-11.5947
G02 X54.5289 Y32.5275 I-8.8742 J-8.8742
G02 X55.4842 Y27.7248 I-11.5947 J-4.8027
G02 X36.6592 Y16.8562 I-12.5500 J0.0000
G02 Y38.5934 I6.2750 J10.8686
G02 X55.4842 Y27.7248 I6.2750 J-10.8686
G02 X41.5842 I-6.9500 J0.0000
G02 X44.2842 I1.3500 J0.0000
G02 X42.2592 Y26.5557 Z-1.6667 I-1.3500 J0.0000 F100
G02 Y28.8939 Z-1.8333 I0.6750 J1.1691
G02 X44.2842 Y27.7248 Z-2.0000 I0.6750 J-1.1691
G02 X42.2592 Y26.5557 I-1.3500 J0.0000
G02 Y28.8939 I0.6750 J1.1691
G02 X44.2842 Y27.7248 I0.6750 J-1.1691
G02 X44.3027 Y27.1580 I-1.3424 J-0.3275 F500
G02 X44.0744 Y26.5846 I-1.4923 J0.2621
G02 X43.6015 Y26.1138 I-1.3754 J0.9086
G02 X42.9342 Y25.8498 I-0.9755 J1.4905
G02 X42.1665 Y25.8713 I-0.3315 J1.8853
G02 X41.4228 Y26.2134 I0.4663 J1.9931
G02 X40.8382 Y26.8566 I1.2881 J1.7580
G02 X40.5342 Y27.7248 I1.9864 J1.1827
G02 X40.5957 Y28.6935 I2.4215 J0.3327
G02 X41.0516 Y29.6075 I2.4878 J-0.6702
G02 X41.8651 Y30.3059 I2.1362 J-1.6653
G02 X42.9342 Y30.6498 I1.3873 J-2.4789
G02 X44.1038 Y30.5484 I0.3331 J-2.9540
G02 X45.1881 Y29.9787 I-0.8735 J-2.9792
G02 X46.0004 Y28.9948 I-2.0409 J-2.5120
G02 X46.3842 Y27.7248 I-2.9693 J-1.5905
G02 X46.2429 Y26.3543 I-3.4843 J-0.3331
G02 X45.5594 Y25.0997 I-3.4689 J1.0763
G02 X44.4052 Y24.1736 I-2.8865 J2.4154
G02 X42.9342 Y23.7498 I-1.7930 J3.4583
G02 X41.3628 Y23.9311 I-0.3331 J4.0133
G02 X39.9379 Y24.7284 I1.2787 J3.9573
G02 X38.8980 Y26.0530 I2.7892 J3.2601
G02 X38.4342 Y27.7248 I3.9464 J1.9951
G02 X38.6555 Y29.4971 I4.5415 J0.3329
G02 X39.5666 Y31.0924 I4.4450 J-1.4809
G02 X41.0615 Y32.2460 I3.6332 J-3.1625
G02 X42.9342 Y32.7498 I2.1968 J-4.4339
G02 X44.9074 Y32.4886 I0.3328 J-5.0689
G02 X46.6731 Y31.4636 I-1.6828 J-4.9322
G02 X47.9405 Y29.7985 I-3.5354 J-4.0059
G02 X48.4842 Y27.7248 I-4.9210 J-2.3984
G02 X48.1830 Y25.5507 I-5.5960 J-0.3326
G02 X47.0443 Y23.6147 I-5.4190 J1.8846
G02 X45.2088 Y22.2335 I-4.3783 J3.9080
G02 X42.9342 Y21.6498 I-2.5999 J5.4077
G02 X40.5592 Y21.9910 I-0.3325 J6.1226
G02 X38.4529 Y23.2435 I2.0862 J5.9054
G02 X36.9579 Y25.2493 I4.2804 J4.7506
G02 X36.3342 Y27.7248 I5.8942 J2.8012
G02 X36.7154 Y30.3007 I6.6491 J0.3324
G02 X38.0817 Y32.5773 I6.3917 J-2.2878
G02 X40.2578 Y34.1862 I5.1226 J-4.6527
G02 X42.9342 Y34.8498 I3.0025 J-6.3804
G02 X45.7111 Y34.4287 I0.3322 J-7.1753
G02 X48.1580 Y32.9486 I-2.4893 J-6.8777
G02 X49.8806 Y30.6021 I-5.0248 J-5.4946
G02 X50.5842 Y27.7248 I-6.8665 J-3.2037
G02 X50.1232 Y24.7470 I-7.7013 J-0.3321
G02 X48.5292 Y22.1298 I-7.3637 J2.6907
G02 X46.0124 Y20.2933 I-5.8664 J5.3968
G02 X42.9342 Y19.5498 I-3.4049 J7.3524
G02 X39.7556 Y20.0508 I-0.3320 J8.2272
G02 X36.9680 Y21.7586 I2.8920 J7.8495
G02 X35.0177 Y24.4457 I5.7687 J6.2382
G02 X34.2342 Y27.7248 I7.8383 J3.6060
G02 X34.7752 Y31.1044 I8.7530 J0.3319
G02 X36.5968 Y34.0622 I8.3352 J-3.0933
G02 X39.4542 Y36.1263 I6.6099 J-6.1405
G02 X42.9342 Y36.9498 I3.8071 J-8.3240
G02 X46.5147 Y36.3689 I0.3318 J-9.2787
G02 X49.6429 Y34.4335 I-3.2945 J-8.8208
G02 X51.8208 Y31.4057 I-6.5123 J-6.9815
G02 X52.6842 Y27.7248 I-8.8097 J-4.0082
G02 X52.0633 Y23.9434 I-9.8044 J-0.3318
G02 X50.0141 Y20.6449 I-9.3064 J3.4958
G02 X46.8161 Y18.3532 I-7.3531 J6.8840
G02 X42.9342 Y17.4498 I-4.2093 J9.2953
G02 X38.9519 Y18.1107 I-0.3317 J10.3300
G02 X35.4831 Y20.2737 I3.6970 J9.7919
G02 X33.0776 Y23.6420 I7.2557 J7.7247
G02 X32.1342 Y27.7248 I9.7809 J4.4103
G02 X32.8351 Y31.9080 I10.8555 J0.3316
G02 X35.1119 Y35.5472 I10.2774 J-3.8981
G02 X38.6506 Y38.0665 I8.0962 J-7.6273
G02 X42.9342 Y39.0498 I4.6114 J-10.2664
G02 X47.3183 Y38.3090 I0.3316 J-11.3809
G02 X51.1278 Y35.9184 I-4.0993 J-10.7629
G02 X53.7609 Y32.2094 I-7.9989 J-8.4677
G02 X54.7842 Y27.7248 I-10.7518 J-4.8124
G02 X54.0035 Y23.1398 I-11.9064 J-0.3315
G02 X51.4991 Y19.1600 I-11.2483 J4.3004
G02 X47.6197 Y16.4131 I-8.8392 J8.3704
G02 X42.9342 Y15.3498 I-5.0134 J11.2373
G02 X38.1483 Y16.1705 I-0.3314 J12.4318
G02 X34.0600 Y18.8506 I4.6922 J11.6157
G02 X31.3395 Y22.9221 I8.8742 J8.8742
G02 X30.3842 Y27.7248 I11.5947 J4.8027
G02 X31.3395 Y32.5275 I12.5500 J0.0000
G02 X34.0600 Y36.5990 I11.5947 J-4.8027
G02 X38.1315 Y39.3195 I8.8742 J-8.8742
G02 X42.9342 Y40.2748 I4.8027 J-11.5947
G02 X47.7369 Y39.3195 I0.0000 J-12.5500
G02 X51.8084 Y36.5990 I-4.8027 J-11.5947
G02 X54.5289 Y32.5275 I-8.8742 J-8.8742
G02 X55.4842 Y27.7248 I-11.5947 J-4.8027
G02 X36.6592 Y16.8562 I-12.5500 J0.0000
G02 Y38.5934 I6.2750 J10.8686
G02 X55.4842 Y27.7248 I6.2750 J-10.8686
G02 X41.5842 I-6.9500 J0.0000
G02 X44.2842 I1.3500 J0.0000
G02 X42.2592 Y26.5557 Z-2.1667 I-1.3500 J0.0000 F100
G02 Y28.8939 Z-2.3333 I0.6750 J1.1691
G02 X44.2842 Y27.7248 Z-2.5000 I0.6750 J-1.1691
G02 X42.2592 Y26.5557 I-1.3500 J0.0000
G02 Y28.8939 I0.6750 J1.1691
G02 X44.2842 Y27.7248 I0.6750 J-1.1691
G02 X44.3027 Y27.1580 I-1.3424 J-0.3275 F500
G02 X44.0744 Y26.5846 I-1.4923 J0.2621
G02 X43.6015 Y26.1138 I-1.3754 J0.9086
G02 X42.9342 Y25.8498 I-0.9755 J1.4905
G02 X42.1665 Y25.8713 I-0.3315 J1.8853
G02 X41.4228 Y26.2134 I0.4663 J1.9931
G02 X40.8382 Y26.8566 I1.2881 J1.7580
G02 X40.5342 Y27.7248 I1.9864 J1.1827
G02 X40.5957 Y28.6935 I2.4215 J0.3327
G02 X41.0516 Y29.6075 I2.4878 J-0.6702
G02 X41.8651 Y30.3059 I2.1362 J-1.6653
G02 X42.9342 Y30.6498 I1.3873 J-2.4789
G02 X44.1038 Y30.5484 I0.3331 J-2.9540
G02 X45.1881 Y29.9787 I-0.8735 J-2.9792
G02 X46.0004 Y28.9948 I-2.0409 J-2.5120
G02 X46.3842 Y27.7248 I-2.9693 J-1.5905
G02 X46.2429 Y26.3543 I-3.4843 J-0.3331
G02 X45.5594 Y25.0997 I-3.4689 J1.0763
G02 X44.4052 Y24.1736 I-2.8865 J2.4154
G02 X42.9342 Y23.7498 I-1.7930 J3.4583
G02 X41.3628 Y23.9311 I-0.3331 J4.0133
G02 X39.9379 Y24.7284 I1.2787 J3.9573
G02 X38.8980 Y26.0530 I2.7892 J3.2601
G02 X38.4342 Y27.7248 I3.9464 J1.9951
G02 X38.6555 Y29.4971 I4.5415 J0.3329
G02 X39.5666 Y31.0924 I4.4450 J-1.4809
G02 X41.0615 Y32.2460 I3.6332 J-3.1625
G02 X42.9342 Y32.7498 I2.1968 J-4.4339
G02 X44.9074 Y32.4886 I0.3328 J-5.0689
G02 X46.6731 Y31.4636 I-1.6828 J-4.9322
G02 X47.9405 Y29.7985 I-3.5354 J-4.0059
G02 X48.4842 Y27.7248 I-4.9210 J-2.3984
G02 X48.1830 Y25.5507 I-5.5960 J-0.3326
G02 X47.0443 Y23.6147 I-5.4190 J1.8846
G02 X45.2088 Y22.2335 I-4.3783 J3.9080
G02 X42.9342 Y21.6498 I-2.5999 J5.4077
G02 X40.5592 Y21.9910 I-0.3325 J6.1226
G02 X38.4529 Y23.2435 I2.0862 J5.9054
G02 X36.9579 Y25.2493 I4.2804 J4.7506
G02 X36.3342 Y27.7248 I5.8942 J2.8012
G02 X36.7154 Y30.3007 I6.6491 J0.3324
G02 X38.0817 Y32.5773 I6.3917 J-2.2878
G02 X40.2578 Y34.1862 I5.1226 J-4.6527
G02 X42.9342 Y34.8498 I3.0025 J-6.3804
G02 X45.7111 Y34.4287 I0.3322 J-7.1753
G02 X48.1580 Y32.9486 I-2.4893 J-6.8777
G02 X49.8806 Y30.6021 I-5.0248 J-5.4946
G02 X50.5842 Y27.7248 I-6.8665 J-3.2037
G02 X50.1232 Y24.7470 I-7.7013 J-0.3321
G02 X48.5292 Y22.1298 I-7.3637 J2.6907
G02 X46.0124 Y20.2933 I-5.8664 J5.3968
G02 X42.9342 Y19.5498 I-3.4049 J7.3524
G02 X39.7556 Y20.0508 I-0.3320 J8.2272
G02 X36.9680 Y21.7586 I2.8920 J7.8495
G02 X35.0177 Y24.4457 I5.7687 J6.2382
G02 X34.2342 Y27.7248 I7.8383 J3.6060
G02 X34.7752 Y31.1044 I8.7530 J0.3319
G02 X36.5968 Y34.0622 I8.3352 J-3.0933
G02 X39.4542 Y36.1263 I6.6099 J-6.1405
G02 X42.9342 Y36.9498 I3.8071 J-8.3240
G02 X46.5147 Y36.3689 I0.3318 J-9.2787
G02 X49.6429 Y34.4335 I-3.2945 J-8.8208
G02 X51.8208 Y31.4057 I-6.5123 J-6.9815
G02 X52.6842 Y27.7248 I-8.8097 J-4.0082
G02 X52.0633 Y23.9434 I-9.8044 J-0.3318
G02 X50.0141 Y20.6449 I-9.3064 J3.4958
G02 X46.8161 Y18.3532 I-7.3531 J6.8840
G02 X42.9342 Y17.4498 I-4.2093 J9.2953
G02 X38.9519 Y18.1107 I-0.3317 J10.3300
G02 X35.4831 Y20.2737 I3.6970 J9.7919
G02 X33.0776 Y23.6420 I7.2557 J7.7247
G02 X32.1342 Y27.7248 I9.7809 J4.4103
G02 X32.8351 Y31.9080 I10.8555 J0.3316
G02 X35.1119 Y35.5472 I10.2774 J-3.8981
G02 X38.6506 Y38.0665 I8.0962 J-7.6273
G02 X42.9342 Y39.0498 I4.6114 J-10.2664
G02 X47.3183 Y38.3090 I0.3316 J-11.3809
G02 X51.1278 Y35.9184 I-4.0993 J-10.7629
G02 X53.7609 Y32.2094 I-7.9989 J-8.4677
G02 X54.7842 Y27.7248 I-10.7518 J-4.8124
G02 X54.0035 Y23.1398 I-11.9064 J-0.3315
G02 X51.4991 Y19.1600 I-11.2483 J4.3004
G02 X47.6197 Y16.4131 I-8.8392 J8.3704
G02 X42.9342 Y15.3498 I-5.0134 J11.2373
G02 X38.1483 Y16.1705 I-0.3314 J12.4318
G02 X34.0600 Y18.8506 I4.6922 J11.6157
G02 X31.3395 Y22.9221 I8.8742 J8.8742
G02 X30.3842 Y27.7248 I11.5947 J4.8027
G02 X31.3395 Y32.5275 I12.5500 J0.0000
G02 X34.0600 Y36.5990 I11.5947 J-4.8027
G02 X38.1315 Y39.3195 I8.8742 J-8.8742
G02 X42.9342 Y40.2748 I4.8027 J-11.5947
G02 X47.7369 Y39.3195 I0.0000 J-12.5500
G02 X51.8084 Y36.5990 I-4.8027 J-11.5947
G02 X54.5289 Y32.5275 I-8.8742 J-8.8742
G02 X55.4842 Y27.7248 I-11.5947 J-4.8027
G02 X36.6592 Y16.8562 I-12.5500 J0.0000
G02 Y38.5934 I6.2750 J10.8686
G02 X55.4842 Y27.7248 I6.2750 J-10.8686
G02 X41.5842 I-6.9500 J0.0000
G02 X44.2842 I1.3500 J0.0000
G02 X42.2592 Y26.5557 Z-2.6667 I-1.3500 J0.0000 F100
G02 Y28.8939 Z-2.8333 I0.6750 J1.1691
G02 X44.2842 Y27.7248 Z-3.0000 I0.6750 J-1.1691
G02 X42.2592 Y26.5557 I-1.3500 J0.0000
G02 Y28.8939 I0.6750 J1.1691
G02 X44.2842 Y27.7248 I0.6750 J-1.1691
G02 X44.3027 Y27.1580 I-1.3424 J-0.3275 F500
G02 X44.0744 Y26.5846 I-1.4923 J0.2621
G02 X43.6015 Y26.1138 I-1.3754 J0.9086
G02 X42.9342 Y25.8498 I-0.9755 J1.4905
G02 X42.1665 Y25.8713 I-0.3315 J1.8853
G02 X41.4228 Y26.2134 I0.4663 J1.9931
G02 X40.8382 Y26.8566 I1.2881 J1.7580
G02 X40.5342 Y27.7248 I1.9864 J1.1827
G02 X40.5957 Y28.6935 I2.4215 J0.3327
G02 X41.0516 Y29.6075 I2.4878 J-0.6702
G02 X41.8651 Y30.3059 I2.1362 J-1.6653
G02 X42.9342 Y30.6498 I1.3873 J-2.4789
G02 X44.1038 Y30.5484 I0.3331 J-2.9540
G02 X45.1881 Y29.9787 I-0.8735 J-2.9792
G02 X46.0004 Y28.9948 I-2.0409 J-2.5120
G02 X46.3842 Y27.7248 I-2.9693 J-1.5905
G02 X46.2429 Y26.3543 I-3.4843 J-0.3331
G02 X45.5594 Y25.0997 I-3.4689 J1.0763
G02 X44.4052 Y24.1736 I-2.8865 J2.4154
G02 X42.9342 Y23.7498 I-1.7930 J3.4583
G02 X41.3628 Y23.9311 I-0.3331 J4.0133
G02 X39.9379 Y24.7284 I1.2787 J3.9573
G02 X38.8980 Y26.0530 I2.7892 J3.2601
G02 X38.4342 Y27.7248 I3.9464 J1.9951
G02 X38.6555 Y29.4971 I4.5415 J0.3329
G02 X39.5666 Y31.0924 I4.4450 J-1.4809
G02 X41.0615 Y32.2460 I3.6332 J-3.1625
G02 X42.9342 Y32.7498 I2.1968 J-4.4339
G02 X44.9074 Y32.4886 I0.3328 J-5.0689
G02 X46.6731 Y31.4636 I-1.6828 J-4.9322
G02 X47.9405 Y29.7985 I-3.5354 J-4.0059
G02 X48.4842 Y27.7248 I-4.9210 J-2.3984
G02 X48.1830 Y25.5507 I-5.5960 J-0.3326
G02 X47.0443 Y23.6147 I-5.4190 J1.8846
G02 X45.2088 Y22.2335 I-4.3783 J3.9080
G02 X42.9342 Y21.6498 I-2.5999 J5.4077
G02 X40.5592 Y21.9910 I-0.3325 J6.1226
G02 X38.4529 Y23.2435 I2.0862 J5.9054
G02 X36.9579 Y25.2493 I4.2804 J4.7506
G02 X36.3342 Y27.7248 I5.8942 J2.8012
G02 X36.7154 Y30.3007 I6.6491 J0.3324
G02 X38.0817 Y32.5773 I6.3917 J-2.2878
G02 X40.2578 Y34.1862 I5.1226 J-4.6527
G02 X42.9342 Y34.8498 I3.0025 J-6.3804
G02 X45.7111 Y34.4287 I0.3322 J-7.1753
G02 X48.1580 Y32.9486 I-2.4893 J-6.8777
G02 X49.8806 Y30.6021 I-5.0248 J-5.4946
G02 X50.5842 Y27.7248 I-6.8665 J-3.2037
G02 X50.1232 Y24.7470 I-7.7013 J-0.3321
G02 X48.5292 Y22.1298 I-7.3637 J2.6907
G02 X46.0124 Y20.2933 I-5.8664 J5.3968
G02 X42.9342 Y19.5498 I-3.4049 J7.3524
G02 X39.7556 Y20.0508 I-0.3320 J8.2272
G02 X36.9680 Y21.7586 I2.8920 J7.8495
G02 X35.0177 Y24.4457 I5.7687 J6.2382
G02 X34.2342 Y27.7248 I7.8383 J3.6060
G02 X34.7752 Y31.1044 I8.7530 J0.3319
G02 X36.5968 Y34.0622 I8.3352 J-3.0933
G02 X39.4542 Y36.1263 I6.6099 J-6.1405
G02 X42.9342 Y36.9498 I3.8071 J-8.3240
G02 X46.5147 Y36.3689 I0.3318 J-9.2787
G02 X49.6429 Y34.4335 I-3.2945 J-8.8208
G02 X51.8208 Y31.4057 I-6.5123 J-6.9815
G02 X52.6842 Y27.7248 I-8.8097 J-4.0082
G02 X52.0633 Y23.9434 I-9.8044 J-0.3318
G02 X50.0141 Y20.6449 I-9.3064 J3.4958
G02 X46.8161 Y18.3532 I-7.3531 J6.8840
G02 X42.9342 Y17.4498 I-4.2093 J9.2953
G02 X38.9519 Y18.1107 I-0.3317 J10.3300
G02 X35.4831 Y20.2737 I3.6970 J9.7919
G02 X33.0776 Y23.6420 I7.2557 J7.7247
G02 X32.1342 Y27.7248 I9.7809 J4.4103
G02 X32.8351 Y31.9080 I10.8555 J0.3316
G02 X35.1119 Y35.5472 I10.2774 J-3.8981
G02 X38.6506 Y38.0665 I8.0962 J-7.6273
G02 X42.9342 Y39.0498 I4.6114 J-10.2664
G02 X47.3183 Y38.3090 I0.3316 J-11.3809
G02 X51.1278 Y35.9184 I-4.0993 J-10.7629
G02 X53.7609 Y32.2094 I-7.9989 J-8.4677
G02 X54.7842 Y27.7248 I-10.7518 J-4.8124
G02 X54.0035 Y23.1398 I-11.9064 J-0.3315
G02 X51.4991 Y19.1600 I-11.2483 J4.3004
G02 X47.6197 Y16.4131 I-8.8392 J8.3704
G02 X42.9342 Y15.3498 I-5.0134 J11.2373
G02 X38.1483 Y16.1705 I-0.3314 J12.4318
G02 X34.0600 Y18.8506 I4.6922 J11.6157
G02 X31.3395 Y22.9221 I8.8742 J8.8742
G02 X30.3842 Y27.7248 I11.5947 J4.8027
G02 X31.3395 Y32.5275 I12.5500 J0.0000
G02 X34.0600 Y36.5990 I11.5947 J-4.8027
G02 X38.1315 Y39.3195 I8.8742 J-8.8742
G02 X42.9342 Y40.2748 I4.8027 J-11.5947
G02 X47.7369 Y39.3195 I0.0000 J-12.5500
G02 X51.8084 Y36.5990 I-4.8027 J-11.5947
G02 X54.5289 Y32.5275 I-8.8742 J-8.8742
G02 X55.4842 Y27.7248 I-11.5947 J-4.8027
G02 X36.6592 Y16.8562 I-12.5500 J0.0000
G02 Y38.5934 I6.2750 J10.8686
G02 X55.4842 Y27.7248 I6.2750 J-10.8686
G02 X41.5842 I-6.9500 J0.0000
G02 X44.2842 I1.3500 J0.0000
G02 X42.2592 Y26.5557 Z-3.1667 I-1.3500 J0.0000 F100
G02 Y28.8939 Z-3.3333 I0.6750 J1.1691
G02 X44.2842 Y27.7248 Z-3.5000 I0.6750 J-1.1691
G02 X42.2592 Y26.5557 I-1.3500 J0.0000
G02 Y28.8939 I0.6750 J1.1691
G02 X44.2842 Y27.7248 I0.6750 J-1.1691
G02 X44.3027 Y27.1580 I-1.3424 J-0.3275 F500
G02 X44.0744 Y26.5846 I-1.4923 J0.2621
G02 X43.6015 Y26.1138 I-1.3754 J0.9086
G02 X42.9342 Y25.8498 I-0.9755 J1.4905
G02 X42.1665 Y25.8713 I-0.3315 J1.8853
G02 X41.4228 Y26.2134 I0.4663 J1.9931
G02 X40.8382 Y26.8566 I1.2881 J1.7580
G02 X40.5342 Y27.7248 I1.9864 J1.1827
G02 X40.5957 Y28.6935 I2.4215 J0.3327
G02 X41.0516 Y29.6075 I2.4878 J-0.6702
G02 X41.8651 Y30.3059 I2.1362 J-1.6653
G02 X42.9342 Y30.6498 I1.3873 J-2.4789
G02 X44.1038 Y30.5484 I0.3331 J-2.9540
G02 X45.1881 Y29.9787 I-0.8735 J-2.9792
G02 X46.0004 Y28.9948 I-2.0409 J-2.5120
G02 X46.3842 Y27.7248 I-2.9693 J-1.5905
G02 X46.2429 Y26.3543 I-3.4843 J-0.3331
G02 X45.5594 Y25.0997 I-3.4689 J1.0763
G02 X44.4052 Y24.1736 I-2.8865 J2.4154
G02 X42.9342 Y23.7498 I-1.7930 J3.4583
G02 X41.3628 Y23.9311 I-0.3331 J4.0133
G02 X39.9379 Y24.7284 I1.2787 J3.9573
G02 X38.8980 Y26.0530 I2.7892 J3.2601
G02 X38.4342 Y27.7248 I3.9464 J1.9951
G02 X38.6555 Y29.4971 I4.5415 J0.3329
G02 X39.5666 Y31.0924 I4.4450 J-1.4809
G02 X41.0615 Y32.2460 I3.6332 J-3.1625
G02 X42.9342 Y32.7498 I2.1968 J-4.4339
G02 X44.9074 Y32.4886 I0.3328 J-5.0689
G02 X46.6731 Y31.4636 I-1.6828 J-4.9322
G02 X47.9405 Y29.7985 I-3.5354 J-4.0059
G02 X48.4842 Y27.7248 I-4.9210 J-2.3984
G02 X48.1830 Y25.5507 I-5.5960 J-0.3326
G02 X47.0443 Y23.6147 I-5.4190 J1.8846
G02 X45.2088 Y22.2335 I-4.3783 J3.9080
G02 X42.9342 Y21.6498 I-2.5999 J5.4077
G02 X40.5592 Y21.9910 I-0.3325 J6.1226
G02 X38.4529 Y23.2435 I2.0862 J5.9054
G02 X36.9579 Y25.2493 I4.2804 J4.7506
G02 X36.3342 Y27.7248 I5.8942 J2.8012
G02 X36.7154 Y30.3007 I6.6491 J0.3324
G02 X38.0817 Y32.5773 I6.3917 J-2.2878
G02 X40.2578 Y34.1862 I5.1226 J-4.6527
G02 X42.9342 Y34.8498 I3.0025 J-6.3804
G02 X45.7111 Y34.4287 I0.3322 J-7.1753
G02 X48.1580 Y32.9486 I-2.4893 J-6.8777
G02 X49.8806 Y30.6021 I-5.0248 J-5.4946
G02 X50.5842 Y27.7248 I-6.8665 J-3.2037
G02 X50.1232 Y24.7470 I-7.7013 J-0.3321
G02 X48.5292 Y22.1298 I-7.3637 J2.6907
G02 X46.0124 Y20.2933 I-5.8664 J5.3968
G02 X42.9342 Y19.5498 I-3.4049 J7.3524
G02 X39.7556 Y20.0508 I-0.3320 J8.2272
G02 X36.9680 Y21.7586 I2.8920 J7.8495
G02 X35.0177 Y24.4457 I5.7687 J6.2382
G02 X34.2342 Y27.7248 I7.8383 J3.6060
G02 X34.7752 Y31.1044 I8.7530 J0.3319
G02 X36.5968 Y34.0622 I8.3352 J-3.0933
G02 X39.4542 Y36.1263 I6.6099 J-6.1405
G02 X42.9342 Y36.9498 I3.8071 J-8.3240
G02 X46.5147 Y36.3689 I0.3318 J-9.2787
G02 X49.6429 Y34.4335 I-3.2945 J-8.8208
G02 X51.8208 Y31.4057 I-6.5123 J-6.9815
G02 X52.6842 Y27.7248 I-8.8097 J-4.0082
G02 X52.0633 Y23.9434 I-9.8044 J-0.3318
G02 X50.0141 Y20.6449 I-9.3064 J3.4958
G02 X46.8161 Y18.3532 I-7.3531 J6.8840
G02 X42.9342 Y17.4498 I-4.2093 J9.2953
G02 X38.9519 Y18.1107 I-0.3317 J10.3300
G02 X35.4831 Y20.2737 I3.6970 J9.7919
G02 X33.0776 Y23.6420 I7.2557 J7.7247
G02 X32.1342 Y27.7248 I9.7809 J4.4103
G02 X32.8351 Y31.9080 I10.8555 J0.3316
G02 X35.1119 Y35.5472 I10.2774 J-3.8981
G02 X38.6506 Y38.0665 I8.0962 J-7.6273
G02 X42.9342 Y39.0498 I4.6114 J-10.2664
G02 X47.3183 Y38.3090 I0.3316 J-11.3809
G02 X51.1278 Y35.9184 I-4.0993 J-10.7629
G02 X53.7609 Y32.2094 I-7.9989 J-8.4677
G02 X54.7842 Y27.7248 I-10.7518 J-4.8124
G02 X54.0035 Y23.1398 I-11.9064 J-0.3315
G02 X51.4991 Y19.1600 I-11.2483 J4.3004
G02 X47.6197 Y16.4131 I-8.8392 J8.3704
G02 X42.9342 Y15.3498 I-5.0134 J11.2373
G02 X38.1483 Y16.1705 I-0.3314 J12.4318
G02 X34.0600 Y18.8506 I4.6922 J11.6157
G02 X31.3395 Y22.9221 I8.8742 J8.8742
G02 X30.3842 Y27.7248 I11.5947 J4.8027
G02 X31.3395 Y32.5275 I12.5500 J0.0000
G02 X34.0600 Y36.5990 I11.5947 J-4.8027
G02 X38.1315 Y39.3195 I8.8742 J-8.8742
G02 X42.9342 Y40.2748 I4.8027 J-11.5947
G02 X47.7369 Y39.3195 I0.0000 J-12.5500
G02 X51.8084 Y36.5990 I-4.8027 J-11.5947
G02 X54.5289 Y32.5275 I-8.8742 J-8.8742
G02 X55.4842 Y27.7248 I-11.5947 J-4.8027
G02 X36.6592 Y16.8562 I-12.5500 J0.0000
G02 Y38.5934 I6.2750 J10.8686
G02 X55.4842 Y27.7248 I6.2750 J-10.8686
G02 X41.5842 I-6.9500 J0.0000
G02 X44.2842 I1.3500 J0.0000
G02 X42.2592 Y26.5557 Z-3.6667 I-1.3500 J0.0000 F100
G02 Y28.8939 Z-3.8333 I0.6750 J1.1691
G02 X44.2842 Y27.7248 Z-4.0000 I0.6750 J-1.1691
G02 X42.2592 Y26.5557 I-1.3500 J0.0000
G02 Y28.8939 I0.6750 J1.1691
G02 X44.2842 Y27.7248 I0.6750 J-1.1691
G02 X44.3027 Y27.1580 I-1.3424 J-0.3275 F500
G02 X44.0744 Y26.5846 I-1.4923 J0.2621
G02 X43.6015 Y26.1138 I-1.3754 J0.9086
G02 X42.9342 Y25.8498 I-0.9755 J1.4905
G02 X42.1665 Y25.8713 I-0.3315 J1.8853
G02 X41.4228 Y26.2134 I0.4663 J1.9931
G02 X40.8382 Y26.8566 I1.2881 J1.7580
G02 X40.5342 Y27.7248 I1.9864 J1.1827
G02 X40.5957 Y28.6935 I2.4215 J0.3327
G02 X41.0516 Y29.6075 I2.4878 J-0.6702
G02 X41.8651 Y30.3059 I2.1362 J-1.6653
G02 X42.9342 Y30.6498 I1.3873 J-2.4789
G02 X44.1038 Y30.5484 I0.3331 J-2.9540
G02 X45.1881 Y29.9787 I-0.8735 J-2.9792
G02 X46.0004 Y28.9948 I-2.0409 J-2.5120
G02 X46.3842 Y27.7248 I-2.9693 J-1.5905
G02 X46.2429 Y26.3543 I-3.4843 J-0.3331
G02 X45.5594 Y25.0997 I-3.4689 J1.0763
G02 X44.4052 Y24.1736 I-2.8865 J2.4154
G02 X42.9342 Y23.7498 I-1.7930 J3.4583
G02 X41.3628 Y23.9311 I-0.3331 J4.0133
G02 X39.9379 Y24.7284 I1.2787 J3.9573
G02 X38.8980 Y26.0530 I2.7892 J3.2601
G02 X38.4342 Y27.7248 I3.9464 J1.9951
G02 X38.6555 Y29.4971 I4.5415 J0.3329
G02 X39.5666 Y31.0924 I4.4450 J-1.4809
G02 X41.0615 Y32.2460 I3.6332 J-3.1625
G02 X42.9342 Y32.7498 I2.1968 J-4.4339
G02 X44.9074 Y32.4886 I0.3328 J-5.0689
G02 X46.6731 Y31.4636 I-1.6828 J-4.9322
G02 X47.9405 Y29.7985 I-3.5354 J-4.0059
G02 X48.4842 Y27.7248 I-4.9210 J-2.3984
G02 X48.1830 Y25.5507 I-5.5960 J-0.3326
G02 X47.0443 Y23.6147 I-5.4190 J1.8846
G02 X45.2088 Y22.2335 I-4.3783 J3.9080
G02 X42.9342 Y21.6498 I-2.5999 J5.4077
G02 X40.5592 Y21.9910 I-0.3325 J6.1226
G02 X38.4529 Y23.2435 I2.0862 J5.9054
G02 X36.9579 Y25.2493 I4.2804 J4.7506
G02 X36.3342 Y27.7248 I5.8942 J2.8012
G02 X36.7154 Y30.3007 I6.6491 J0.3324
G02 X38.0817 Y32.5773 I6.3917 J-2.2878
G02 X40.2578 Y34.1862 I5.1226 J-4.6527
G02 X42.9342 Y34.8498 I3.0025 J-6.3804
G02 X45.7111 Y34.4287 I0.3322 J-7.1753
G02 X48.1580 Y32.9486 I-2.4893 J-6.8777
G02 X49.8806 Y30.6021 I-5.0248 J-5.4946
G02 X50.5842 Y27.7248 I-6.8665 J-3.2037
G02 X50.1232 Y24.7470 I-7.7013 J-0.3321
G02 X48.5292 Y22.1298 I-7.3637 J2.6907
G02 X46.0124 Y20.2933 I-5.8664 J5.3968
G02 X42.9342 Y19.5498 I-3.4049 J7.3524
G02 X39.7556 Y20.0508 I-0.3320 J8.2272
G02 X36.9680 Y21.7586 I2.8920 J7.8495
G02 X35.0177 Y24.4457 I5.7687 J6.2382
G02 X34.2342 Y27.7248 I7.8383 J3.6060
G02 X34.7752 Y31.1044 I8.7530 J0.3319
G02 X36.5968 Y34.0622 I8.3352 J-3.0933
G02 X39.4542 Y36.1263 I6.6099 J-6.1405
G02 X42.9342 Y36.9498 I3.8071 J-8.3240
G02 X46.5147 Y36.3689 I0.3318 J-9.2787
G02 X49.6429 Y34.4335 I-3.2945 J-8.8208
G02 X51.8208 Y31.4057 I-6.5123 J-6.9815
G02 X52.6842 Y27.7248 I-8.8097 J-4.0082
G02 X52.0633 Y23.9434 I-9.8044 J-0.3318
G02 X50.0141 Y20.6449 I-9.3064 J3.4958
G02 X46.8161 Y18.3532 I-7.3531 J6.8840
G02 X42.9342 Y17.4498 I-4.2093 J9.2953
G02 X38.9519 Y18.1107 I-0.3317 J10.3300
G02 X35.4831 Y20.2737 I3.6970 J9.7919
G02 X33.0776 Y23.6420 I7.2557 J7.7247
G02 X32.1342 Y27.7248 I9.7809 J4.4103
G02 X32.8351 Y31.9080 I10.8555 J0.3316
G02 X35.1119 Y35.5472 I10.2774 J-3.8981
G02 X38.6506 Y38.0665 I8.0962 J-7.6273
G02 X42.9342 Y39.0498 I4.6114 J-10.2664
G02 X47.3183 Y38.3090 I0.3316 J-11.3809
G02 X51.1278 Y35.9184 I-4.0993 J-10.7629
G02 X53.7609 Y32.2094 I-7.9989 J-8.4677
G02 X54.7842 Y27.7248 I-10.7518 J-4.8124
G02 X54.0035 Y23.1398 I-11.9064 J-0.3315
G02 X51.4991 Y19.1600 I-11.2483 J4.3004
G02 X47.6197 Y16.4131 I-8.8392 J8.3704
G02 X42.9342 Y15.3498 I-5.0134 J11.2373
G02 X38.1483 Y16.1705 I-0.3314 J12.4318
G02 X34.0600 Y18.8506 I4.6922 J11.6157
G02 X31.3395 Y22.9221 I8.8742 J8.8742
G02 X30.3842 Y27.7248 I11.5947 J4.8027
G02 X31.3395 Y32.5275 I12.5500 J0.0000
G02 X34.0600 Y36.5990 I11.5947 J-4.8027
G02 X38.1315 Y39.3195 I8.8742 J-8.8742
G02 X42.9342 Y40.2748 I4.8027 J-11.5947
G02 X47.7369 Y39.3195 I0.0000 J-12.5500
G02 X51.8084 Y36.5990 I-4.8027 J-11.5947
G02 X54.5289 Y32.5275 I-8.8742 J-8.8742
G02 X55.4842 Y27.7248 I-11.5947 J-4.8027
G02 X36.6592 Y16.8562 I-12.5500 J0.0000
G02 Y38.5934 I6.2750 J10.8686
G02 X55.4842 Y27.7248 I6.2750 J-10.8686
G02 X41.5842 I-6.9500 J0.0000
G02 X44.2842 I1.3500 J0.0000
G02 X42.2592 Y26.5557 Z-4.1667 I-1.3500 J0.0000 F100
G02 Y28.8939 Z-4.3333 I0.6750 J1.1691
G02 X44.2842 Y27.7248 Z-4.5000 I0.6750 J-1.1691
G02 X42.2592 Y26.5557 I-1.3500 J0.0000
G02 Y28.8939 I0.6750 J1.1691
G02 X44.2842 Y27.7248 I0.6750 J-1.1691
G02 X44.3027 Y27.1580 I-1.3424 J-0.3275 F500
G02 X44.0744 Y26.5846 I-1.4923 J0.2621
G02 X43.6015 Y26.1138 I-1.3754 J0.9086
G02 X42.9342 Y25.8498 I-0.9755 J1.4905
G02 X42.1665 Y25.8713 I-0.3315 J1.8853
G02 X41.4228 Y26.2134 I0.4663 J1.9931
G02 X40.8382 Y26.8566 I1.2881 J1.7580
G02 X40.5342 Y27.7248 I1.9864 J1.1827
G02 X40.5957 Y28.6935 I2.4215 J0.3327
G02 X41.0516 Y29.6075 I2.4878 J-0.6702
G02 X41.8651 Y30.3059 I2.1362 J-1.6653
G02 X42.9342 Y30.6498 I1.3873 J-2.4789
G02 X44.1038 Y30.5484 I0.3331 J-2.9540
G02 X45.1881 Y29.9787 I-0.8735 J-2.9792
G02 X46.0004 Y28.9948 I-2.0409 J-2.5120
G02 X46.3842 Y27.7248 I-2.9693 J-1.5905
G02 X46.2429 Y26.3543 I-3.4843 J-0.3331
G02 X45.5594 Y25.0997 I-3.4689 J1.0763
G02 X44.4052 Y24.1736 I-2.8865 J2.4154
G02 X42.9342 Y23.7498 I-1.7930 J3.4583
G02 X41.3628 Y23.9311 I-0.3331 J4.0133
G02 X39.9379 Y24.7284 I1.2787 J3.9573
G02 X38.8980 Y26.0530 I2.7892 J3.2601
G02 X38.4342 Y27.7248 I3.9464 J1.9951
G02 X38.6555 Y29.4971 I4.5415 J0.3329
G02 X39.5666 Y31.0924 I4.4450 J-1.4809
G02 X41.0615 Y32.2460 I3.6332 J-3.1625
G02 X42.9342 Y32.7498 I2.1968 J-4.4339
G02 X44.9074 Y32.4886 I0.3328 J-5.0689
G02 X46.6731 Y31.4636 I-1.6828 J-4.9322
G02 X47.9405 Y29.7985 I-3.5354 J-4.0059
G02 X48.4842 Y27.7248 I-4.9210 J-2.3984
G02 X48.1830 Y25.5507 I-5.5960 J-0.3326
G02 X47.0443 Y23.6147 I-5.4190 J1.8846
G02 X45.2088 Y22.2335 I-4.3783 J3.9080
G02 X42.9342 Y21.6498 I-2.5999 J5.4077
G02 X40.5592 Y21.9910 I-0.3325 J6.1226
G02 X38.4529 Y23.2435 I2.0862 J5.9054
G02 X36.9579 Y25.2493 I4.2804 J4.7506
G02 X36.3342 Y27.7248 I5.8942 J2.8012
G02 X36.7154 Y30.3007 I6.6491 J0.3324
G02 X38.0817 Y32.5773 I6.3917 J-2.2878
G02 X40.2578 Y34.1862 I5.1226 J-4.6527
G02 X42.9342 Y34.8498 I3.0025 J-6.3804
G02 X45.7111 Y34.4287 I0.3322 J-7.1753
G02 X48.1580 Y32.9486 I-2.4893 J-6.8777
G02 X49.8806 Y30.6021 I-5.0248 J-5.4946
G02 X50.5842 Y27.7248 I-6.8665 J-3.2037
G02 X50.1232 Y24.7470 I-7.7013 J-0.3321
G02 X48.5292 Y22.1298 I-7.3637 J2.6907
G02 X46.0124 Y20.2933 I-5.8664 J5.3968
G02 X42.9342 Y19.5498 I-3.4049 J7.3524
G02 X39.7556 Y20.0508 I-0.3320 J8.2272
G02 X36.9680 Y21.7586 I2.8920 J7.8495
G02 X35.0177 Y24.4457 I5.7687 J6.2382
G02 X34.2342 Y27.7248 I7.8383 J3.6060
G02 X34.7752 Y31.1044 I8.7530 J0.3319
G02 X36.5968 Y34.0622 I8.3352 J-3.0933
G02 X39.4542 Y36.1263 I6.6099 J-6.1405
G02 X42.9342 Y36.9498 I3.8071 J-8.3240
G02 X46.5147 Y36.3689 I0.3318 J-9.2787
G02 X49.6429 Y34.4335 I-3.2945 J-8.8208
G02 X51.8208 Y31.4057 I-6.5123 J-6.9815
G02 X52.6842 Y27.7248 I-8.8097 J-4.0082
G02 X52.0633 Y23.9434 I-9.8044 J-0.3318
G02 X50.0141 Y20.6449 I-9.3064 J3.4958
G02 X46.8161 Y18.3532 I-7.3531 J6.8840
G02 X42.9342 Y17.4498 I-4.2093 J9.2953
G02 X38.9519 Y18.1107 I-0.3317 J10.3300
G02 X35.4831 Y20.2737 I3.6970 J9.7919
G02 X33.0776 Y23.6420 I7.2557 J7.7247
G02 X32.1342 Y27.7248 I9.7809 J4.4103
G02 X32.8351 Y31.9080 I10.8555 J0.3316
G02 X35.1119 Y35.5472 I10.2774 J-3.8981
G02 X38.6506 Y38.0665 I8.0962 J-7.6273
G02 X42.9342 Y39.0498 I4.6114 J-10.2664
G02 X47.3183 Y38.3090 I0.3316 J-11.3809
G02 X51.1278 Y35.9184 I-4.0993 J-10.7629
G02 X53.7609 Y32.2094 I-7.9989 J-8.4677
G02 X54.7842 Y27.7248 I-10.7518 J-4.8124
G02 X54.0035 Y23.1398 I-11.9064 J-0.3315
G02 X51.4991 Y19.1600 I-11.2483 J4.3004
G02 X47.6197 Y16.4131 I-8.8392 J8.3704
G02 X42.9342 Y15.3498 I-5.0134 J11.2373
G02 X38.1483 Y16.1705 I-0.3314 J12.4318
G02 X34.0600 Y18.8506 I4.6922 J11.6157
G02 X31.3395 Y22.9221 I8.8742 J8.8742
G02 X30.3842 Y27.7248 I11.5947 J4.8027
G02 X31.3395 Y32.5275 I12.5500 J0.0000
G02 X34.0600 Y36.5990 I11.5947 J-4.8027
G02 X38.1315 Y39.3195 I8.8742 J-8.8742
G02 X42.9342 Y40.2748 I4.8027 J-11.5947
G02 X47.7369 Y39.3195 I0.0000 J-12.5500
G02 X51.8084 Y36.5990 I-4.8027 J-11.5947
G02 X54.5289 Y32.5275 I-8.8742 J-8.8742
G02 X55.4842 Y27.7248 I-11.5947 J-4.8027
G02 X36.6592 Y16.8562 I-12.5500 J0.0000
G02 Y38.5934 I6.2750 J10.8686
G02 X55.4842 Y27.7248 I6.2750 J-10.8686
G02 X41.5842 I-6.9500 J0.0000
G02 X44.2842 I1.3500 J0.0000
G02 X42.2592 Y26.5557 Z-4.6667 I-1.3500 J0.0000 F100
G02 Y28.8939 Z-4.8333 I0.6750 J1.1691
G02 X44.2842 Y27.7248 Z-5.0000 I0.6750 J-1.1691
G02 X42.2592 Y26.5557 I-1.3500 J0.0000
G02 Y28.8939 I0.6750 J1.1691
G02 X44.2842 Y27.7248 I0.6750 J-1.1691
G02 X44.3027 Y27.1580 I-1.3424 J-0.3275 F500
G02 X44.0744 Y26.5846 I-1.4923 J0.2621
G02 X43.6015 Y26.1138 I-1.3754 J0.9086
G02 X42.9342 Y25.8498 I-0.9755 J1.4905
G02 X42.1665 Y25.8713 I-0.3315 J1.8853
G02 X41.4228 Y26.2134 I0.4663 J1.9931
G02 X40.8382 Y26.8566 I1.2881 J1.7580
G02 X40.5342 Y27.7248 I1.9864 J1.1827
G02 X40.5957 Y28.6935 I2.4215 J0.3327
G02 X41.0516 Y29.6075 I2.4878 J-0.6702
G02 X41.8651 Y30.3059 I2.1362 J-1.6653
G02 X42.9342 Y30.6498 I1.3873 J-2.4789
G02 X44.1038 Y30.5484 I0.3331 J-2.9540
G02 X45.1881 Y29.9787 I-0.8735 J-2.9792
G02 X46.0004 Y28.9948 I-2.0409 J-2.5120
G02 X46.3842 Y27.7248 I-2.9693 J-1.5905
G02 X46.2429 Y26.3543 I-3.4843 J-0.3331
G02 X45.5594 Y25.0997 I-3.4689 J1.0763
G02 X44.4052 Y24.1736 I-2.8865 J2.4154
G02 X42.9342 Y23.7498 I-1.7930 J3.4583
G02 X41.3628 Y23.9311 I-0.3331 J4.0133
G02 X39.9379 Y24.7284 I1.2787 J3.9573
G02 X38.8980 Y26.0530 I2.7892 J3.2601
G02 X38.4342 Y27.7248 I3.9464 J1.9951
G02 X38.6555 Y29.4971 I4.5415 J0.3329
G02 X39.5666 Y31.0924 I4.4450 J-1.4809
G02 X41.0615 Y32.2460 I3.6332 J-3.1625
G02 X42.9342 Y32.7498 I2.1968 J-4.4339
G02 X44.9074 Y32.4886 I0.3328 J-5.0689
G02 X46.6731 Y31.4636 I-1.6828 J-4.9322
G02 X47.9405 Y29.7985 I-3.5354 J-4.0059
G02 X48.4842 Y27.7248 I-4.9210 J-2.3984
G02 X48.1830 Y25.5507 I-5.5960 J-0.3326
G02 X47.0443 Y23.6147 I-5.4190 J1.8846
G02 X45.2088 Y22.2335 I-4.3783 J3.9080
G02 X42.9342 Y21.6498 I-2.5999 J5.4077
G02 X40.5592 Y21.9910 I-0.3325 J6.1226
G02 X38.4529 Y23.2435 I2.0862 J5.9054
G02 X36.9579 Y25.2493 I4.2804 J4.7506
G02 X36.3342 Y27.7248 I5.8942 J2.8012
G02 X36.7154 Y30.3007 I6.6491 J0.3324
G02 X38.0817 Y32.5773 I6.3917 J-2.2878
G02 X40.2578 Y34.1862 I5.1226 J-4.6527
G02 X42.9342 Y34.8498 I3.0025 J-6.3804
G02 X45.7111 Y34.4287 I0.3322 J-7.1753
G02 X48.1580 Y32.9486 I-2.4893 J-6.8777
G02 X49.8806 Y30.6021 I-5.0248 J-5.4946
G02 X50.5842 Y27.7248 I-6.8665 J-3.2037
G02 X50.1232 Y24.7470 I-7.7013 J-0.3321
G02 X48.5292 Y22.1298 I-7.3637 J2.6907
G02 X46.0124 Y20.2933 I-5.8664 J5.3968
G02 X42.9342 Y19.5498 I-3.4049 J7.3524
G02 X39.7556 Y20.0508 I-0.3320 J8.2272
G02 X36.9680 Y21.7586 I2.8920 J7.8495
G02 X35.0177 Y24.4457 I5.7687 J6.2382
G02 X34.2342 Y27.7248 I7.8383 J3.6060
G02 X34.7752 Y31.1044 I8.7530 J0.3319
G02 X36.5968 Y34.0622 I8.3352 J-3.0933
G02 X39.4542 Y36.1263 I6.6099 J-6.1405
G02 X42.9342 Y36.9498 I3.8071 J-8.3240
G02 X46.5147 Y36.3689 I0.3318 J-9.2787
G02 X49.6429 Y34.4335 I-3.2945 J-8.8208
G02 X51.8208 Y31.4057 I-6.5123 J-6.9815
G02 X52.6842 Y27.7248 I-8.8097 J-4.0082
G02 X52.0633 Y23.9434 I-9.8044 J-0.3318
G02 X50.0141 Y20.6449 I-9.3064 J3.4958
G02 X46.8161 Y18.3532 I-7.3531 J6.8840
G02 X42.9342 Y17.4498 I-4.2093 J9.2953
G02 X38.9519 Y18.1107 I-0.3317 J10.3300
G02 X35.4831 Y20.2737 I3.6970 J9.7919
G02 X33.0776 Y23.6420 I7.2557 J7.7247
G02 X32.1342 Y27.7248 I9.7809 J4.4103
G02 X32.8351 Y31.9080 I10.8555 J0.3316
G02 X35.1119 Y35.5472 I10.2774 J-3.8981
G02 X38.6506 Y38.0665 I8.0962 J-7.6273
G02 X42.9342 Y39.0498 I4.6114 J-10.2664
G02 X47.3183 Y38.3090 I0.3316 J-11.3809
G02 X51.1278 Y35.9184 I-4.0993 J-10.7629
G02 X53.7609 Y32.2094 I-7.9989 J-8.4677
G02 X54.7842 Y27.7248 I-10.7518 J-4.8124
G02 X54.0035 Y23.1398 I-11.9064 J-0.3315
G02 X51.4991 Y19.1600 I-11.2483 J4.3004
G02 X47.6197 Y16.4131 I-8.8392 J8.3704
G02 X42.9342 Y15.3498 I-5.0134 J11.2373
G02 X38.1483 Y16.1705 I-0.3314 J12.4318
G02 X34.0600 Y18.8506 I4.6922 J11.6157
G02 X31.3395 Y22.9221 I8.8742 J8.8742
G02 X30.3842 Y27.7248 I11.5947 J4.8027
G02 X31.3395 Y32.5275 I12.5500 J0.0000
G02 X34.0600 Y36.5990 I11.5947 J-4.8027
G02 X38.1315 Y39.3195 I8.8742 J-8.8742
G02 X42.9342 Y40.2748 I4.8027 J-11.5947
G02 X47.7369 Y39.3195 I0.0000 J-12.5500
G02 X51.8084 Y36.5990 I-4.8027 J-11.5947
G02 X54.5289 Y32.5275 I-8.8742 J-8.8742
G02 X55.4842 Y27.7248 I-11.5947 J-4.8027
G02 X36.6592 Y16.8562 I-12.5500 J0.0000
G02 Y38.5934 I6.2750 J10.8686
G02 X55.4842 Y27.7248 I6.2750 J-10.8686
G02 X41.5842 I-6.9500 J0.0000
G02 X44.2842 I1.3500 J0.0000
G02 X42.2592 Y26.5557 Z-5.1667 I-1.3500 J0.0000 F100
G02 Y28.8939 Z-5.3333 I0.6750 J1.1691
G02 X44.2842 Y27.7248 Z-5.5000 I0.6750 J-1.1691
G02 X42.2592 Y26.5557 I-1.3500 J0.0000
G02 Y28.8939 I0.6750 J1.1691
G02 X44.2842 Y27.7248 I0.6750 J-1.1691
G02 X44.3027 Y27.1580 I-1.3424 J-0.3275 F500
G02 X44.0744 Y26.5846 I-1.4923 J0.2621
G02 X43.6015 Y26.1138 I-1.3754 J0.9086
G02 X42.9342 Y25.8498 I-0.9755 J1.4905
G02 X42.1665 Y25.8713 I-0.3315 J1.8853
G02 X41.4228 Y26.2134 I0.4663 J1.9931
G02 X40.8382 Y26.8566 I1.2881 J1.7580
G02 X40.5342 Y27.7248 I1.9864 J1.1827
G02 X40.5957 Y28.6935 I2.4215 J0.3327
G02 X41.0516 Y29.6075 I2.4878 J-0.6702
G02 X41.8651 Y30.3059 I2.1362 J-1.6653
G02 X42.9342 Y30.6498 I1.3873 J-2.4789
G02 X44.1038 Y30.5484 I0.3331 J-2.9540
G02 X45.1881 Y29.9787 I-0.8735 J-2.9792
G02 X46.0004 Y28.9948 I-2.0409 J-2.5120
G02 X46.3842 Y27.7248 I-2.9693 J-1.5905
G02 X46.2429 Y26.3543 I-3.4843 J-0.3331
G02 X45.5594 Y25.0997 I-3.4689 J1.0763
G02 X44.4052 Y24.1736 I-2.8865 J2.4154
G02 X42.9342 Y23.7498 I-1.7930 J3.4583
G02 X41.3628 Y23.9311 I-0.3331 J4.0133
G02 X39.9379 Y24.7284 I1.2787 J3.9573
G02 X38.8980 Y26.0530 I2.7892 J3.2601
G02 X38.4342 Y27.7248 I3.9464 J1.9951
G02 X38.6555 Y29.4971 I4.5415 J0.3329
G02 X39.5666 Y31.0924 I4.4450 J-1.4809
G02 X41.0615 Y32.2460 I3.6332 J-3.1625
G02 X42.9342 Y32.7498 I2.1968 J-4.4339
G02 X44.9074 Y32.4886 I0.3328 J-5.0689
G02 X46.6731 Y31.4636 I-1.6828 J-4.9322
G02 X47.9405 Y29.7985 I-3.5354 J-4.0059
G02 X48.4842 Y27.7248 I-4.9210 J-2.3984
G02 X48.1830 Y25.5507 I-5.5960 J-0.3326
G02 X47.0443 Y23.6147 I-5.4190 J1.8846
G02 X45.2088 Y22.2335 I-4.3783 J3.9080
G02 X42.9342 Y21.6498 I-2.5999 J5.4077
G02 X40.5592 Y21.9910 I-0.3325 J6.1226
G02 X38.4529 Y23.2435 I2.0862 J5.9054
G02 X36.9579 Y25.2493 I4.2804 J4.7506
G02 X36.3342 Y27.7248 I5.8942 J2.8012
G02 X36.7154 Y30.3007 I6.6491 J0.3324
G02 X38.0817 Y32.5773 I6.3917 J-2.2878
G02 X40.2578 Y34.1862 I5.1226 J-4.6527
G02 X42.9342 Y34.8498 I3.0025 J-6.3804
G02 X45.7111 Y34.4287 I0.3322 J-7.1753
G02 X48.1580 Y32.9486 I-2.4893 J-6.8777
G02 X49.8806 Y30.6021 I-5.0248 J-5.4946
G02 X50.5842 Y27.7248 I-6.8665 J-3.2037
G02 X50.1232 Y24.7470 I-7.7013 J-0.3321
G02 X48.5292 Y22.1298 I-7.3637 J2.6907
G02 X46.0124 Y20.2933 I-5.8664 J5.3968
G02 X42.9342 Y19.5498 I-3.4049 J7.3524
G02 X39.7556 Y20.0508 I-0.3320 J8.2272
G02 X36.9680 Y21.7586 I2.8920 J7.8495
G02 X35.0177 Y24.4457 I5.7687 J6.2382
G02 X34.2342 Y27.7248 I7.8383 J3.6060
G02 X34.7752 Y31.1044 I8.7530 J0.3319
G02 X36.5968 Y34.0622 I8.3352 J-3.0933
G02 X39.4542 Y36.1263 I6.6099 J-6.1405
G02 X42.9342 Y36.9498 I3.8071 J-8.3240
G02 X46.5147 Y36.3689 I0.3318 J-9.2787
G02 X49.6429 Y34.4335 I-3.2945 J-8.8208
G02 X51.8208 Y31.4057 I-6.5123 J-6.9815
G02 X52.6842 Y27.7248 I-8.8097 J-4.0082
G02 X52.0633 Y23.9434 I-9.8044 J-0.3318
G02 X50.0141 Y20.6449 I-9.3064 J3.4958
G02 X46.8161 Y18.3532 I-7.3531 J6.8840
G02 X42.9342 Y17.4498 I-4.2093 J9.2953
G02 X38.9519 Y18.1107 I-0.3317 J10.3300
G02 X35.4831 Y20.2737 I3.6970 J9.7919
G02 X33.0776 Y23.6420 I7.2557 J7.7247
G02 X32.1342 Y27.7248 I9.7809 J4.4103
G02 X32.8351 Y31.9080 I10.8555 J0.3316
G02 X35.1119 Y35.5472 I10.2774 J-3.8981
G02 X38.6506 Y38.0665 I8.0962 J-7.6273
G02 X42.9342 Y39.0498 I4.6114 J-10.2664
G02 X47.3183 Y38.3090 I0.3316 J-11.3809
G02 X51.1278 Y35.9184 I-4.0993 J-10.7629
G02 X53.7609 Y32.2094 I-7.9989 J-8.4677
G02 X54.7842 Y27.7248 I-10.7518 J-4.8124
G02 X54.0035 Y23.1398 I-11.9064 J-0.3315
G02 X51.4991 Y19.1600 I-11.2483 J4.3004
G02 X47.6197 Y16.4131 I-8.8392 J8.3704
G02 X42.9342 Y15.3498 I-5.0134 J11.2373
G02 X38.1483 Y16.1705 I-0.3314 J12.4318
G02 X34.0600 Y18.8506 I4.6922 J11.6157
G02 X31.3395 Y22.9221 I8.8742 J8.8742
G02 X30.3842 Y27.7248 I11.5947 J4.8027
G02 X31.3395 Y32.5275 I12.5500 J0.0000
G02 X34.0600 Y36.5990 I11.5947 J-4.8027
G02 X38.1315 Y39.3195 I8.8742 J-8.8742
G02 X42.9342 Y40.2748 I4.8027 J-11.5947
G02 X47.7369 Y39.3195 I0.0000 J-12.5500
G02 X51.8084 Y36.5990 I-4.8027 J-11.5947
G02 X54.5289 Y32.5275 I-8.8742 J-8.8742
G02 X55.4842 Y27.7248 I-11.5947 J-4.8027
G02 X36.6592 Y16.8562 I-12.5500 J0.0000
G02 Y38.5934 I6.2750 J10.8686
G02 X55.4842 Y27.7248 I6.2750 J-10.8686
G02 X41.5842 I-6.9500 J0.0000
G02 X44.2842 I1.3500 J0.0000
G02 X42.2592 Y26.5557 Z-5.6667 I-1.3500 J0.0000 F100
G02 Y28.8939 Z-5.8333 I0.6750 J1.1691
G02 X44.2842 Y27.7248 Z-6.0000 I0.6750 J-1.1691
G02 X42.2592 Y26.5557 I-1.3500 J0.0000
G02 Y28.8939 I0.6750 J1.1691
G02 X44.2842 Y27.7248 I0.6750 J-1.1691
G02 X44.3027 Y27.1580 I-1.3424 J-0.3275 F500
G02 X44.0744 Y26.5846 I-1.4923 J0.2621
G02 X43.6015 Y26.1138 I-1.3754 J0.9086
G02 X42.9342 Y25.8498 I-0.9755 J1.4905
G02 X42.1665 Y25.8713 I-0.3315 J1.8853
G02 X41.4228 Y26.2134 I0.4663 J1.9931
G02 X40.8382 Y26.8566 I1.2881 J1.7580
G02 X40.5342 Y27.7248 I1.9864 J1.1827
G02 X40.5957 Y28.6935 I2.4215 J0.3327
G02 X41.0516 Y29.6075 I2.4878 J-0.6702
G02 X41.8651 Y30.3059 I2.1362 J-1.6653
G02 X42.9342 Y30.6498 I1.3873 J-2.4789
G02 X44.1038 Y30.5484 I0.3331 J-2.9540
G02 X45.1881 Y29.9787 I-0.8735 J-2.9792
G02 X46.0004 Y28.9948 I-2.0409 J-2.5120
G02 X46.3842 Y27.7248 I-2.9693 J-1.5905
G02 X46.2429 Y26.3543 I-3.4843 J-0.3331
G02 X45.5594 Y25.0997 I-3.4689 J1.0763
G02 X44.4052 Y24.1736 I-2.8865 J2.4154
G02 X42.9342 Y23.7498 I-1.7930 J3.4583
G02 X41.3628 Y23.9311 I-0.3331 J4.0133
G02 X39.9379 Y24.7284 I1.2787 J3.9573
G02 X38.8980 Y26.0530 I2.7892 J3.2601
G02 X38.4342 Y27.7248 I3.9464 J1.9951
G02 X38.6555 Y29.4971 I4.5415 J0.3329
G02 X39.5666 Y31.0924 I4.4450 J-1.4809
G02 X41.0615 Y32.2460 I3.6332 J-3.1625
G02 X42.9342 Y32.7498 I2.1968 J-4.4339
G02 X44.9074 Y32.4886 I0.3328 J-5.0689
G02 X46.6731 Y31.4636 I-1.6828 J-4.9322
G02 X47.9405 Y29.7985 I-3.5354 J-4.0059
G02 X48.4842 Y27.7248 I-4.9210 J-2.3984
G02 X48.1830 Y25.5507 I-5.5960 J-0.3326
G02 X47.0443 Y23.6147 I-5.4190 J1.8846
G02 X45.2088 Y22.2335 I-4.3783 J3.9080
G02 X42.9342 Y21.6498 I-2.5999 J5.4077
G02 X40.5592 Y21.9910 I-0.3325 J6.1226
G02 X38.4529 Y23.2435 I2.0862 J5.9054
G02 X36.9579 Y25.2493 I4.2804 J4.7506
G02 X36.3342 Y27.7248 I5.8942 J2.8012
G02 X36.7154 Y30.3007 I6.6491 J0.3324
G02 X38.0817 Y32.5773 I6.3917 J-2.2878
G02 X40.2578 Y34.1862 I5.1226 J-4.6527
G02 X42.9342 Y34.8498 I3.0025 J-6.3804
G02 X45.7111 Y34.4287 I0.3322 J-7.1753
G02 X48.1580 Y32.9486 I-2.4893 J-6.8777
G02 X49.8806 Y30.6021 I-5.0248 J-5.4946
G02 X50.5842 Y27.7248 I-6.8665 J-3.2037
G02 X50.1232 Y24.7470 I-7.7013 J-0.3321
G02 X48.5292 Y22.1298 I-7.3637 J2.6907
G02 X46.0124 Y20.2933 I-5.8664 J5.3968
G02 X42.9342 Y19.5498 I-3.4049 J7.3524
G02 X39.7556 Y20.0508 I-0.3320 J8.2272
G02 X36.9680 Y21.7586 I2.8920 J7.8495
G02 X35.0177 Y24.4457 I5.7687 J6.2382
G02 X34.2342 Y27.7248 I7.8383 J3.6060
G02 X34.7752 Y31.1044 I8.7530 J0.3319
G02 X36.5968 Y34.0622 I8.3352 J-3.0933
G02 X39.4542 Y36.1263 I6.6099 J-6.1405
G02 X42.9342 Y36.9498 I3.8071 J-8.3240
G02 X46.5147 Y36.3689 I0.3318 J-9.2787
G02 X49.6429 Y34.4335 I-3.2945 J-8.8208
G02 X51.8208 Y31.4057 I-6.5123 J-6.9815
G02 X52.6842 Y27.7248 I-8.8097 J-4.0082
G02 X52.0633 Y23.9434 I-9.8044 J-0.3318
G02 X50.0141 Y20.6449 I-9.3064 J3.4958
G02 X46.8161 Y18.3532 I-7.3531 J6.8840
G02 X42.9342 Y17.4498 I-4.2093 J9.2953
G02 X38.9519 Y18.1107 I-0.3317 J10.3300
G02 X35.4831 Y20.2737 I3.6970 J9.7919
G02 X33.0776 Y23.6420 I7.2557 J7.7247
G02 X32.1342 Y27.7248 I9.7809 J4.4103
G02 X32.8351 Y31.9080 I10.8555 J0.3316
G02 X35.1119 Y35.5472 I10.2774 J-3.8981
G02 X38.6506 Y38.0665 I8.0962 J-7.6273
G02 X42.9342 Y39.0498 I4.6114 J-10.2664
G02 X47.3183 Y38.3090 I0.3316 J-11.3809
G02 X51.1278 Y35.9184 I-4.0993 J-10.7629
G02 X53.7609 Y32.2094 I-7.9989 J-8.4677
G02 X54.7842 Y27.7248 I-10.7518 J-4.8124
G02 X54.0035 Y23.1398 I-11.9064 J-0.3315
G02 X51.4991 Y19.1600 I-11.2483 J4.3004
G02 X47.6197 Y16.4131 I-8.8392 J8.3704
G02 X42.9342 Y15.3498 I-5.0134 J11.2373
G02 X38.1483 Y16.1705 I-0.3314 J12.4318
G02 X34.0600 Y18.8506 I4.6922 J11.6157
G02 X31.3395 Y22.9221 I8.8742 J8.8742
G02 X30.3842 Y27.7248 I11.5947 J4.8027
G02 X31.3395 Y32.5275 I12.5500 J0.0000
G02 X34.0600 Y36.5990 I11.5947 J-4.8027
G02 X38.1315 Y39.3195 I8.8742 J-8.8742
G02 X42.9342 Y40.2748 I4.8027 J-11.5947
G02 X47.7369 Y39.3195 I0.0000 J-12.5500
G02 X51.8084 Y36.5990 I-4.8027 J-11.5947
G02 X54.5289 Y32.5275 I-8.8742 J-8.8742
G02 X55.4842 Y27.7248 I-11.5947 J-4.8027
G02 X36.6592 Y16.8562 I-12.5500 J0.0000
G02 Y38.5934 I6.2750 J10.8686
G02 X55.4842 Y27.7248 I6.2750 J-10.8686
G02 X41.5842 I-6.9500 J0.0000
G02 X44.2842 I1.3500 J0.0000
G02 X42.2592 Y26.5557 Z-6.1667 I-1.3500 J0.0000 F100
G02 Y28.8939 Z-6.3333 I0.6750 J1.1691
G02 X44.2842 Y27.7248 Z-6.5000 I0.6750 J-1.1691
G02 X42.2592 Y26.5557 I-1.3500 J0.0000
G02 Y28.8939 I0.6750 J1.1691
G02 X44.2842 Y27.7248 I0.6750 J-1.1691
G02 X44.3027 Y27.1580 I-1.3424 J-0.3275 F500
G02 X44.0744 Y26.5846 I-1.4923 J0.2621
G02 X43.6015 Y26.1138 I-1.3754 J0.9086
G02 X42.9342 Y25.8498 I-0.9755 J1.4905
G02 X42.1665 Y25.8713 I-0.3315 J1.8853
G02 X41.4228 Y26.2134 I0.4663 J1.9931
G02 X40.8382 Y26.8566 I1.2881 J1.7580
G02 X40.5342 Y27.7248 I1.9864 J1.1827
G02 X40.5957 Y28.6935 I2.4215 J0.3327
G02 X41.0516 Y29.6075 I2.4878 J-0.6702
G02 X41.8651 Y30.3059 I2.1362 J-1.6653
G02 X42.9342 Y30.6498 I1.3873 J-2.4789
G02 X44.1038 Y30.5484 I0.3331 J-2.9540
G02 X45.1881 Y29.9787 I-0.8735 J-2.9792
G02 X46.0004 Y28.9948 I-2.0409 J-2.5120
G02 X46.3842 Y27.7248 I-2.9693 J-1.5905
G02 X46.2429 Y26.3543 I-3.4843 J-0.3331
G02 X45.5594 Y25.0997 I-3.4689 J1.0763
G02 X44.4052 Y24.1736 I-2.8865 J2.4154
G02 X42.9342 Y23.7498 I-1.7930 J3.4583
G02 X41.3628 Y23.9311 I-0.3331 J4.0133
G02 X39.9379 Y24.7284 I1.2787 J3.9573
G02 X38.8980 Y26.0530 I2.7892 J3.2601
G02 X38.4342 Y27.7248 I3.9464 J1.9951
G02 X38.6555 Y29.4971 I4.5415 J0.3329
G02 X39.5666 Y31.0924 I4.4450 J-1.4809
G02 X41.0615 Y32.2460 I3.6332 J-3.1625
G02 X42.9342 Y32.7498 I2.1968 J-4.4339
G02 X44.9074 Y32.4886 I0.3328 J-5.0689
G02 X46.6731 Y31.4636 I-1.6828 J-4.9322
G02 X47.9405 Y29.7985 I-3.5354 J-4.0059
G02 X48.4842 Y27.7248 I-4.9210 J-2.3984
G02 X48.1830 Y25.5507 I-5.5960 J-0.3326
G02 X47.0443 Y23.6147 I-5.4190 J1.8846
G02 X45.2088 Y22.2335 I-4.3783 J3.9080
G02 X42.9342 Y21.6498 I-2.5999 J5.4077
G02 X40.5592 Y21.9910 I-0.3325 J6.1226
G02 X38.4529 Y23.2435 I2.0862 J5.9054
G02 X36.9579 Y25.2493 I4.2804 J4.7506
G02 X36.3342 Y27.7248 I5.8942 J2.8012
G02 X36.7154 Y30.3007 I6.6491 J0.3324
G02 X38.0817 Y32.5773 I6.3917 J-2.2878
G02 X40.2578 Y34.1862 I5.1226 J-4.6527
G02 X42.9342 Y34.8498 I3.0025 J-6.3804
G02 X45.7111 Y34.4287 I0.3322 J-7.1753
G02 X48.1580 Y32.9486 I-2.4893 J-6.8777
G02 X49.8806 Y30.6021 I-5.0248 J-5.4946
G02 X50.5842 Y27.7248 I-6.8665 J-3.2037
G02 X50.1232 Y24.7470 I-7.7013 J-0.3321
G02 X48.5292 Y22.1298 I-7.3637 J2.6907
G02 X46.0124 Y20.2933 I-5.8664 J5.3968
G02 X42.9342 Y19.5498 I-3.4049 J7.3524
G02 X39.7556 Y20.0508 I-0.3320 J8.2272
G02 X36.9680 Y21.7586 I2.8920 J7.8495
G02 X35.0177 Y24.4457 I5.7687 J6.2382
G02 X34.2342 Y27.7248 I7.8383 J3.6060
G02 X34.7752 Y31.1044 I8.7530 J0.3319
G02 X36.5968 Y34.0622 I8.3352 J-3.0933
G02 X39.4542 Y36.1263 I6.6099 J-6.1405
G02 X42.9342 Y36.9498 I3.8071 J-8.3240
G02 X46.5147 Y36.3689 I0.3318 J-9.2787
G02 X49.6429 Y34.4335 I-3.2945 J-8.8208
G02 X51.8208 Y31.4057 I-6.5123 J-6.9815
G02 X52.6842 Y27.7248 I-8.8097 J-4.0082
G02 X52.0633 Y23.9434 I-9.8044 J-0.3318
G02 X50.0141 Y20.6449 I-9.3064 J3.4958
G02 X46.8161 Y18.3532 I-7.3531 J6.8840
G02 X42.9342 Y17.4498 I-4.2093 J9.2953
G02 X38.9519 Y18.1107 I-0.3317 J10.3300
G02 X35.4831 Y20.2737 I3.6970 J9.7919
G02 X33.0776 Y23.6420 I7.2557 J7.7247
G02 X32.1342 Y27.7248 I9.7809 J4.4103
G02 X32.8351 Y31.9080 I10.8555 J0.3316
G02 X35.1119 Y35.5472 I10.2774 J-3.8981
G02 X38.6506 Y38.0665 I8.0962 J-7.6273
G02 X42.9342 Y39.0498 I4.6114 J-10.2664
G02 X47.3183 Y38.3090 I0.3316 J-11.3809
G02 X51.1278 Y35.9184 I-4.0993 J-10.7629
G02 X53.7609 Y32.2094 I-7.9989 J-8.4677
G02 X54.7842 Y27.7248 I-10.7518 J-4.8124
G02 X54.0035 Y23.1398 I-11.9064 J-0.3315
G02 X51.4991 Y19.1600 I-11.2483 J4.3004
G02 X47.6197 Y16.4131 I-8.8392 J8.3704
G02 X42.9342 Y15.3498 I-5.0134 J11.2373
G02 X38.1483 Y16.1705 I-0.3314 J12.4318
G02 X34.0600 Y18.8506 I4.6922 J11.6157
G02 X31.3395 Y22.9221 I8.8742 J8.8742
G02 X30.3842 Y27.7248 I11.5947 J4.8027
G02 X31.3395 Y32.5275 I12.5500 J0.0000
G02 X34.0600 Y36.5990 I11.5947 J-4.8027
G02 X38.1315 Y39.3195 I8.8742 J-8.8742
G02 X42.9342 Y40.2748 I4.8027 J-11.5947
G02 X47.7369 Y39.3195 I0.0000 J-12.5500
G02 X51.8084 Y36.5990 I-4.8027 J-11.5947
G02 X54.5289 Y32.5275 I-8.8742 J-8.8742
G02 X55.4842 Y27.7248 I-11.5947 J-4.8027
G02 X36.6592 Y16.8562 I-12.5500 J0.0000
G02 Y38.5934 I6.2750 J10.8686
G02 X55.4842 Y27.7248 I6.2750 J-10.8686
G02 X41.5842 I-6.9500 J0.0000
G02 X44.2842 I1.3500 J0.0000
G02 X42.2592 Y26.5557 Z-6.6667 I-1.3500 J0.0000 F100
G02 Y28.8939 Z-6.8333 I0.6750 J1.1691
G02 X44.2842 Y27.7248 Z-7.0000 I0.6750 J-1.1691
G02 X42.2592 Y26.5557 I-1.3500 J0.0000
G02 Y28.8939 I0.6750 J1.1691
G02 X44.2842 Y27.7248 I0.6750 J-1.1691
G02 X44.3027 Y27.1580 I-1.3424 J-0.3275 F500
G02 X44.0744 Y26.5846 I-1.4923 J0.2621
G02 X43.6015 Y26.1138 I-1.3754 J0.9086
G02 X42.9342 Y25.8498 I-0.9755 J1.4905
G02 X42.1665 Y25.8713 I-0.3315 J1.8853
G02 X41.4228 Y26.2134 I0.4663 J1.9931
G02 X40.8382 Y26.8566 I1.2881 J1.7580
G02 X40.5342 Y27.7248 I1.9864 J1.1827
G02 X40.5957 Y28.6935 I2.4215 J0.3327
G02 X41.0516 Y29.6075 I2.4878 J-0.6702
G02 X41.8651 Y30.3059 I2.1362 J-1.6653
G02 X42.9342 Y30.6498 I1.3873 J-2.4789
G02 X44.1038 Y30.5484 I0.3331 J-2.9540
G02 X45.1881 Y29.9787 I-0.8735 J-2.9792
G02 X46.0004 Y28.9948 I-2.0409 J-2.5120
G02 X46.3842 Y27.7248 I-2.9693 J-1.5905
G02 X46.2429 Y26.3543 I-3.4843 J-0.3331
G02 X45.5594 Y25.0997 I-3.4689 J1.0763
G02 X44.4052 Y24.1736 I-2.8865 J2.4154
G02 X42.9342 Y23.7498 I-1.7930 J3.4583
G02 X41.3628 Y23.9311 I-0.3331 J4.0133
G02 X39.9379 Y24.7284 I1.2787 J3.9573
G02 X38.8980 Y26.0530 I2.7892 J3.2601
G02 X38.4342 Y27.7248 I3.9464 J1.9951
G02 X38.6555 Y29.4971 I4.5415 J0.3329
G02 X39.5666 Y31.0924 I4.4450 J-1.4809
G02 X41.0615 Y32.2460 I3.6332 J-3.1625
G02 X42.9342 Y32.7498 I2.1968 J-4.4339
G02 X44.9074 Y32.4886 I0.3328 J-5.0689
G02 X46.6731 Y31.4636 I-1.6828 J-4.9322
G02 X47.9405 Y29.7985 I-3.5354 J-4.0059
G02 X48.4842 Y27.7248 I-4.9210 J-2.3984
G02 X48.1830 Y25.5507 I-5.5960 J-0.3326
G02 X47.0443 Y23.6147 I-5.4190 J1.8846
G02 X45.2088 Y22.2335 I-4.3783 J3.9080
G02 X42.9342 Y21.6498 I-2.5999 J5.4077
G02 X40.5592 Y21.9910 I-0.3325 J6.1226
G02 X38.4529 Y23.2435 I2.0862 J5.9054
G02 X36.9579 Y25.2493 I4.2804 J4.7506
G02 X36.3342 Y27.7248 I5.8942 J2.8012
G02 X36.7154 Y30.3007 I6.6491 J0.3324
G02 X38.0817 Y32.5773 I6.3917 J-2.2878
G02 X40.2578 Y34.1862 I5.1226 J-4.6527
G02 X42.9342 Y34.8498 I3.0025 J-6.3804
G02 X45.7111 Y34.4287 I0.3322 J-7.1753
G02 X48.1580 Y32.9486 I-2.4893 J-6.8777
G02 X49.8806 Y30.6021 I-5.0248 J-5.4946
G02 X50.5842 Y27.7248 I-6.8665 J-3.2037
G02 X50.1232 Y24.7470 I-7.7013 J-0.3321
G02 X48.5292 Y22.1298 I-7.3637 J2.6907
G02 X46.0124 Y20.2933 I-5.8664 J5.3968
G02 X42.9342 Y19.5498 I-3.4049 J7.3524
G02 X39.7556 Y20.0508 I-0.3320 J8.2272
G02 X36.9680 Y21.7586 I2.8920 J7.8495
G02 X35.0177 Y24.4457 I5.7687 J6.2382
G02 X34.2342 Y27.7248 I7.8383 J3.6060
G02 X34.7752 Y31.1044 I8.7530 J0.3319
G02 X36.5968 Y34.0622 I8.3352 J-3.0933
G02 X39.4542 Y36.1263 I6.6099 J-6.1405
G02 X42.9342 Y36.9498 I3.8071 J-8.3240
G02 X46.5147 Y36.3689 I0.3318 J-9.2787
G02 X49.6429 Y34.4335 I-3.2945 J-8.8208
G02 X51.8208 Y31.4057 I-6.5123 J-6.9815
G02 X52.6842 Y27.7248 I-8.8097 J-4.0082
G02 X52.0633 Y23.9434 I-9.8044 J-0.3318
G02 X50.0141 Y20.6449 I-9.3064 J3.4958
G02 X46.8161 Y18.3532 I-7.3531 J6.8840
G02 X42.9342 Y17.4498 I-4.2093 J9.2953
G02 X38.9519 Y18.1107 I-0.3317 J10.3300
G02 X35.4831 Y20.2737 I3.6970 J9.7919
G02 X33.0776 Y23.6420 I7.2557 J7.7247
G02 X32.1342 Y27.7248 I9.7809 J4.4103
G02 X32.8351 Y31.9080 I10.8555 J0.3316
G02 X35.1119 Y35.5472 I10.2774 J-3.8981
G02 X38.6506 Y38.0665 I8.0962 J-7.6273
G02 X42.9342 Y39.0498 I4.6114 J-10.2664
G02 X47.3183 Y38.3090 I0.3316 J-11.3809
G02 X51.1278 Y35.9184 I-4.0993 J-10.7629
G02 X53.7609 Y32.2094 I-7.9989 J-8.4677
G02 X54.7842 Y27.7248 I-10.7518 J-4.8124
G02 X54.0035 Y23.1398 I-11.9064 J-0.3315
G02 X51.4991 Y19.1600 I-11.2483 J4.3004
G02 X47.6197 Y16.4131 I-8.8392 J8.3704
G02 X42.9342 Y15.3498 I-5.0134 J11.2373
G02 X38.1483 Y16.1705 I-0.3314 J12.4318
G02 X34.0600 Y18.8506 I4.6922 J11.6157
G02 X31.3395 Y22.9221 I8.8742 J8.8742
G02 X30.3842 Y27.7248 I11.5947 J4.8027
G02 X31.3395 Y32.5275 I12.5500 J0.0000
G02 X34.0600 Y36.5990 I11.5947 J-4.8027
G02 X38.1315 Y39.3195 I8.8742 J-8.8742
G02 X42.9342 Y40.2748 I4.8027 J-11.5947
G02 X47.7369 Y39.3195 I0.0000 J-12.5500
G02 X51.8084 Y36.5990 I-4.8027 J-11.5947
G02 X54.5289 Y32.5275 I-8.8742 J-8.8742
G02 X55.4842 Y27.7248 I-11.5947 J-4.8027
G02 X36.6592 Y16.8562 I-12.5500 J0.0000
G02 Y38.5934 I6.2750 J10.8686
G02 X55.4842 Y27.7248 I6.2750 J-10.8686
G02 X53.9842 Y26.2248 Z-6.5000 I-1.5000 J0.0000 F100
G00 Z5.0000


(No. 3: Helical drill 52)
G00 X59.1057 Y36.9748 Z5.0000
G00 Z0.5000
G02 X58.8807 Y36.8449 Z0.3333 I-0.1500 J0.0000 F100
G02 Y37.1047 Z0.1667 I0.0750 J0.1299
G02 X59.1057 Y36.9748 Z0.0000 I0.0750 J-0.1299
G02 X58.8807 Y36.8449 Z-0.1667 I-0.1500 J0.0000
G02 Y37.1047 Z-0.3333 I0.0750 J0.1299
G02 X59.1057 Y36.9748 Z-0.5000 I0.0750 J-0.1299
G02 X58.8807 Y36.8449 Z-0.6667 I-0.1500 J0.0000
G02 Y37.1047 Z-0.8333 I0.0750 J0.1299
G02 X59.1057 Y36.9748 Z-1.0000 I0.0750 J-0.1299
G02 X58.8807 Y36.8449 Z-1.1667 I-0.1500 J0.0000
G02 Y37.1047 Z-1.3333 I0.0750 J0.1299
G02 X59.1057 Y36.9748 Z-1.5000 I0.0750 J-0.1299
G02 X58.8807 Y36.8449 Z-1.6667 I-0.1500 J0.0000
G02 Y37.1047 Z-1.8333 I0.0750 J0.1299
G02 X59.1057 Y36.9748 Z-2.0000 I0.0750 J-0.1299
G02 X58.8807 Y36.8449 Z-2.1667 I-0.1500 J0.0000
G02 Y37.1047 Z-2.3333 I0.0750 J0.1299
G02 X59.1057 Y36.9748 Z-2.5000 I0.0750 J-0.1299
G02 X58.8807 Y36.8449 Z-2.6667 I-0.1500 J0.0000
G02 Y37.1047 Z-2.8333 I0.0750 J0.1299
G02 X59.1057 Y36.9748 Z-3.0000 I0.0750 J-0.1299
G02 X58.8807 Y36.8449 Z-3.1667 I-0.1500 J0.0000
G02 Y37.1047 Z-3.3333 I0.0750 J0.1299
G02 X59.1057 Y36.9748 Z-3.5000 I0.0750 J-0.1299
G02 X58.8807 Y36.8449 Z-3.6667 I-0.1500 J0.0000
G02 Y37.1047 Z-3.8333 I0.0750 J0.1299
G02 X59.1057 Y36.9748 Z-4.0000 I0.0750 J-0.1299
G02 X58.8807 Y36.8449 Z-4.1667 I-0.1500 J0.0000
G02 Y37.1047 Z-4.3333 I0.0750 J0.1299
G02 X59.1057 Y36.9748 Z-4.5000 I0.0750 J-0.1299
G02 X58.8807 Y36.8449 Z-4.6667 I-0.1500 J0.0000
G02 Y37.1047 Z-4.8333 I0.0750 J0.1299
G02 X59.1057 Y36.9748 Z-5.0000 I0.0750 J-0.1299
G02 X58.8807 Y36.8449 Z-5.1667 I-0.1500 J0.0000
G02 Y37.1047 Z-5.3333 I0.0750 J0.1299
G02 X59.1057 Y36.9748 Z-5.5000 I0.0750 J-0.1299
G02 X58.8807 Y36.8449 Z-5.6667 I-0.1500 J0.0000
G02 Y37.1047 Z-5.8333 I0.0750 J0.1299
G02 X59.1057 Y36.9748 Z-6.0000 I0.0750 J-0.1299
G02 X58.8807 Y36.8449 Z-6.1667 I-0.1500 J0.0000
G02 Y37.1047 Z-6.3333 I0.0750 J0.1299
G02 X59.1057 Y36.9748 Z-6.5000 I0.0750 J-0.1299
G02 X58.8807 Y36.8449 Z-6.6667 I-0.1500 J0.0000
G02 Y37.1047 Z-6.8333 I0.0750 J0.1299
G02 X59.1057 Y36.9748 Z-7.0000 I0.0750 J-0.1299
G02 X58.8807 Y36.8449 Z-7.1667 I-0.1500 J0.0000
G02 Y37.1047 Z-7.3333 I0.0750 J0.1299
G02 X59.1057 Y36.9748 Z-7.5000 I0.0750 J-0.1299
G02 X58.8807 Y36.8449 Z-7.6667 I-0.1500 J0.0000
G02 Y37.1047 Z-7.8333 I0.0750 J0.1299
G02 X59.1057 Y36.9748 Z-8.0000 I0.0750 J-0.1299
G02 X58.8807 Y36.8449 Z-8.1000 I-0.1500 J0.0000
G02 Y37.1047 Z-8.2000 I0.0750 J0.1299
G02 X59.1057 Y36.9748 Z-8.3000 I0.0750 J-0.1299
G02 X58.8807 Y36.8449 I-0.1500 J0.0000
G02 Y37.1047 I0.0750 J0.1299
G02 X59.1057 Y36.9748 I0.0750 J-0.1299
G02 X58.9557 Z-7.8000 I-0.0750 J0.0000
G00 Z5.0000


(No. 4: Helical drill 51)
G00 X27.0628 Y36.9748 Z5.0000
G00 Z0.5000
G02 X26.8378 Y36.8449 Z0.3333 I-0.1500 J0.0000 F100
G02 Y37.1047 Z0.1667 I0.0750 J0.1299
G02 X27.0628 Y36.9748 Z0.0000 I0.0750 J-0.1299
G02 X26.8378 Y36.8449 Z-0.1667 I-0.1500 J0.0000
G02 Y37.1047 Z-0.3333 I0.0750 J0.1299
G02 X27.0628 Y36.9748 Z-0.5000 I0.0750 J-0.1299
G02 X26.8378 Y36.8449 Z-0.6667 I-0.1500 J0.0000
G02 Y37.1047 Z-0.8333 I0.0750 J0.1299
G02 X27.0628 Y36.9748 Z-1.0000 I0.0750 J-0.1299
G02 X26.8378 Y36.8449 Z-1.1667 I-0.1500 J0.0000
G02 Y37.1047 Z-1.3333 I0.0750 J0.1299
G02 X27.0628 Y36.9748 Z-1.5000 I0.0750 J-0.1299
G02 X26.8378 Y36.8449 Z-1.6667 I-0.1500 J0.0000
G02 Y37.1047 Z-1.8333 I0.0750 J0.1299
G02 X27.0628 Y36.9748 Z-2.0000 I0.0750 J-0.1299
G02 X26.8378 Y36.8449 Z-2.1667 I-0.1500 J0.0000
G02 Y37.1047 Z-2.3333 I0.0750 J0.1299
G02 X27.0628 Y36.9748 Z-2.5000 I0.0750 J-0.1299
G02 X26.8378 Y36.8449 Z-2.6667 I-0.1500 J0.0000
G02 Y37.1047 Z-2.8333 I0.0750 J0.1299
G02 X27.0628 Y36.9748 Z-3.0000 I0.0750 J-0.1299
G02 X26.8378 Y36.8449 Z-3.1667 I-0.1500 J0.0000
G02 Y37.1047 Z-3.3333 I0.0750 J0.1299
G02 X27.0628 Y36.9748 Z-3.5000 I0.0750 J-0.1299
G02 X26.8378 Y36.8449 Z-3.6667 I-0.1500 J0.0000
G02 Y37.1047 Z-3.8333 I0.0750 J0.1299
G02 X27.0628 Y36.9748 Z-4.0000 I0.0750 J-0.1299
G02 X26.8378 Y36.8449 Z-4.1667 I-0.1500 J0.0000
G02 Y37.1047 Z-4.3333 I0.0750 J0.1299
G02 X27.0628 Y36.9748 Z-4.5000 I0.0750 J-0.1299
G02 X26.8378 Y36.8449 Z-4.6667 I-0.1500 J0.0000
G02 Y37.1047 Z-4.8333 I0.0750 J0.1299
G02 X27.0628 Y36.9748 Z-5.0000 I0.0750 J-0.1299
G02 X26.8378 Y36.8449 Z-5.1667 I-0.1500 J0.0000
G02 Y37.1047 Z-5.3333 I0.0750 J0.1299
G02 X27.0628 Y36.9748 Z-5.5000 I0.0750 J-0.1299
G02 X26.8378 Y36.8449 Z-5.6667 I-0.1500 J0.0000
G02 Y37.1047 Z-5.8333 I0.0750 J0.1299
G02 X27.0628 Y36.9748 Z-6.0000 I0.0750 J-0.1299
G02 X26.8378 Y36.8449 Z-6.1667 I-0.1500 J0.0000
G02 Y37.1047 Z-6.3333 I0.0750 J0.1299
G02 X27.0628 Y36.9748 Z-6.5000 I0.0750 J-0.1299
G02 X26.8378 Y36.8449 Z-6.6667 I-0.1500 J0.0000
G02 Y37.1047 Z-6.8333 I0.0750 J0.1299
G02 X27.0628 Y36.9748 Z-7.0000 I0.0750 J-0.1299
G02 X26.8378 Y36.8449 Z-7.1667 I-0.1500 J0.0000
G02 Y37.1047 Z-7.3333 I0.0750 J0.1299
G02 X27.0628 Y36.9748 Z-7.5000 I0.0750 J-0.1299
G02 X26.8378 Y36.8449 Z-7.6667 I-0.1500 J0.0000
G02 Y37.1047 Z-7.8333 I0.0750 J0.1299
G02 X27.0628 Y36.9748 Z-8.0000 I0.0750 J-0.1299
G02 X26.8378 Y36.8449 Z-8.1000 I-0.1500 J0.0000
G02 Y37.1047 Z-8.2000 I0.0750 J0.1299
G02 X27.0628 Y36.9748 Z-8.3000 I0.0750 J-0.1299
G02 X26.8378 Y36.8449 I-0.1500 J0.0000
G02 Y37.1047 I0.0750 J0.1299
G02 X27.0628 Y36.9748 I0.0750 J-0.1299
G02 X26.9128 Z-7.8000 I-0.0750 J0.0000
G00 Z5.0000


(No. 5: Hole 1)
G00 X17.9583 Y102.5945 Z5.0000
G00 Z0.5000
G01 X18.7083 F100
G02 X17.5833 Y101.9449 Z0.3333 I-0.7500 J0.0000
G02 Y103.2440 Z0.1667 I0.3750 J0.6495
G02 X18.7083 Y102.5945 Z0.0000 I0.3750 J-0.6495
G02 X17.5833 Y101.9449 Z-0.1667 I-0.7500 J0.0000
G02 Y103.2440 Z-0.3333 I0.3750 J0.6495
G02 X18.7083 Y102.5945 Z-0.5000 I0.3750 J-0.6495
G02 X17.5833 Y101.9449 I-0.7500 J0.0000
G02 Y103.2440 I0.3750 J0.6495
G02 X18.7083 Y102.5945 I0.3750 J-0.6495
G01 X17.9583 F500
G02 X17.8026 Y102.7172 I-0.0211 J0.1333
G01 X17.8022 Y102.7278
G01 Y112.6908
G01 X17.8292 Y112.7988
G01 X17.9642 Y112.8528
G01 X18.0722 Y112.6908
G01 Y102.7278
G02 X17.9583 Y102.5945 I-0.1350 J0.0000
G01 X18.1251 Y101.2285
G02 X16.4252 Y102.5658 I-0.1899 J1.5076
G01 Y112.8528
G02 X19.4492 I1.5120 J-0.1406
G01 Y102.5658
G02 X18.1251 Y101.2285 I-1.5090 J0.1699
G01 X18.3197 Y99.8570
G02 X15.0482 Y102.4308 I-0.3841 J2.8778
G01 Y112.9878
G02 X20.8262 I2.8890 J-0.2979
G01 Y102.4308
G02 X18.3197 Y99.8570 I-2.8866 J0.3037
G00 Z5.0000
G00 X18.3127 Y99.8560
G00 Z0.0000
G01 Z-0.5000 F100
G01 X18.4113 Y99.1614 F500
G02 X14.3493 Y102.4112 I-0.4822 J3.5607
G01 X14.3342 Y102.7648
G01 X14.3345 Y112.6993
G01 X14.3493 Y113.0384
G02 X21.5342 Y112.6848 I3.5857 J-0.3146
G01 X21.5339 Y102.7503
G02 X18.4113 Y99.1614 I-3.5921 J-0.0274
G00 Z5.0000
G00 X17.9583 Y102.5945
G00 Z0.0000
G01 X18.7083 F100
G02 X17.5833 Y101.9449 Z-0.1667 I-0.7500 J0.0000
G02 Y103.2440 Z-0.3333 I0.3750 J0.6495
G02 X18.7083 Y102.5945 Z-0.5000 I0.3750 J-0.6495
G02 X17.5833 Y101.9449 Z-0.6667 I-0.7500 J0.0000
G02 Y103.2440 Z-0.8333 I0.3750 J0.6495
G02 X18.7083 Y102.5945 Z-1.0000 I0.3750 J-0.6495
G02 X17.5833 Y101.9449 I-0.7500 J0.0000
G02 Y103.2440 I0.3750 J0.6495
G02 X18.7083 Y102.5945 I0.3750 J-0.6495
G01 X17.9583 F500
G02 X17.8026 Y102.7172 I-0.0211 J0.1333
G01 X17.8022 Y102.7278
G01 Y112.6908
G01 X17.8292 Y112.7988
G01 X17.9642 Y112.8528
G01 X18.0722 Y112.6908
G01 Y102.7278
G02 X17.9583 Y102.5945 I-0.1350 J0.0000
G01 X18.1251 Y101.2285
G02 X16.4252 Y102.5658 I-0.1899 J1.5076
G01 Y112.8528
G02 X19.4492 I1.5120 J-0.1406
G01 Y102.5658
G02 X18.1251 Y101.2285 I-1.5090 J0.1699
G01 X18.3197 Y99.8570
G02 X15.0482 Y102.4308 I-0.3841 J2.8778
G01 Y112.9878
G02 X20.8262 I2.8890 J-0.2979
G01 Y102.4308
G02 X18.3197 Y99.8570 I-2.8866 J0.3037
G00 Z5.0000
G00 X18.3127 Y99.8560
G00 Z-0.5000
G01 Z-1.0000 F100
G01 X18.4113 Y99.1614 F500
G02 X14.3493 Y102.4112 I-0.4822 J3.5607
G01 X14.3342 Y102.7648
G01 X14.3345 Y112.6993
G01 X14.3493 Y113.0384
G02 X21.5342 Y112.6848 I3.5857 J-0.3146
G01 X21.5339 Y102.7503
G02 X18.4113 Y99.1614 I-3.5921 J-0.0274
G00 Z5.0000
G00 X17.9583 Y102.5945
G00 Z-0.5000
G01 X18.7083 F100
G02 X17.5833 Y101.9449 Z-0.6667 I-0.7500 J0.0000
G02 Y103.2440 Z-0.8333 I0.3750 J0.6495
G02 X18.7083 Y102.5945 Z-1.0000 I0.3750 J-0.6495
G02 X17.5833 Y101.9449 Z-1.1667 I-0.7500 J0.0000
G02 Y103.2440 Z-1.3333 I0.3750 J0.6495
G02 X18.7083 Y102.5945 Z-1.5000 I0.3750 J-0.6495
G02 X17.5833 Y101.9449 I-0.7500 J0.0000
G02 Y103.2440 I0.3750 J0.6495
G02 X18.7083 Y102.5945 I0.3750 J-0.6495
G01 X17.9583 F500
G02 X17.8026 Y102.7172 I-0.0211 J0.1333
G01 X17.8022 Y102.7278
G01 Y112.6908
G01 X17.8292 Y112.7988
G01 X17.9642 Y112.8528
G01 X18.0722 Y112.6908
G01 Y102.7278
G02 X17.9583 Y102.5945 I-0.1350 J0.0000
G01 X18.1251 Y101.2285
G02 X16.4252 Y102.5658 I-0.1899 J1.5076
G01 Y112.8528
G02 X19.4492 I1.5120 J-0.1406
G01 Y102.5658
G02 X18.1251 Y101.2285 I-1.5090 J0.1699
G01 X18.3197 Y99.8570
G02 X15.0482 Y102.4308 I-0.3841 J2.8778
G01 Y112.9878
G02 X20.8262 I2.8890 J-0.2979
G01 Y102.4308
G02 X18.3197 Y99.8570 I-2.8866 J0.3037
G00 Z5.0000
G00 X18.3127 Y99.8560
G00 Z-1.0000
G01 Z-1.5000 F100
G01 X18.4113 Y99.1614 F500
G02 X14.3493 Y102.4112 I-0.4822 J3.5607
G01 X14.3342 Y102.7648
G01 X14.3345 Y112.6993
G01 X14.3493 Y113.0384
G02 X21.5342 Y112.6848 I3.5857 J-0.3146
G01 X21.5339 Y102.7503
G02 X18.4113 Y99.1614 I-3.5921 J-0.0274
G00 Z5.0000
G00 X17.9583 Y102.5945
G00 Z-1.0000
G01 X18.7083 F100
G02 X17.5833 Y101.9449 Z-1.1667 I-0.7500 J0.0000
G02 Y103.2440 Z-1.3333 I0.3750 J0.6495
G02 X18.7083 Y102.5945 Z-1.5000 I0.3750 J-0.6495
G02 X17.5833 Y101.9449 Z-1.6667 I-0.7500 J0.0000
G02 Y103.2440 Z-1.8333 I0.3750 J0.6495
G02 X18.7083 Y102.5945 Z-2.0000 I0.3750 J-0.6495
G02 X17.5833 Y101.9449 I-0.7500 J0.0000
G02 Y103.2440 I0.3750 J0.6495
G02 X18.7083 Y102.5945 I0.3750 J-0.6495
G01 X17.9583 F500
G02 X17.8026 Y102.7172 I-0.0211 J0.1333
G01 X17.8022 Y102.7278
G01 Y112.6908
G01 X17.8292 Y112.7988
G01 X17.9642 Y112.8528
G01 X18.0722 Y112.6908
G01 Y102.7278
G02 X17.9583 Y102.5945 I-0.1350 J0.0000
G01 X18.1251 Y101.2285
G02 X16.4252 Y102.5658 I-0.1899 J1.5076
G01 Y112.8528
G02 X19.4492 I1.5120 J-0.1406
G01 Y102.5658
G02 X18.1251 Y101.2285 I-1.5090 J0.1699
G01 X18.3197 Y99.8570
G02 X15.0482 Y102.4308 I-0.3841 J2.8778
G01 Y112.9878
G02 X20.8262 I2.8890 J-0.2979
G01 Y102.4308
G02 X18.3197 Y99.8570 I-2.8866 J0.3037
G00 Z5.0000
G00 X18.3127 Y99.8560
G00 Z-1.5000
G01 Z-2.0000 F100
G01 X18.4113 Y99.1614 F500
G02 X14.3493 Y102.4112 I-0.4822 J3.5607
G01 X14.3342 Y102.7648
G01 X14.3345 Y112.6993
G01 X14.3493 Y113.0384
G02 X21.5342 Y112.6848 I3.5857 J-0.3146
G01 X21.5339 Y102.7503
G02 X18.4113 Y99.1614 I-3.5921 J-0.0274
G00 Z5.0000
G00 X17.9583 Y102.5945
G00 Z-1.5000
G01 X18.7083 F100
G02 X17.5833 Y101.9449 Z-1.6667 I-0.7500 J0.0000
G02 Y103.2440 Z-1.8333 I0.3750 J0.6495
G02 X18.7083 Y102.5945 Z-2.0000 I0.3750 J-0.6495
G02 X17.5833 Y101.9449 Z-2.1667 I-0.7500 J0.0000
G02 Y103.2440 Z-2.3333 I0.3750 J0.6495
G02 X18.7083 Y102.5945 Z-2.5000 I0.3750 J-0.6495
G02 X17.5833 Y101.9449 I-0.7500 J0.0000
G02 Y103.2440 I0.3750 J0.6495
G02 X18.7083 Y102.5945 I0.3750 J-0.6495
G01 X17.9583 F500
G02 X17.8026 Y102.7172 I-0.0211 J0.1333
G01 X17.8022 Y102.7278
G01 Y112.6908
G01 X17.8292 Y112.7988
G01 X17.9642 Y112.8528
G01 X18.0722 Y112.6908
G01 Y102.7278
G02 X17.9583 Y102.5945 I-0.1350 J0.0000
G01 X18.1251 Y101.2285
G02 X16.4252 Y102.5658 I-0.1899 J1.5076
G01 Y112.8528
G02 X19.4492 I1.5120 J-0.1406
G01 Y102.5658
G02 X18.1251 Y101.2285 I-1.5090 J0.1699
G01 X18.3197 Y99.8570
G02 X15.0482 Y102.4308 I-0.3841 J2.8778
G01 Y112.9878
G02 X20.8262 I2.8890 J-0.2979
G01 Y102.4308
G02 X18.3197 Y99.8570 I-2.8866 J0.3037
G00 Z5.0000
G00 X18.3127 Y99.8560
G00 Z-2.0000
G01 Z-2.5000 F100
G01 X18.4113 Y99.1614 F500
G02 X14.3493 Y102.4112 I-0.4822 J3.5607
G01 X14.3342 Y102.7648
G01 X14.3345 Y112.6993
G01 X14.3493 Y113.0384
G02 X21.5342 Y112.6848 I3.5857 J-0.3146
G01 X21.5339 Y102.7503
G02 X18.4113 Y99.1614 I-3.5921 J-0.0274
G00 Z5.0000
G00 X17.9583 Y102.5945
G00 Z-2.0000
G01 X18.7083 F100
G02 X17.5833 Y101.9449 Z-2.1667 I-0.7500 J0.0000
G02 Y103.2440 Z-2.3333 I0.3750 J0.6495
G02 X18.7083 Y102.5945 Z-2.5000 I0.3750 J-0.6495
G02 X17.5833 Y101.9449 Z-2.6667 I-0.7500 J0.0000
G02 Y103.2440 Z-2.8333 I0.3750 J0.6495
G02 X18.7083 Y102.5945 Z-3.0000 I0.3750 J-0.6495
G02 X17.5833 Y101.9449 I-0.7500 J0.0000
G02 Y103.2440 I0.3750 J0.6495
G02 X18.7083 Y102.5945 I0.3750 J-0.6495
G01 X17.9583 F500
G02 X17.8026 Y102.7172 I-0.0211 J0.1333
G01 X17.8022 Y102.7278
G01 Y112.6908
G01 X17.8292 Y112.7988
G01 X17.9642 Y112.8528
G01 X18.0722 Y112.6908
G01 Y102.7278
G02 X17.9583 Y102.5945 I-0.1350 J0.0000
G01 X18.1251 Y101.2285
G02 X16.4252 Y102.5658 I-0.1899 J1.5076
G01 Y112.8528
G02 X19.4492 I1.5120 J-0.1406
G01 Y102.5658
G02 X18.1251 Y101.2285 I-1.5090 J0.1699
G01 X18.3197 Y99.8570
G02 X15.0482 Y102.4308 I-0.3841 J2.8778
G01 Y112.9878
G02 X20.8262 I2.8890 J-0.2979
G01 Y102.4308
G02 X18.3197 Y99.8570 I-2.8866 J0.3037
G00 Z5.0000
G00 X18.3127 Y99.8560
G00 Z-2.5000
G01 Z-3.0000 F100
G01 X18.4113 Y99.1614 F500
G02 X14.3493 Y102.4112 I-0.4822 J3.5607
G01 X14.3342 Y102.7648
G01 X14.3345 Y112.6993
G01 X14.3493 Y113.0384
G02 X21.5342 Y112.6848 I3.5857 J-0.3146
G01 X21.5339 Y102.7503
G02 X18.4113 Y99.1614 I-3.5921 J-0.0274
G00 Z5.0000
G00 X17.9583 Y102.5945
G00 Z-2.5000
G01 X18.7083 F100
G02 X17.5833 Y101.9449 Z-2.6667 I-0.7500 J0.0000
G02 Y103.2440 Z-2.8333 I0.3750 J0.6495
G02 X18.7083 Y102.5945 Z-3.0000 I0.3750 J-0.6495
G02 X17.5833 Y101.9449 Z-3.1667 I-0.7500 J0.0000
G02 Y103.2440 Z-3.3333 I0.3750 J0.6495
G02 X18.7083 Y102.5945 Z-3.5000 I0.3750 J-0.6495
G02 X17.5833 Y101.9449 I-0.7500 J0.0000
G02 Y103.2440 I0.3750 J0.6495
G02 X18.7083 Y102.5945 I0.3750 J-0.6495
G01 X17.9583 F500
G02 X17.8026 Y102.7172 I-0.0211 J0.1333
G01 X17.8022 Y102.7278
G01 Y112.6908
G01 X17.8292 Y112.7988
G01 X17.9642 Y112.8528
G01 X18.0722 Y112.6908
G01 Y102.7278
G02 X17.9583 Y102.5945 I-0.1350 J0.0000
G01 X18.1251 Y101.2285
G02 X16.4252 Y102.5658 I-0.1899 J1.5076
G01 Y112.8528
G02 X19.4492 I1.5120 J-0.1406
G01 Y102.5658
G02 X18.1251 Y101.2285 I-1.5090 J0.1699
G01 X18.3197 Y99.8570
G02 X15.0482 Y102.4308 I-0.3841 J2.8778
G01 Y112.9878
G02 X20.8262 I2.8890 J-0.2979
G01 Y102.4308
G02 X18.3197 Y99.8570 I-2.8866 J0.3037
G00 Z5.0000
G00 X18.3127 Y99.8560
G00 Z-3.0000
G01 Z-3.5000 F100
G01 X18.4113 Y99.1614 F500
G02 X14.3493 Y102.4112 I-0.4822 J3.5607
G01 X14.3342 Y102.7648
G01 X14.3345 Y112.6993
G01 X14.3493 Y113.0384
G02 X21.5342 Y112.6848 I3.5857 J-0.3146
G01 X21.5339 Y102.7503
G02 X18.4113 Y99.1614 I-3.5921 J-0.0274
G00 Z5.0000
G00 X17.9583 Y102.5945
G00 Z-3.0000
G01 X18.7083 F100
G02 X17.5833 Y101.9449 Z-3.1667 I-0.7500 J0.0000
G02 Y103.2440 Z-3.3333 I0.3750 J0.6495
G02 X18.7083 Y102.5945 Z-3.5000 I0.3750 J-0.6495
G02 X17.5833 Y101.9449 Z-3.6667 I-0.7500 J0.0000
G02 Y103.2440 Z-3.8333 I0.3750 J0.6495
G02 X18.7083 Y102.5945 Z-4.0000 I0.3750 J-0.6495
G02 X17.5833 Y101.9449 I-0.7500 J0.0000
G02 Y103.2440 I0.3750 J0.6495
G02 X18.7083 Y102.5945 I0.3750 J-0.6495
G01 X17.9583 F500
G02 X17.8026 Y102.7172 I-0.0211 J0.1333
G01 X17.8022 Y102.7278
G01 Y112.6908
G01 X17.8292 Y112.7988
G01 X17.9642 Y112.8528
G01 X18.0722 Y112.6908
G01 Y102.7278
G02 X17.9583 Y102.5945 I-0.1350 J0.0000
G01 X18.1251 Y101.2285
G02 X16.4252 Y102.5658 I-0.1899 J1.5076
G01 Y112.8528
G02 X19.4492 I1.5120 J-0.1406
G01 Y102.5658
G02 X18.1251 Y101.2285 I-1.5090 J0.1699
G01 X18.3197 Y99.8570
G02 X15.0482 Y102.4308 I-0.3841 J2.8778
G01 Y112.9878
G02 X20.8262 I2.8890 J-0.2979
G01 Y102.4308
G02 X18.3197 Y99.8570 I-2.8866 J0.3037
G00 Z5.0000
G00 X18.3127 Y99.8560
G00 Z-3.5000
G01 Z-4.0000 F100
G01 X18.4113 Y99.1614 F500
G02 X14.3493 Y102.4112 I-0.4822 J3.5607
G01 X14.3342 Y102.7648
G01 X14.3345 Y112.6993
G01 X14.3493 Y113.0384
G02 X21.5342 Y112.6848 I3.5857 J-0.3146
G01 X21.5339 Y102.7503
G02 X18.4113 Y99.1614 I-3.5921 J-0.0274
G00 Z5.0000
G00 X17.9583 Y102.5945
G00 Z-3.5000
G01 X18.7083 F100
G02 X17.5833 Y101.9449 Z-3.6667 I-0.7500 J0.0000
G02 Y103.2440 Z-3.8333 I0.3750 J0.6495
G02 X18.7083 Y102.5945 Z-4.0000 I0.3750 J-0.6495
G02 X17.5833 Y101.9449 Z-4.1667 I-0.7500 J0.0000
G02 Y103.2440 Z-4.3333 I0.3750 J0.6495
G02 X18.7083 Y102.5945 Z-4.5000 I0.3750 J-0.6495
G02 X17.5833 Y101.9449 I-0.7500 J0.0000
G02 Y103.2440 I0.3750 J0.6495
G02 X18.7083 Y102.5945 I0.3750 J-0.6495
G01 X17.9583 F500
G02 X17.8026 Y102.7172 I-0.0211 J0.1333
G01 X17.8022 Y102.7278
G01 Y112.6908
G01 X17.8292 Y112.7988
G01 X17.9642 Y112.8528
G01 X18.0722 Y112.6908
G01 Y102.7278
G02 X17.9583 Y102.5945 I-0.1350 J0.0000
G01 X18.1251 Y101.2285
G02 X16.4252 Y102.5658 I-0.1899 J1.5076
G01 Y112.8528
G02 X19.4492 I1.5120 J-0.1406
G01 Y102.5658
G02 X18.1251 Y101.2285 I-1.5090 J0.1699
G01 X18.3197 Y99.8570
G02 X15.0482 Y102.4308 I-0.3841 J2.8778
G01 Y112.9878
G02 X20.8262 I2.8890 J-0.2979
G01 Y102.4308
G02 X18.3197 Y99.8570 I-2.8866 J0.3037
G00 Z5.0000
G00 X18.3127 Y99.8560
G00 Z-4.0000
G01 Z-4.5000 F100
G01 X18.4113 Y99.1614 F500
G02 X14.3493 Y102.4112 I-0.4822 J3.5607
G01 X14.3342 Y102.7648
G01 X14.3345 Y112.6993
G01 X14.3493 Y113.0384
G02 X21.5342 Y112.6848 I3.5857 J-0.3146
G01 X21.5339 Y102.7503
G02 X18.4113 Y99.1614 I-3.5921 J-0.0274
G00 Z5.0000
G00 X17.9583 Y102.5945
G00 Z-4.0000
G01 X18.7083 F100
G02 X17.5833 Y101.9449 Z-4.1667 I-0.7500 J0.0000
G02 Y103.2440 Z-4.3333 I0.3750 J0.6495
G02 X18.7083 Y102.5945 Z-4.5000 I0.3750 J-0.6495
G02 X17.5833 Y101.9449 Z-4.6667 I-0.7500 J0.0000
G02 Y103.2440 Z-4.8333 I0.3750 J0.6495
G02 X18.7083 Y102.5945 Z-5.0000 I0.3750 J-0.6495
G02 X17.5833 Y101.9449 I-0.7500 J0.0000
G02 Y103.2440 I0.3750 J0.6495
G02 X18.7083 Y102.5945 I0.3750 J-0.6495
G01 X17.9583 F500
G02 X17.8026 Y102.7172 I-0.0211 J0.1333
G01 X17.8022 Y102.7278
G01 Y112.6908
G01 X17.8292 Y112.7988
G01 X17.9642 Y112.8528
G01 X18.0722 Y112.6908
G01 Y102.7278
G02 X17.9583 Y102.5945 I-0.1350 J0.0000
G01 X18.1251 Y101.2285
G02 X16.4252 Y102.5658 I-0.1899 J1.5076
G01 Y112.8528
G02 X19.4492 I1.5120 J-0.1406
G01 Y102.5658
G02 X18.1251 Y101.2285 I-1.5090 J0.1699
G01 X18.3197 Y99.8570
G02 X15.0482 Y102.4308 I-0.3841 J2.8778
G01 Y112.9878
G02 X20.8262 I2.8890 J-0.2979
G01 Y102.4308
G02 X18.3197 Y99.8570 I-2.8866 J0.3037
G00 Z5.0000
G00 X18.3127 Y99.8560
G00 Z-4.5000
G01 Z-5.0000 F100
G01 X18.4113 Y99.1614 F500
G02 X14.3493 Y102.4112 I-0.4822 J3.5607
G01 X14.3342 Y102.7648
G01 X14.3345 Y112.6993
G01 X14.3493 Y113.0384
G02 X21.5342 Y112.6848 I3.5857 J-0.3146
G01 X21.5339 Y102.7503
G02 X18.4113 Y99.1614 I-3.5921 J-0.0274
G00 Z5.0000
G00 X17.9583 Y102.5945
G00 Z-4.5000
G01 X18.7083 F100
G02 X17.5833 Y101.9449 Z-4.6667 I-0.7500 J0.0000
G02 Y103.2440 Z-4.8333 I0.3750 J0.6495
G02 X18.7083 Y102.5945 Z-5.0000 I0.3750 J-0.6495
G02 X17.5833 Y101.9449 Z-5.1667 I-0.7500 J0.0000
G02 Y103.2440 Z-5.3333 I0.3750 J0.6495
G02 X18.7083 Y102.5945 Z-5.5000 I0.3750 J-0.6495
G02 X17.5833 Y101.9449 I-0.7500 J0.0000
G02 Y103.2440 I0.3750 J0.6495
G02 X18.7083 Y102.5945 I0.3750 J-0.6495
G01 X17.9583 F500
G02 X17.8026 Y102.7172 I-0.0211 J0.1333
G01 X17.8022 Y102.7278
G01 Y112.6908
G01 X17.8292 Y112.7988
G01 X17.9642 Y112.8528
G01 X18.0722 Y112.6908
G01 Y102.7278
G02 X17.9583 Y102.5945 I-0.1350 J0.0000
G01 X18.1251 Y101.2285
G02 X16.4252 Y102.5658 I-0.1899 J1.5076
G01 Y112.8528
G02 X19.4492 I1.5120 J-0.1406
G01 Y102.5658
G02 X18.1251 Y101.2285 I-1.5090 J0.1699
G01 X18.3197 Y99.8570
G02 X15.0482 Y102.4308 I-0.3841 J2.8778
G01 Y112.9878
G02 X20.8262 I2.8890 J-0.2979
G01 Y102.4308
G02 X18.3197 Y99.8570 I-2.8866 J0.3037
G00 Z5.0000
G00 X18.3127 Y99.8560
G00 Z-5.0000
G01 Z-5.5000 F100
G01 X18.4113 Y99.1614 F500
G02 X14.3493 Y102.4112 I-0.4822 J3.5607
G01 X14.3342 Y102.7648
G01 X14.3345 Y112.6993
G01 X14.3493 Y113.0384
G02 X21.5342 Y112.6848 I3.5857 J-0.3146
G01 X21.5339 Y102.7503
G02 X18.4113 Y99.1614 I-3.5921 J-0.0274
G00 Z5.0000
G00 X17.9583 Y102.5945
G00 Z-5.0000
G01 X18.7083 F100
G02 X17.5833 Y101.9449 Z-5.1667 I-0.7500 J0.0000
G02 Y103.2440 Z-5.3333 I0.3750 J0.6495
G02 X18.7083 Y102.5945 Z-5.5000 I0.3750 J-0.6495
G02 X17.5833 Y101.9449 Z-5.6667 I-0.7500 J0.0000
G02 Y103.2440 Z-5.8333 I0.3750 J0.6495
G02 X18.7083 Y102.5945 Z-6.0000 I0.3750 J-0.6495
G02 X17.5833 Y101.9449 I-0.7500 J0.0000
G02 Y103.2440 I0.3750 J0.6495
G02 X18.7083 Y102.5945 I0.3750 J-0.6495
G01 X17.9583 F500
G02 X17.8026 Y102.7172 I-0.0211 J0.1333
G01 X17.8022 Y102.7278
G01 Y112.6908
G01 X17.8292 Y112.7988
G01 X17.9642 Y112.8528
G01 X18.0722 Y112.6908
G01 Y102.7278
G02 X17.9583 Y102.5945 I-0.1350 J0.0000
G01 X18.1251 Y101.2285
G02 X16.4252 Y102.5658 I-0.1899 J1.5076
G01 Y112.8528
G02 X19.4492 I1.5120 J-0.1406
G01 Y102.5658
G02 X18.1251 Y101.2285 I-1.5090 J0.1699
G01 X18.3197 Y99.8570
G02 X15.0482 Y102.4308 I-0.3841 J2.8778
G01 Y112.9878
G02 X20.8262 I2.8890 J-0.2979
G01 Y102.4308
G02 X18.3197 Y99.8570 I-2.8866 J0.3037
G00 Z5.0000
G00 X18.3127 Y99.8560
G00 Z-5.5000
G01 Z-6.0000 F100
G01 X18.4113 Y99.1614 F500
G02 X14.3493 Y102.4112 I-0.4822 J3.5607
G01 X14.3342 Y102.7648
G01 X14.3345 Y112.6993
G01 X14.3493 Y113.0384
G02 X21.5342 Y112.6848 I3.5857 J-0.3146
G01 X21.5339 Y102.7503
G02 X18.4113 Y99.1614 I-3.5921 J-0.0274
G00 Z5.0000
G00 X17.9583 Y102.5945
G00 Z-5.5000
G01 X18.7083 F100
G02 X17.5833 Y101.9449 Z-5.6667 I-0.7500 J0.0000
G02 Y103.2440 Z-5.8333 I0.3750 J0.6495
G02 X18.7083 Y102.5945 Z-6.0000 I0.3750 J-0.6495
G02 X17.5833 Y101.9449 Z-6.1667 I-0.7500 J0.0000
G02 Y103.2440 Z-6.3333 I0.3750 J0.6495
G02 X18.7083 Y102.5945 Z-6.5000 I0.3750 J-0.6495
G02 X17.5833 Y101.9449 I-0.7500 J0.0000
G02 Y103.2440 I0.3750 J0.6495
G02 X18.7083 Y102.5945 I0.3750 J-0.6495
G01 X17.9583 F500
G02 X17.8026 Y102.7172 I-0.0211 J0.1333
G01 X17.8022 Y102.7278
G01 Y112.6908
G01 X17.8292 Y112.7988
G01 X17.9642 Y112.8528
G01 X18.0722 Y112.6908
G01 Y102.7278
G02 X17.9583 Y102.5945 I-0.1350 J0.0000
G01 X18.1251 Y101.2285
G02 X16.4252 Y102.5658 I-0.1899 J1.5076
G01 Y112.8528
G02 X19.4492 I1.5120 J-0.1406
G01 Y102.5658
G02 X18.1251 Y101.2285 I-1.5090 J0.1699
G01 X18.3197 Y99.8570
G02 X15.0482 Y102.4308 I-0.3841 J2.8778
G01 Y112.9878
G02 X20.8262 I2.8890 J-0.2979
G01 Y102.4308
G02 X18.3197 Y99.8570 I-2.8866 J0.3037
G00 Z5.0000
G00 X18.3127 Y99.8560
G00 Z-6.0000
G01 Z-6.5000 F100
G01 X18.4113 Y99.1614 F500
G02 X14.3493 Y102.4112 I-0.4822 J3.5607
G01 X14.3342 Y102.7648
G01 X14.3345 Y112.6993
G01 X14.3493 Y113.0384
G02 X21.5342 Y112.6848 I3.5857 J-0.3146
G01 X21.5339 Y102.7503
G02 X18.4113 Y99.1614 I-3.5921 J-0.0274
G00 Z5.0000
G00 X17.9583 Y102.5945
G00 Z-6.0000
G01 X18.7083 F100
G02 X17.5833 Y101.9449 Z-6.1667 I-0.7500 J0.0000
G02 Y103.2440 Z-6.3333 I0.3750 J0.6495
G02 X18.7083 Y102.5945 Z-6.5000 I0.3750 J-0.6495
G02 X17.5833 Y101.9449 Z-6.6667 I-0.7500 J0.0000
G02 Y103.2440 Z-6.8333 I0.3750 J0.6495
G02 X18.7083 Y102.5945 Z-7.0000 I0.3750 J-0.6495
G02 X17.5833 Y101.9449 I-0.7500 J0.0000
G02 Y103.2440 I0.3750 J0.6495
G02 X18.7083 Y102.5945 I0.3750 J-0.6495
G01 X17.9583 F500
G02 X17.8026 Y102.7172 I-0.0211 J0.1333
G01 X17.8022 Y102.7278
G01 Y112.6908
G01 X17.8292 Y112.7988
G01 X17.9642 Y112.8528
G01 X18.0722 Y112.6908
G01 Y102.7278
G02 X17.9583 Y102.5945 I-0.1350 J0.0000
G01 X18.1251 Y101.2285
G02 X16.4252 Y102.5658 I-0.1899 J1.5076
G01 Y112.8528
G02 X19.4492 I1.5120 J-0.1406
G01 Y102.5658
G02 X18.1251 Y101.2285 I-1.5090 J0.1699
G01 X18.3197 Y99.8570
G02 X15.0482 Y102.4308 I-0.3841 J2.8778
G01 Y112.9878
G02 X20.8262 I2.8890 J-0.2979
G01 Y102.4308
G02 X18.3197 Y99.8570 I-2.8866 J0.3037
G00 Z5.0000
G00 X18.3127 Y99.8560
G00 Z-6.5000
G01 Z-7.0000 F100
G01 X18.4113 Y99.1614 F500
G02 X14.3493 Y102.4112 I-0.4822 J3.5607
G01 X14.3342 Y102.7648
G01 X14.3345 Y112.6993
G01 X14.3493 Y113.0384
G02 X21.5342 Y112.6848 I3.5857 J-0.3146
G01 X21.5339 Y102.7503
G02 X18.4113 Y99.1614 I-3.5921 J-0.0274
G00 Z5.0000
G00 X17.9583 Y102.5945
G00 Z-6.5000
G01 X18.7083 F100
G02 X17.5833 Y101.9449 Z-6.6667 I-0.7500 J0.0000
G02 Y103.2440 Z-6.8333 I0.3750 J0.6495
G02 X18.7083 Y102.5945 Z-7.0000 I0.3750 J-0.6495
G02 X17.5833 Y101.9449 Z-7.1667 I-0.7500 J0.0000
G02 Y103.2440 Z-7.3333 I0.3750 J0.6495
G02 X18.7083 Y102.5945 Z-7.5000 I0.3750 J-0.6495
G02 X17.5833 Y101.9449 I-0.7500 J0.0000
G02 Y103.2440 I0.3750 J0.6495
G02 X18.7083 Y102.5945 I0.3750 J-0.6495
G01 X17.9583 F500
G02 X17.8026 Y102.7172 I-0.0211 J0.1333
G01 X17.8022 Y102.7278
G01 Y112.6908
G01 X17.8292 Y112.7988
G01 X17.9642 Y112.8528
G01 X18.0722 Y112.6908
G01 Y102.7278
G02 X17.9583 Y102.5945 I-0.1350 J0.0000
G01 X18.1251 Y101.2285
G02 X16.4252 Y102.5658 I-0.1899 J1.5076
G01 Y112.8528
G02 X19.4492 I1.5120 J-0.1406
G01 Y102.5658
G02 X18.1251 Y101.2285 I-1.5090 J0.1699
G01 X18.3197 Y99.8570
G02 X15.0482 Y102.4308 I-0.3841 J2.8778
G01 Y112.9878
G02 X20.8262 I2.8890 J-0.2979
G01 Y102.4308
G02 X18.3197 Y99.8570 I-2.8866 J0.3037
G00 Z5.0000
G00 X18.3127 Y99.8560
G00 Z-7.0000
G01 Z-7.5000 F100
G01 X18.4113 Y99.1614 F500
G02 X14.3493 Y102.4112 I-0.4822 J3.5607
G01 X14.3342 Y102.7648
G01 X14.3345 Y112.6993
G01 X14.3493 Y113.0384
G02 X21.5342 Y112.6848 I3.5857 J-0.3146
G01 X21.5339 Y102.7503
G02 X18.4113 Y99.1614 I-3.5921 J-0.0274
G00 Z5.0000
G00 X17.9583 Y102.5945
G00 Z-7.0000
G01 X18.7083 F100
G02 X17.5833 Y101.9449 Z-7.1667 I-0.7500 J0.0000
G02 Y103.2440 Z-7.3333 I0.3750 J0.6495
G02 X18.7083 Y102.5945 Z-7.5000 I0.3750 J-0.6495
G02 X17.5833 Y101.9449 Z-7.6667 I-0.7500 J0.0000
G02 Y103.2440 Z-7.8333 I0.3750 J0.6495
G02 X18.7083 Y102.5945 Z-8.0000 I0.3750 J-0.6495
G02 X17.5833 Y101.9449 I-0.7500 J0.0000
G02 Y103.2440 I0.3750 J0.6495
G02 X18.7083 Y102.5945 I0.3750 J-0.6495
G01 X17.9583 F500
G02 X17.8026 Y102.7172 I-0.0211 J0.1333
G01 X17.8022 Y102.7278
G01 Y112.6908
G01 X17.8292 Y112.7988
G01 X17.9642 Y112.8528
G01 X18.0722 Y112.6908
G01 Y102.7278
G02 X17.9583 Y102.5945 I-0.1350 J0.0000
G01 X18.1251 Y101.2285
G02 X16.4252 Y102.5658 I-0.1899 J1.5076
G01 Y112.8528
G02 X19.4492 I1.5120 J-0.1406
G01 Y102.5658
G02 X18.1251 Y101.2285 I-1.5090 J0.1699
G01 X18.3197 Y99.8570
G02 X15.0482 Y102.4308 I-0.3841 J2.8778
G01 Y112.9878
G02 X20.8262 I2.8890 J-0.2979
G01 Y102.4308
G02 X18.3197 Y99.8570 I-2.8866 J0.3037
G00 Z5.0000
G00 X18.3127 Y99.8560
G00 Z-7.5000
G01 Z-8.0000 F100
G01 X18.4113 Y99.1614 F500
G02 X14.3493 Y102.4112 I-0.4822 J3.5607
G01 X14.3342 Y102.7648
G01 X14.3345 Y112.6993
G01 X14.3493 Y113.0384
G02 X21.5342 Y112.6848 I3.5857 J-0.3146
G01 X21.5339 Y102.7503
G02 X18.4113 Y99.1614 I-3.5921 J-0.0274
G00 Z5.0000
G00 X17.9583 Y102.5945
G00 Z-7.5000
G01 X18.7083 F100
G02 X17.5833 Y101.9449 Z-7.6667 I-0.7500 J0.0000
G02 Y103.2440 Z-7.8333 I0.3750 J0.6495
G02 X18.7083 Y102.5945 Z-8.0000 I0.3750 J-0.6495
G02 X17.5833 Y101.9449 Z-8.1000 I-0.7500 J0.0000
G02 Y103.2440 Z-8.2000 I0.3750 J0.6495
G02 X18.7083 Y102.5945 Z-8.3000 I0.3750 J-0.6495
G02 X17.5833 Y101.9449 I-0.7500 J0.0000
G02 Y103.2440 I0.3750 J0.6495
G02 X18.7083 Y102.5945 I0.3750 J-0.6495
G01 X17.9583 F500
G02 X17.8026 Y102.7172 I-0.0211 J0.1333
G01 X17.8022 Y102.7278
G01 Y112.6908
G01 X17.8292 Y112.7988
G01 X17.9642 Y112.8528
G01 X18.0722 Y112.6908
G01 Y102.7278
G02 X17.9583 Y102.5945 I-0.1350 J0.0000
G01 X18.1251 Y101.2285
G02 X16.4252 Y102.5658 I-0.1899 J1.5076
G01 Y112.8528
G02 X19.4492 I1.5120 J-0.1406
G01 Y102.5658
G02 X18.1251 Y101.2285 I-1.5090 J0.1699
G01 X18.3197 Y99.8570
G02 X15.0482 Y102.4308 I-0.3841 J2.8778
G01 Y112.9878
G02 X20.8262 I2.8890 J-0.2979
G01 Y102.4308
G02 X18.3197 Y99.8570 I-2.8866 J0.3037
G00 Z5.0000
G00 X18.3127 Y99.8560
G00 Z-7.8000
G01 Z-8.3000 F100
G01 X18.4113 Y99.1614 F500
G02 X14.3493 Y102.4112 I-0.4822 J3.5607
G01 X14.3342 Y102.7648
G01 X14.3345 Y112.6993
G01 X14.3493 Y113.0384
G02 X21.5342 Y112.6848 I3.5857 J-0.3146
G01 X21.5339 Y102.7503
G02 X18.4113 Y99.1614 I-3.5921 J-0.0274
G00 Z5.0000


(No. 6: Hole 2)
G00 X67.8022 Y102.7278 Z5.0000
G00 Z0.5000
G01 X68.5522 F100
G02 X67.4272 Y102.0783 Z0.3333 I-0.7500 J0.0000
G02 Y103.3773 Z0.1667 I0.3750 J0.6495
G02 X68.5522 Y102.7278 Z0.0000 I0.3750 J-0.6495
G02 X67.4272 Y102.0783 Z-0.1667 I-0.7500 J0.0000
G02 Y103.3773 Z-0.3333 I0.3750 J0.6495
G02 X68.5522 Y102.7278 Z-0.5000 I0.3750 J-0.6495
G02 X67.4272 Y102.0783 I-0.7500 J0.0000
G02 Y103.3773 I0.3750 J0.6495
G02 X68.5522 Y102.7278 I0.3750 J-0.6495
G01 X67.8022 F500
G01 Y112.6908
G01 X67.8832 Y112.8258
G01 X67.9912
G01 X68.0722 Y112.6908
G01 Y102.7278
G01 X68.0452 Y102.6468
G01 X67.8832 Y102.6198
G01 X67.8022 Y102.7278
G01 X66.4252
G01 Y112.8528
G02 X69.4492 I1.5120 J-0.1539
G01 Y102.5658
G02 X66.4252 Y102.7278 I-1.5075 J0.1659
G01 X65.0482
G01 Y112.9878
G02 X70.8262 I2.8890 J-0.2823
G01 Y102.4308
G02 X65.0482 I-2.8890 J0.3049
G01 Y102.7278
G00 Z5.0000
G00 Y102.6974
G00 Z0.0000
G01 Z-0.5000 F100
G01 X64.3371 F500
G01 X64.3342 Y102.7648
G01 Y112.6848
G01 X64.3493 Y113.0384
G02 X71.5342 Y112.6848 I3.5857 J-0.3146
G01 Y102.7648
G02 X64.3371 Y102.6974 I-3.5985 J-0.0398
G00 Z5.0000
G00 X67.8022 Y102.7278
G00 Z0.0000
G01 X68.5522 F100
G02 X67.4272 Y102.0783 Z-0.1667 I-0.7500 J0.0000
G02 Y103.3773 Z-0.3333 I0.3750 J0.6495
G02 X68.5522 Y102.7278 Z-0.5000 I0.3750 J-0.6495
G02 X67.4272 Y102.0783 Z-0.6667 I-0.7500 J0.0000
G02 Y103.3773 Z-0.8333 I0.3750 J0.6495
G02 X68.5522 Y102.7278 Z-1.0000 I0.3750 J-0.6495
G02 X67.4272 Y102.0783 I-0.7500 J0.0000
G02 Y103.3773 I0.3750 J0.6495
G02 X68.5522 Y102.7278 I0.3750 J-0.6495
G01 X67.8022 F500
G01 Y112.6908
G01 X67.8832 Y112.8258
G01 X67.9912
G01 X68.0722 Y112.6908
G01 Y102.7278
G01 X68.0452 Y102.6468
G01 X67.8832 Y102.6198
G01 X67.8022 Y102.7278
G01 X66.4252
G01 Y112.8528
G02 X69.4492 I1.5120 J-0.1539
G01 Y102.5658
G02 X66.4252 Y102.7278 I-1.5075 J0.1659
G01 X65.0482
G01 Y112.9878
G02 X70.8262 I2.8890 J-0.2823
G01 Y102.4308
G02 X65.0482 I-2.8890 J0.3049
G01 Y102.7278
G00 Z5.0000
G00 Y102.6974
G00 Z-0.5000
G01 Z-1.0000 F100
G01 X64.3371 F500
G01 X64.3342 Y102.7648
G01 Y112.6848
G01 X64.3493 Y113.0384
G02 X71.5342 Y112.6848 I3.5857 J-0.3146
G01 Y102.7648
G02 X64.3371 Y102.6974 I-3.5985 J-0.0398
G00 Z5.0000
G00 X67.8022 Y102.7278
G00 Z-0.5000
G01 X68.5522 F100
G02 X67.4272 Y102.0783 Z-0.6667 I-0.7500 J0.0000
G02 Y103.3773 Z-0.8333 I0.3750 J0.6495
G02 X68.5522 Y102.7278 Z-1.0000 I0.3750 J-0.6495
G02 X67.4272 Y102.0783 Z-1.1667 I-0.7500 J0.0000
G02 Y103.3773 Z-1.3333 I0.3750 J0.6495
G02 X68.5522 Y102.7278 Z-1.5000 I0.3750 J-0.6495
G02 X67.4272 Y102.0783 I-0.7500 J0.0000
G02 Y103.3773 I0.3750 J0.6495
G02 X68.5522 Y102.7278 I0.3750 J-0.6495
G01 X67.8022 F500
G01 Y112.6908
G01 X67.8832 Y112.8258
G01 X67.9912
G01 X68.0722 Y112.6908
G01 Y102.7278
G01 X68.0452 Y102.6468
G01 X67.8832 Y102.6198
G01 X67.8022 Y102.7278
G01 X66.4252
G01 Y112.8528
G02 X69.4492 I1.5120 J-0.1539
G01 Y102.5658
G02 X66.4252 Y102.7278 I-1.5075 J0.1659
G01 X65.0482
G01 Y112.9878
G02 X70.8262 I2.8890 J-0.2823
G01 Y102.4308
G02 X65.0482 I-2.8890 J0.3049
G01 Y102.7278
G00 Z5.0000
G00 Y102.6974
G00 Z-1.0000
G01 Z-1.5000 F100
G01 X64.3371 F500
G01 X64.3342 Y102.7648
G01 Y112.6848
G01 X64.3493 Y113.0384
G02 X71.5342 Y112.6848 I3.5857 J-0.3146
G01 Y102.7648
G02 X64.3371 Y102.6974 I-3.5985 J-0.0398
G00 Z5.0000
G00 X67.8022 Y102.7278
G00 Z-1.0000
G01 X68.5522 F100
G02 X67.4272 Y102.0783 Z-1.1667 I-0.7500 J0.0000
G02 Y103.3773 Z-1.3333 I0.3750 J0.6495
G02 X68.5522 Y102.7278 Z-1.5000 I0.3750 J-0.6495
G02 X67.4272 Y102.0783 Z-1.6667 I-0.7500 J0.0000
G02 Y103.3773 Z-1.8333 I0.3750 J0.6495
G02 X68.5522 Y102.7278 Z-2.0000 I0.3750 J-0.6495
G02 X67.4272 Y102.0783 I-0.7500 J0.0000
G02 Y103.3773 I0.3750 J0.6495
G02 X68.5522 Y102.7278 I0.3750 J-0.6495
G01 X67.8022 F500
G01 Y112.6908
G01 X67.8832 Y112.8258
G01 X67.9912
G01 X68.0722 Y112.6908
G01 Y102.7278
G01 X68.0452 Y102.6468
G01 X67.8832 Y102.6198
G01 X67.8022 Y102.7278
G01 X66.4252
G01 Y112.8528
G02 X69.4492 I1.5120 J-0.1539
G01 Y102.5658
G02 X66.4252 Y102.7278 I-1.5075 J0.1659
G01 X65.0482
G01 Y112.9878
G02 X70.8262 I2.8890 J-0.2823
G01 Y102.4308
G02 X65.0482 I-2.8890 J0.3049
G01 Y102.7278
G00 Z5.0000
G00 Y102.6974
G00 Z-1.5000
G01 Z-2.0000 F100
G01 X64.3371 F500
G01 X64.3342 Y102.7648
G01 Y112.6848
G01 X64.3493 Y113.0384
G02 X71.5342 Y112.6848 I3.5857 J-0.3146
G01 Y102.7648
G02 X64.3371 Y102.6974 I-3.5985 J-0.0398
G00 Z5.0000
G00 X67.8022 Y102.7278
G00 Z-1.5000
G01 X68.5522 F100
G02 X67.4272 Y102.0783 Z-1.6667 I-0.7500 J0.0000
G02 Y103.3773 Z-1.8333 I0.3750 J0.6495
G02 X68.5522 Y102.7278 Z-2.0000 I0.3750 J-0.6495
G02 X67.4272 Y102.0783 Z-2.1667 I-0.7500 J0.0000
G02 Y103.3773 Z-2.3333 I0.3750 J0.6495
G02 X68.5522 Y102.7278 Z-2.5000 I0.3750 J-0.6495
G02 X67.4272 Y102.0783 I-0.7500 J0.0000
G02 Y103.3773 I0.3750 J0.6495
G02 X68.5522 Y102.7278 I0.3750 J-0.6495
G01 X67.8022 F500
G01 Y112.6908
G01 X67.8832 Y112.8258
G01 X67.9912
G01 X68.0722 Y112.6908
G01 Y102.7278
G01 X68.0452 Y102.6468
G01 X67.8832 Y102.6198
G01 X67.8022 Y102.7278
G01 X66.4252
G01 Y112.8528
G02 X69.4492 I1.5120 J-0.1539
G01 Y102.5658
G02 X66.4252 Y102.7278 I-1.5075 J0.1659
G01 X65.0482
G01 Y112.9878
G02 X70.8262 I2.8890 J-0.2823
G01 Y102.4308
G02 X65.0482 I-2.8890 J0.3049
G01 Y102.7278
G00 Z5.0000
G00 Y102.6974
G00 Z-2.0000
G01 Z-2.5000 F100
G01 X64.3371 F500
G01 X64.3342 Y102.7648
G01 Y112.6848
G01 X64.3493 Y113.0384
G02 X71.5342 Y112.6848 I3.5857 J-0.3146
G01 Y102.7648
G02 X64.3371 Y102.6974 I-3.5985 J-0.0398
G00 Z5.0000
G00 X67.8022 Y102.7278
G00 Z-2.0000
G01 X68.5522 F100
G02 X67.4272 Y102.0783 Z-2.1667 I-0.7500 J0.0000
G02 Y103.3773 Z-2.3333 I0.3750 J0.6495
G02 X68.5522 Y102.7278 Z-2.5000 I0.3750 J-0.6495
G02 X67.4272 Y102.0783 Z-2.6667 I-0.7500 J0.0000
G02 Y103.3773 Z-2.8333 I0.3750 J0.6495
G02 X68.5522 Y102.7278 Z-3.0000 I0.3750 J-0.6495
G02 X67.4272 Y102.0783 I-0.7500 J0.0000
G02 Y103.3773 I0.3750 J0.6495
G02 X68.5522 Y102.7278 I0.3750 J-0.6495
G01 X67.8022 F500
G01 Y112.6908
G01 X67.8832 Y112.8258
G01 X67.9912
G01 X68.0722 Y112.6908
G01 Y102.7278
G01 X68.0452 Y102.6468
G01 X67.8832 Y102.6198
G01 X67.8022 Y102.7278
G01 X66.4252
G01 Y112.8528
G02 X69.4492 I1.5120 J-0.1539
G01 Y102.5658
G02 X66.4252 Y102.7278 I-1.5075 J0.1659
G01 X65.0482
G01 Y112.9878
G02 X70.8262 I2.8890 J-0.2823
G01 Y102.4308
G02 X65.0482 I-2.8890 J0.3049
G01 Y102.7278
G00 Z5.0000
G00 Y102.6974
G00 Z-2.5000
G01 Z-3.0000 F100
G01 X64.3371 F500
G01 X64.3342 Y102.7648
G01 Y112.6848
G01 X64.3493 Y113.0384
G02 X71.5342 Y112.6848 I3.5857 J-0.3146
G01 Y102.7648
G02 X64.3371 Y102.6974 I-3.5985 J-0.0398
G00 Z5.0000
G00 X67.8022 Y102.7278
G00 Z-2.5000
G01 X68.5522 F100
G02 X67.4272 Y102.0783 Z-2.6667 I-0.7500 J0.0000
G02 Y103.3773 Z-2.8333 I0.3750 J0.6495
G02 X68.5522 Y102.7278 Z-3.0000 I0.3750 J-0.6495
G02 X67.4272 Y102.0783 Z-3.1667 I-0.7500 J0.0000
G02 Y103.3773 Z-3.3333 I0.3750 J0.6495
G02 X68.5522 Y102.7278 Z-3.5000 I0.3750 J-0.6495
G02 X67.4272 Y102.0783 I-0.7500 J0.0000
G02 Y103.3773 I0.3750 J0.6495
G02 X68.5522 Y102.7278 I0.3750 J-0.6495
G01 X67.8022 F500
G01 Y112.6908
G01 X67.8832 Y112.8258
G01 X67.9912
G01 X68.0722 Y112.6908
G01 Y102.7278
G01 X68.0452 Y102.6468
G01 X67.8832 Y102.6198
G01 X67.8022 Y102.7278
G01 X66.4252
G01 Y112.8528
G02 X69.4492 I1.5120 J-0.1539
G01 Y102.5658
G02 X66.4252 Y102.7278 I-1.5075 J0.1659
G01 X65.0482
G01 Y112.9878
G02 X70.8262 I2.8890 J-0.2823
G01 Y102.4308
G02 X65.0482 I-2.8890 J0.3049
G01 Y102.7278
G00 Z5.0000
G00 Y102.6974
G00 Z-3.0000
G01 Z-3.5000 F100
G01 X64.3371 F500
G01 X64.3342 Y102.7648
G01 Y112.6848
G01 X64.3493 Y113.0384
G02 X71.5342 Y112.6848 I3.5857 J-0.3146
G01 Y102.7648
G02 X64.3371 Y102.6974 I-3.5985 J-0.0398
G00 Z5.0000
G00 X67.8022 Y102.7278
G00 Z-3.0000
G01 X68.5522 F100
G02 X67.4272 Y102.0783 Z-3.1667 I-0.7500 J0.0000
G02 Y103.3773 Z-3.3333 I0.3750 J0.6495
G02 X68.5522 Y102.7278 Z-3.5000 I0.3750 J-0.6495
G02 X67.4272 Y102.0783 Z-3.6667 I-0.7500 J0.0000
G02 Y103.3773 Z-3.8333 I0.3750 J0.6495
G02 X68.5522 Y102.7278 Z-4.0000 I0.3750 J-0.6495
G02 X67.4272 Y102.0783 I-0.7500 J0.0000
G02 Y103.3773 I0.3750 J0.6495
G02 X68.5522 Y102.7278 I0.3750 J-0.6495
G01 X67.8022 F500
G01 Y112.6908
G01 X67.8832 Y112.8258
G01 X67.9912
G01 X68.0722 Y112.6908
G01 Y102.7278
G01 X68.0452 Y102.6468
G01 X67.8832 Y102.6198
G01 X67.8022 Y102.7278
G01 X66.4252
G01 Y112.8528
G02 X69.4492 I1.5120 J-0.1539
G01 Y102.5658
G02 X66.4252 Y102.7278 I-1.5075 J0.1659
G01 X65.0482
G01 Y112.9878
G02 X70.8262 I2.8890 J-0.2823
G01 Y102.4308
G02 X65.0482 I-2.8890 J0.3049
G01 Y102.7278
G00 Z5.0000
G00 Y102.6974
G00 Z-3.5000
G01 Z-4.0000 F100
G01 X64.3371 F500
G01 X64.3342 Y102.7648
G01 Y112.6848
G01 X64.3493 Y113.0384
G02 X71.5342 Y112.6848 I3.5857 J-0.3146
G01 Y102.7648
G02 X64.3371 Y102.6974 I-3.5985 J-0.0398
G00 Z5.0000
G00 X67.8022 Y102.7278
G00 Z-3.5000
G01 X68.5522 F100
G02 X67.4272 Y102.0783 Z-3.6667 I-0.7500 J0.0000
G02 Y103.3773 Z-3.8333 I0.3750 J0.6495
G02 X68.5522 Y102.7278 Z-4.0000 I0.3750 J-0.6495
G02 X67.4272 Y102.0783 Z-4.1667 I-0.7500 J0.0000
G02 Y103.3773 Z-4.3333 I0.3750 J0.6495
G02 X68.5522 Y102.7278 Z-4.5000 I0.3750 J-0.6495
G02 X67.4272 Y102.0783 I-0.7500 J0.0000
G02 Y103.3773 I0.3750 J0.6495
G02 X68.5522 Y102.7278 I0.3750 J-0.6495
G01 X67.8022 F500
G01 Y112.6908
G01 X67.8832 Y112.8258
G01 X67.9912
G01 X68.0722 Y112.6908
G01 Y102.7278
G01 X68.0452 Y102.6468
G01 X67.8832 Y102.6198
G01 X67.8022 Y102.7278
G01 X66.4252
G01 Y112.8528
G02 X69.4492 I1.5120 J-0.1539
G01 Y102.5658
G02 X66.4252 Y102.7278 I-1.5075 J0.1659
G01 X65.0482
G01 Y112.9878
G02 X70.8262 I2.8890 J-0.2823
G01 Y102.4308
G02 X65.0482 I-2.8890 J0.3049
G01 Y102.7278
G00 Z5.0000
G00 Y102.6974
G00 Z-4.0000
G01 Z-4.5000 F100
G01 X64.3371 F500
G01 X64.3342 Y102.7648
G01 Y112.6848
G01 X64.3493 Y113.0384
G02 X71.5342 Y112.6848 I3.5857 J-0.3146
G01 Y102.7648
G02 X64.3371 Y102.6974 I-3.5985 J-0.0398
G00 Z5.0000
G00 X67.8022 Y102.7278
G00 Z-4.0000
G01 X68.5522 F100
G02 X67.4272 Y102.0783 Z-4.1667 I-0.7500 J0.0000
G02 Y103.3773 Z-4.3333 I0.3750 J0.6495
G02 X68.5522 Y102.7278 Z-4.5000 I0.3750 J-0.6495
G02 X67.4272 Y102.0783 Z-4.6667 I-0.7500 J0.0000
G02 Y103.3773 Z-4.8333 I0.3750 J0.6495
G02 X68.5522 Y102.7278 Z-5.0000 I0.3750 J-0.6495
G02 X67.4272 Y102.0783 I-0.7500 J0.0000
G02 Y103.3773 I0.3750 J0.6495
G02 X68.5522 Y102.7278 I0.3750 J-0.6495
G01 X67.8022 F500
G01 Y112.6908
G01 X67.8832 Y112.8258
G01 X67.9912
G01 X68.0722 Y112.6908
G01 Y102.7278
G01 X68.0452 Y102.6468
G01 X67.8832 Y102.6198
G01 X67.8022 Y102.7278
G01 X66.4252
G01 Y112.8528
G02 X69.4492 I1.5120 J-0.1539
G01 Y102.5658
G02 X66.4252 Y102.7278 I-1.5075 J0.1659
G01 X65.0482
G01 Y112.9878
G02 X70.8262 I2.8890 J-0.2823
G01 Y102.4308
G02 X65.0482 I-2.8890 J0.3049
G01 Y102.7278
G00 Z5.0000
G00 Y102.6974
G00 Z-4.5000
G01 Z-5.0000 F100
G01 X64.3371 F500
G01 X64.3342 Y102.7648
G01 Y112.6848
G01 X64.3493 Y113.0384
G02 X71.5342 Y112.6848 I3.5857 J-0.3146
G01 Y102.7648
G02 X64.3371 Y102.6974 I-3.5985 J-0.0398
G00 Z5.0000
G00 X67.8022 Y102.7278
G00 Z-4.5000
G01 X68.5522 F100
G02 X67.4272 Y102.0783 Z-4.6667 I-0.7500 J0.0000
G02 Y103.3773 Z-4.8333 I0.3750 J0.6495
G02 X68.5522 Y102.7278 Z-5.0000 I0.3750 J-0.6495
G02 X67.4272 Y102.0783 Z-5.1667 I-0.7500 J0.0000
