(Project Mecanizado1_exportado_dxf_12_planeo_mesa)
(Created by Estlcam version 11 build 11,118)
(Machining time about 00:13:17 hours)

(Required tools:)
(Plana 6mm)

G90
G91.1
M03 S24000
G00 Z5.0000


(No. 1: Hole 7)
G00 X3.6000 Y4.8000
G00 Z0.5000
G01 Z-1.0000 F300 S24000
G01 X296.4000 F2000
G01 Y10.2000
G01 X3.6000
G01 Y15.6000
G01 X296.4000
G01 Y21.0000
G01 X3.6000
G01 Y26.4000
G01 X296.4000
G01 Y31.8000
G01 X3.6000
G01 Y37.2000
G01 X296.4000
G01 Y42.6000
G01 X3.6000
G01 Y48.0000
G01 X296.4000
G01 Y53.4000
G01 X3.6000
G01 Y58.8000
G01 X296.4000
G01 Y64.2000
G01 X3.6000
G01 Y69.6000
G01 X296.4000
G01 Y75.0000
G01 X3.6000
G01 Y80.4000
G01 X296.4000
G01 Y85.8000
G01 X3.6000
G01 Y91.2000
G01 X296.4000
G01 Y96.6000
G01 X3.6000
G01 Y102.0000
G01 X296.4000
G01 Y107.4000
G01 X3.6000
G01 Y112.8000
G01 X296.4000
G01 Y118.2000
G01 X3.6000
G01 Y123.6000
G01 X296.4000
G01 Y129.0000
G01 X3.6000
G01 Y134.4000
G01 X296.4000
G01 Y139.8000
G01 X3.6000
G01 Y145.2000
G01 X296.4000
G01 Y150.6000
G01 X3.6000
G01 Y156.0000
G01 X296.4000
G01 Y161.4000
G01 X3.6000
G01 Y166.8000
G01 X296.4000
G01 Y172.2000
G01 X3.6000
G01 Y177.6000
G01 X296.4000
G01 Y183.0000
G01 X3.6000
G01 Y188.4000
G01 X296.4000
G01 Y193.8000
G01 X3.6000
G01 Y199.2000
G01 X296.4000
G01 Y204.6000
G01 X3.6000
G01 Y210.0000
G01 X296.4000
G01 Y215.4000
G01 X3.6000
G01 Y220.8000
G01 X296.4000
G01 Y226.2000
G01 X3.6000
G01 Y231.6000
G01 X296.4000
G01 Y237.0000
G01 X3.6000
G01 Y242.4000
G01 X296.4000
G01 Y247.8000
G01 X3.6000
G01 Y253.2000
G01 X296.4000
G01 Y258.6000
G01 X3.6000
G01 Y264.0000
G01 X296.4000
G01 Y269.4000
G01 X3.6000
G01 Y274.8000
G01 X296.4000
G01 Y280.2000
G01 X3.6000
G01 Y285.6000
G01 X296.4000
G01 Y291.0000
G01 X3.6000
G01 Y296.4000
G01 X296.4000
G01 Y301.8000
G01 X3.6000
G01 Y307.2000
G01 X296.4000
G01 Y312.6000
G01 X3.6000
G01 Y318.0000
G01 X296.4000
G01 Y323.4000
G01 X3.6000
G01 Y328.8000
G01 X296.4000
G01 Y334.2000
G01 X3.6000
G01 Y339.6000
G01 X296.4000
G01 Y345.0000
G01 X3.6000
G01 Y350.4000
G01 X296.4000
G01 Y355.8000
G01 X3.6000
G01 Y361.2000
G01 X296.4000
G01 Y366.6000
G01 X3.6000
G01 Y372.0000
G01 X296.4000
G01 Y377.4000
G01 X3.6000
G01 Y382.8000
G01 X296.4000
G01 Y388.2000
G01 X3.6000
G01 Y393.6000
G01 X296.4000
G01 Y399.0000
G01 X3.6000
G01 Y404.4000
G01 X296.4000
G01 Y409.8000
G01 X3.6000
G01 Y415.2000
G01 X296.4000
G00 Z5.0000
G00 Z0.5000
G01 Z-1.0000 F300
G01 X297.0000 F2000
G01 Y3.0000
G01 X297.8787 Y2.1213
G01 X297.0000 Y3.0000
G01 X3.0000
G01 X2.1213 Y2.1213
G01 X3.0000 Y3.0000
G01 Y417.0000
G01 X2.1213 Y417.8787
G01 X3.0000 Y417.0000
G01 X297.0000
G01 X297.8787 Y417.8787
G01 X297.0000 Y417.0000
G01 Y415.2000
G01 X296.4000
G00 Z5.0000
G00 X0.0000 Y0.0000

M05
M30
