(Project Tapa_Rodamiento_V2)
(Created by Estlcam version 11 build 11,244)
(Machining time about 00:02:55 hours)

(Required tools:)
(End mill 3mm)

G90
G91.1
M03 S24000
G00 Z5.0000


(No. 1: Part 3)
G00 X21.4059 Y3.4218
G00 Z0.5000
G01 Z0.0000 F100 S24000
G02 X21.5431 Y3.8876 Z-0.2500 I0.5941 J0.0782
G03 X21.4059 Y3.4218 Z-0.5000 I0.4569 J-0.3876
G02 X22.2293 Y4.0536 I0.5941 J0.0782 F500
G02 X22.3648 Y3.0246 I-0.2293 J-0.5536
G02 X21.4059 Y3.4218 I-0.3648 J0.4754
G02 X21.5431 Y3.8876 Z-0.7500 I0.5941 J0.0782 F100
G03 X21.4059 Y3.4218 Z-1.0000 I0.4569 J-0.3876
G02 X22.2293 Y4.0536 I0.5941 J0.0782 F500
G02 X22.3648 Y3.0246 I-0.2293 J-0.5536
G02 X21.4059 Y3.4218 I-0.3648 J0.4754
G02 X21.5431 Y3.8876 Z-1.2500 I0.5941 J0.0782 F100
G03 X21.4059 Y3.4218 Z-1.5000 I0.4569 J-0.3876
G02 X22.2293 Y4.0536 I0.5941 J0.0782 F500
G02 X22.3648 Y3.0246 I-0.2293 J-0.5536
G02 X21.4059 Y3.4218 I-0.3648 J0.4754
G02 X21.5431 Y3.8876 Z-1.7500 I0.5941 J0.0782 F100
G03 X21.4059 Y3.4218 Z-2.0000 I0.4569 J-0.3876
G02 X22.2293 Y4.0536 I0.5941 J0.0782 F500
G02 X22.3648 Y3.0246 I-0.2293 J-0.5536
G02 X21.4059 Y3.4218 I-0.3648 J0.4754
G02 X21.4131 Y3.6207 Z-2.1000 I0.5941 J0.0782 F100
G03 X21.4059 Y3.4218 Z-2.2000 I0.5869 J-0.1207
G02 X22.2293 Y4.0536 I0.5941 J0.0782 F500
G02 X22.3648 Y3.0246 I-0.2293 J-0.5536
G02 X21.4059 Y3.4218 I-0.3648 J0.4754
G00 Z5.0000


(No. 2: Part 2)
G00 X22.2140 Y11.5063 Z5.0000
G00 Z0.5000
G01 Z0.0000 F100
G02 X21.7141 Y11.5077 Z-0.2500 I-0.2220 J10.4861
G03 X22.2140 Y11.5063 Z-0.5000 I0.2779 J10.4847
G02 X11.5333 Y22.7818 I-0.2220 J10.4861 F500
G02 X12.8048 Y27.0617 I10.3243 J-0.7384
G02 X27.9121 Y30.6760 I9.1955 J-5.0557
G02 X30.9833 Y27.4337 I-5.8920 J-8.6569
G02 X26.5564 Y12.5443 I-8.9773 J-5.4337
G02 X22.2140 Y11.5063 I-4.5210 J9.3119
G02 X21.7141 Y11.5077 Z-0.7500 I-0.2220 J10.4861 F100
G03 X22.2140 Y11.5063 Z-1.0000 I0.2779 J10.4847
G02 X11.5333 Y22.7818 I-0.2220 J10.4861 F500
G02 X12.8048 Y27.0617 I10.3243 J-0.7384
G02 X27.9121 Y30.6760 I9.1955 J-5.0557
G02 X30.9833 Y27.4337 I-5.8920 J-8.6569
G02 X26.5564 Y12.5443 I-8.9773 J-5.4337
G02 X22.2140 Y11.5063 I-4.5210 J9.3119
G02 X21.7141 Y11.5077 Z-1.2500 I-0.2220 J10.4861 F100
G03 X22.2140 Y11.5063 Z-1.5000 I0.2779 J10.4847
G02 X11.5333 Y22.7818 I-0.2220 J10.4861 F500
G00 Z-1.2000
G02 X12.8048 Y27.0617 I10.3243 J-0.7384
G02 X12.9531 Y27.3224 Z-1.3500 I9.1955 J-5.0557 F100
G03 X12.8048 Y27.0617 Z-1.5000 I9.0472 J-5.3165
G02 X27.9121 Y30.6760 I9.1955 J-5.0557 F500
G00 Z-1.2000
G02 X30.9833 Y27.4337 I-5.8920 J-8.6569
G02 X31.1350 Y27.1749 Z-1.3500 I-8.9773 J-5.4337 F100
G03 X30.9833 Y27.4337 Z-1.5000 I-9.1290 J-5.1749
G02 X26.5564 Y12.5443 I-8.9773 J-5.4337 F500
G00 Z-1.2000
G02 X22.2140 Y11.5063 I-4.5210 J9.3119
G01 Z-1.5000 F100
G02 X21.7141 Y11.5077 Z-1.7500 I-0.2220 J10.4861
G03 X22.2140 Y11.5063 Z-2.0000 I0.2779 J10.4847
G02 X11.5333 Y22.7818 I-0.2220 J10.4861 F500
G00 Z-1.2000
G02 X12.8048 Y27.0617 I10.3243 J-0.7384
G01 Z-1.5000 F100
G02 X13.0561 Y27.4939 Z-1.7500 I9.1955 J-5.0557
G03 X12.8048 Y27.0617 Z-2.0000 I8.9443 J-5.4879
G02 X27.9121 Y30.6760 I9.1955 J-5.0557 F500
G00 Z-1.2000
G02 X30.9833 Y27.4337 I-5.8920 J-8.6569
G01 Z-1.5000 F100
G02 X31.2319 Y27.0000 Z-1.7500 I-8.9773 J-5.4337
G03 X30.9833 Y27.4337 Z-2.0000 I-9.2259 J-5.0000
G02 X26.5564 Y12.5443 I-8.9773 J-5.4337 F500
G00 Z-1.2000
G02 X22.2140 Y11.5063 I-4.5210 J9.3119
G00 Z-1.5000
G01 Z-2.0000 F100
G02 X22.0140 Y11.5040 Z-2.1000 I-0.2220 J10.4861
G03 X22.2140 Y11.5063 Z-2.2000 I-0.0220 J10.4884
G02 X11.5333 Y22.7818 I-0.2220 J10.4861 F500
G00 Z-1.2000
G02 X12.8048 Y27.0617 I10.3243 J-0.7384
G00 Z-1.5000
G01 Z-2.0000 F100
G02 X12.9028 Y27.2360 Z-2.1000 I9.1955 J-5.0557
G03 X12.8048 Y27.0617 Z-2.2000 I9.0975 J-5.2300
G02 X27.9121 Y30.6760 I9.1955 J-5.0557 F500
G00 Z-1.2000
G02 X30.9833 Y27.4337 I-5.8920 J-8.6569
G00 Z-1.5000
G01 Z-2.0000 F100
G02 X31.0852 Y27.2616 Z-2.1000 I-8.9773 J-5.4337
G03 X30.9833 Y27.4337 Z-2.2000 I-9.0793 J-5.2616
G02 X26.5564 Y12.5443 I-8.9773 J-5.4337 F500
G00 Z-1.2000
G02 X22.2140 Y11.5063 I-4.5210 J9.3119
G00 Z5.0000


(No. 3: Part 4)
G00 X37.5710 Y30.8549 Z5.0000
G00 Z0.5000
G01 Z0.0000 F100
G02 X37.4262 Y31.3185 Z-0.2500 I0.4505 J0.3951
G03 X37.5710 Y30.8549 Z-0.5000 I0.5953 J-0.0685
G02 X37.9046 Y31.8377 I0.4505 J0.3951 F500
G02 X38.5889 Y31.0574 I0.1169 J-0.5877
G02 X37.5710 Y30.8549 I-0.5674 J0.1926
G02 X37.4262 Y31.3185 Z-0.7500 I0.4505 J0.3951 F100
G03 X37.5710 Y30.8549 Z-1.0000 I0.5953 J-0.0685
G02 X37.9046 Y31.8377 I0.4505 J0.3951 F500
G02 X38.5889 Y31.0574 I0.1169 J-0.5877
G02 X37.5710 Y30.8549 I-0.5674 J0.1926
G02 X37.4262 Y31.3185 Z-1.2500 I0.4505 J0.3951 F100
G03 X37.5710 Y30.8549 Z-1.5000 I0.5953 J-0.0685
G02 X37.9046 Y31.8377 I0.4505 J0.3951 F500
G02 X38.5889 Y31.0574 I0.1169 J-0.5877
G02 X37.5710 Y30.8549 I-0.5674 J0.1926
G02 X37.4262 Y31.3185 Z-1.7500 I0.4505 J0.3951 F100
G03 X37.5710 Y30.8549 Z-2.0000 I0.5953 J-0.0685
G02 X37.9046 Y31.8377 I0.4505 J0.3951 F500
G02 X38.5889 Y31.0574 I0.1169 J-0.5877
G02 X37.5710 Y30.8549 I-0.5674 J0.1926
G02 X37.4664 Y31.0243 Z-2.1000 I0.4505 J0.3951 F100
G03 X37.5710 Y30.8549 Z-2.2000 I0.5551 J0.2257
G02 X37.9046 Y31.8377 I0.4505 J0.3951 F500
G02 X38.5889 Y31.0574 I0.1169 J-0.5877
G02 X37.5710 Y30.8549 I-0.5674 J0.1926
G00 Z5.0000


(No. 4: Part 5)
G00 X5.8616 Y30.6623 Z5.0000
G00 Z0.5000
G01 Z0.0000 F100
G02 X5.4646 Y30.9419 Z-0.2500 I0.1169 J0.5877
G03 X5.8616 Y30.6623 Z-0.5000 I0.5139 J0.3081
G02 X5.5280 Y31.6451 I0.1169 J0.5877 F500
G02 X6.5459 Y31.4426 I0.4505 J-0.3951
G02 X5.8616 Y30.6623 I-0.5674 J-0.1926
G02 X5.4646 Y30.9419 Z-0.7500 I0.1169 J0.5877 F100
G03 X5.8616 Y30.6623 Z-1.0000 I0.5139 J0.3081
G02 X5.5280 Y31.6451 I0.1169 J0.5877 F500
G02 X6.5459 Y31.4426 I0.4505 J-0.3951
G02 X5.8616 Y30.6623 I-0.5674 J-0.1926
G02 X5.4646 Y30.9419 Z-1.2500 I0.1169 J0.5877 F100
G03 X5.8616 Y30.6623 Z-1.5000 I0.5139 J0.3081
G02 X5.5280 Y31.6451 I0.1169 J0.5877 F500
G02 X6.5459 Y31.4426 I0.4505 J-0.3951
G02 X5.8616 Y30.6623 I-0.5674 J-0.1926
G02 X5.4646 Y30.9419 Z-1.7500 I0.1169 J0.5877 F100
G03 X5.8616 Y30.6623 Z-2.0000 I0.5139 J0.3081
G02 X5.5280 Y31.6451 I0.1169 J0.5877 F500
G02 X6.5459 Y31.4426 I0.4505 J-0.3951
G02 X5.8616 Y30.6623 I-0.5674 J-0.1926
G02 X5.6756 Y30.7330 Z-2.1000 I0.1169 J0.5877 F100
G03 X5.8616 Y30.6623 Z-2.2000 I0.3030 J0.5170
G02 X5.5280 Y31.6451 I0.1169 J0.5877 F500
G02 X6.5459 Y31.4426 I0.4505 J-0.3951
G02 X5.8616 Y30.6623 I-0.5674 J-0.1926
G00 Z5.0000


(No. 5: Part 1)
G00 X-1.2462 Y25.4162 Z5.0000
G00 Z0.5000
G01 Z0.0000 F100
G03 X-1.3138 Y24.9208 Z-0.2500 I23.2388 J-3.4239
G02 X-1.2462 Y25.4162 Z-0.5000 I23.3064 J-2.9285
G03 X26.3494 Y-1.0897 I23.2388 J-3.4239 F500
G03 X30.6646 Y0.1602 I-4.0348 J22.0034
G03 X39.8216 Y37.3116 I-8.6542 J21.8373
G03 X36.5816 Y40.4237 I-17.0381 J-14.4959
G03 X-0.1710 Y29.7782 I-14.5845 J-18.4134
G03 X-1.2462 Y25.4162 I21.0729 J-7.5075
G03 X-1.3138 Y24.9208 Z-0.7500 I23.2388 J-3.4239 F100
G02 X-1.2462 Y25.4162 Z-1.0000 I23.3064 J-2.9285
G03 X26.3494 Y-1.0897 I23.2388 J-3.4239 F500
G03 X30.6646 Y0.1602 I-4.0348 J22.0034
G03 X39.8216 Y37.3116 I-8.6542 J21.8373
G03 X36.5816 Y40.4237 I-17.0381 J-14.4959
G03 X-0.1710 Y29.7782 I-14.5845 J-18.4134
G03 X-1.2462 Y25.4162 I21.0729 J-7.5075
G03 X-1.3138 Y24.9208 Z-1.2500 I23.2388 J-3.4239 F100
G02 X-1.2462 Y25.4162 Z-1.5000 I23.3064 J-2.9285
G03 X26.3494 Y-1.0897 I23.2388 J-3.4239 F500
G00 Z-1.2000
G03 X30.6646 Y0.1602 I-4.0348 J22.0034
G03 X30.9428 Y0.2725 Z-1.3500 I-8.6542 J21.8373 F100
G02 X30.6646 Y0.1602 Z-1.5000 I-8.9324 J21.7250
G03 X39.8216 Y37.3116 I-8.6542 J21.8373 F500
G00 Z-1.2000
G03 X36.5816 Y40.4237 I-17.0381 J-14.4959
G03 X36.3452 Y40.6084 Z-1.3500 I-14.5845 J-18.4134 F100
G02 X36.5816 Y40.4237 Z-1.5000 I-14.3482 J-18.5982
G03 X-0.1710 Y29.7782 I-14.5845 J-18.4134 F500
G00 Z-1.2000
G03 X-1.2462 Y25.4162 I21.0729 J-7.5075
G01 Z-1.5000 F100
G03 X-1.3138 Y24.9208 Z-1.7500 I23.2388 J-3.4239
G02 X-1.2462 Y25.4162 Z-2.0000 I23.3064 J-2.9285
G03 X26.3494 Y-1.0897 I23.2388 J-3.4239 F500
G00 Z-1.2000
G03 X30.6646 Y0.1602 I-4.0348 J22.0034
G01 Z-1.5000 F100
G03 X31.1274 Y0.3493 Z-1.7500 I-8.6542 J21.8373
G02 X30.6646 Y0.1602 Z-2.0000 I-9.1171 J21.6481
G03 X39.8216 Y37.3116 I-8.6542 J21.8373 F500
G00 Z-1.2000
G03 X36.5816 Y40.4237 I-17.0381 J-14.4959
G01 Z-1.5000 F100
G03 X36.1863 Y40.7299 Z-1.7500 I-14.5845 J-18.4134
G02 X36.5816 Y40.4237 Z-2.0000 I-14.1893 J-18.7197
G03 X-0.1710 Y29.7782 I-14.5845 J-18.4134 F500
G00 Z-1.2000
G03 X-1.2462 Y25.4162 I21.0729 J-7.5075
G00 Z-1.5000
G01 Z-2.0000 F100
G03 X-1.2745 Y25.2182 Z-2.1000 I23.2388 J-3.4239
G02 X-1.2462 Y25.4162 Z-2.2000 I23.2671 J-3.2259
G03 X26.3494 Y-1.0897 I23.2388 J-3.4239 F500
G00 Z-1.2000
G03 X30.6646 Y0.1602 I-4.0348 J22.0034
G00 Z-1.5000
G01 Z-2.0000 F100
G03 X30.8502 Y0.2346 Z-2.1000 I-8.6542 J21.8373
G02 X30.6646 Y0.1602 Z-2.2000 I-8.8398 J21.7628
G03 X39.8216 Y37.3116 I-8.6542 J21.8373 F500
G00 Z-1.2000
G03 X36.5816 Y40.4237 I-17.0381 J-14.4959
G00 Z-1.5000
G01 Z-2.0000 F100
G03 X36.4243 Y40.5472 Z-2.1000 I-14.5845 J-18.4134
G02 X36.5816 Y40.4237 Z-2.2000 I-14.4272 J-18.5369
G03 X-0.1710 Y29.7782 I-14.5845 J-18.4134 F500
G00 Z-1.2000
G03 X-1.2462 Y25.4162 I21.0729 J-7.5075
G00 Z5.0000
G00 X0.0000 Y0.0000

M05
M30
