(Project Tapa_Rodamiento_V2)
(Created by Estlcam version 11 build 11,244)
(Machining time about 00:08:51 hours)

(Required tools:)
(PLANA 4mm ALU)

G90
G91.1
M03 S24000
G00 Z5.0000


(No. 1: Part 3)
G00 X21.9019 Y3.4871
G00 Z0.5000
G01 Z0.0000 F30 S24000
G02 X22.0961 Y3.5235 Z-0.1500 I0.0981 J0.0129
G03 X21.9019 Y3.4871 Z-0.3000 I-0.0961 J-0.0235
G02 X22.0989 Y3.5000 I0.0981 J0.0129 F250
G02 X21.9019 Y3.4871 I-0.0989 J0.0000
G02 X22.0961 Y3.5235 Z-0.4500 I0.0981 J0.0129 F30
G03 X21.9019 Y3.4871 Z-0.6000 I-0.0961 J-0.0235
G02 X22.0989 Y3.5000 I0.0981 J0.0129 F250
G02 X21.9019 Y3.4871 I-0.0989 J0.0000
G02 X22.0961 Y3.5235 Z-0.7500 I0.0981 J0.0129 F30
G03 X21.9019 Y3.4871 Z-0.9000 I-0.0961 J-0.0235
G02 X22.0989 Y3.5000 I0.0981 J0.0129 F250
G02 X21.9019 Y3.4871 I-0.0989 J0.0000
G02 X22.0961 Y3.5235 Z-1.0500 I0.0981 J0.0129 F30
G03 X21.9019 Y3.4871 Z-1.2000 I-0.0961 J-0.0235
G02 X22.0989 Y3.5000 I0.0981 J0.0129 F250
G02 X21.9019 Y3.4871 I-0.0989 J0.0000
G02 X22.0961 Y3.5235 Z-1.3500 I0.0981 J0.0129 F30
G03 X21.9019 Y3.4871 Z-1.5000 I-0.0961 J-0.0235
G02 X22.0989 Y3.5000 I0.0981 J0.0129 F250
G02 X21.9019 Y3.4871 I-0.0989 J0.0000
G02 X22.0961 Y3.5235 Z-1.6500 I0.0981 J0.0129 F30
G03 X21.9019 Y3.4871 Z-1.8000 I-0.0961 J-0.0235
G02 X22.0989 Y3.5000 I0.0981 J0.0129 F250
G02 X21.9019 Y3.4871 I-0.0989 J0.0000
G02 X22.0961 Y3.5235 Z-1.9500 I0.0981 J0.0129 F30
G03 X21.9019 Y3.4871 Z-2.1000 I-0.0961 J-0.0235
G02 X22.0989 Y3.5000 I0.0981 J0.0129 F250
G02 X21.9019 Y3.4871 I-0.0989 J0.0000
G02 X21.9370 Y3.5762 Z-2.1500 I0.0981 J0.0129 F30
G03 X21.9019 Y3.4871 Z-2.2000 I0.0630 J-0.0762
G02 X22.0989 Y3.5000 I0.0981 J0.0129 F250
G02 X21.9019 Y3.4871 I-0.0989 J0.0000
G00 Z5.0000


(No. 2: Part 2)
G00 X21.3473 Y12.0245 Z5.0000
G00 Z0.5000
G01 Z0.0000 F30
G02 X21.0482 Y12.0484 Z-0.1500 I0.6462 J9.9693
G03 X21.3473 Y12.0245 Z-0.3000 I0.9452 J9.9454
G02 X12.0038 Y21.8883 I0.6462 J9.9693 F250
G02 X13.6867 Y27.5535 I9.9529 J0.1259
G02 X26.9007 Y30.7118 I8.3096 J-5.5441
G02 X30.9643 Y26.4219 I-4.8420 J-8.6561
G02 X27.0953 Y13.3982 I-8.9554 J-4.4261
G02 X21.3473 Y12.0245 I-5.0834 J8.5578
G02 X21.0482 Y12.0484 Z-0.4500 I0.6462 J9.9693 F30
G03 X21.3473 Y12.0245 Z-0.6000 I0.9452 J9.9454
G02 X12.0038 Y21.8883 I0.6462 J9.9693 F250
G02 X13.6867 Y27.5535 I9.9529 J0.1259
G02 X26.9007 Y30.7118 I8.3096 J-5.5441
G02 X30.9643 Y26.4219 I-4.8420 J-8.6561
G02 X27.0953 Y13.3982 I-8.9554 J-4.4261
G02 X21.3473 Y12.0245 I-5.0834 J8.5578
G02 X21.0482 Y12.0484 Z-0.7500 I0.6462 J9.9693 F30
G03 X21.3473 Y12.0245 Z-0.9000 I0.9452 J9.9454
G02 X12.0038 Y21.8883 I0.6462 J9.9693 F250
G02 X13.6867 Y27.5535 I9.9529 J0.1259
G02 X26.9007 Y30.7118 I8.3096 J-5.5441
G02 X30.9643 Y26.4219 I-4.8420 J-8.6561
G02 X27.0953 Y13.3982 I-8.9554 J-4.4261
G02 X21.3473 Y12.0245 I-5.0834 J8.5578
G02 X21.0482 Y12.0484 Z-1.0500 I0.6462 J9.9693 F30
G03 X21.3473 Y12.0245 Z-1.2000 I0.9452 J9.9454
G02 X12.0038 Y21.8883 I0.6462 J9.9693 F250
G02 X13.6867 Y27.5535 I9.9529 J0.1259
G02 X26.9007 Y30.7118 I8.3096 J-5.5441
G02 X30.9643 Y26.4219 I-4.8420 J-8.6561
G02 X27.0953 Y13.3982 I-8.9554 J-4.4261
G02 X21.3473 Y12.0245 I-5.0834 J8.5578
G02 X21.0482 Y12.0484 Z-1.3500 I0.6462 J9.9693 F30
G03 X21.3473 Y12.0245 Z-1.5000 I0.9452 J9.9454
G02 X12.0038 Y21.8883 I0.6462 J9.9693 F250
G00 Z-1.2000
G02 X13.6867 Y27.5535 I9.9529 J0.1259
G02 X13.8569 Y27.8005 Z-1.3500 I8.3096 J-5.5441 F30
G03 X13.6867 Y27.5535 Z-1.5000 I8.1393 J-5.7912
G02 X26.9007 Y30.7118 I8.3096 J-5.5441 F250
G00 Z-1.2000
G02 X30.9643 Y26.4219 I-4.8420 J-8.6561
G02 X31.0932 Y26.1510 Z-1.3500 I-8.9554 J-4.4261 F30
G03 X30.9643 Y26.4219 Z-1.5000 I-9.0843 J-4.1552
G02 X27.0953 Y13.3982 I-8.9554 J-4.4261 F250
G00 Z-1.2000
G02 X21.3473 Y12.0245 I-5.0834 J8.5578
G01 Z-1.5000 F30
G02 X21.0482 Y12.0484 Z-1.6500 I0.6462 J9.9693
G03 X21.3473 Y12.0245 Z-1.8000 I0.9452 J9.9454
G02 X12.0038 Y21.8883 I0.6462 J9.9693 F250
G00 Z-1.2000
G02 X13.6867 Y27.5535 I9.9529 J0.1259
G01 Z-1.5000 F30
G02 X13.8569 Y27.8005 Z-1.6500 I8.3096 J-5.5441
G03 X13.6867 Y27.5535 Z-1.8000 I8.1393 J-5.7912
G02 X26.9007 Y30.7118 I8.3096 J-5.5441 F250
G00 Z-1.2000
G02 X30.9643 Y26.4219 I-4.8420 J-8.6561
G01 Z-1.5000 F30
G02 X31.0932 Y26.1510 Z-1.6500 I-8.9554 J-4.4261
G03 X30.9643 Y26.4219 Z-1.8000 I-9.0843 J-4.1552
G02 X27.0953 Y13.3982 I-8.9554 J-4.4261 F250
G00 Z-1.2000
G02 X21.3473 Y12.0245 I-5.0834 J8.5578
G00 Z-1.3000
G01 Z-1.8000 F30
G02 X21.0482 Y12.0484 Z-1.9500 I0.6462 J9.9693
G03 X21.3473 Y12.0245 Z-2.1000 I0.9452 J9.9454
G02 X12.0038 Y21.8883 I0.6462 J9.9693 F250
G00 Z-1.2000
G02 X13.6867 Y27.5535 I9.9529 J0.1259
G00 Z-1.3000
G01 Z-1.8000 F30
G02 X13.8569 Y27.8005 Z-1.9500 I8.3096 J-5.5441
G03 X13.6867 Y27.5535 Z-2.1000 I8.1393 J-5.7912
G02 X26.9007 Y30.7118 I8.3096 J-5.5441 F250
G00 Z-1.2000
G02 X30.9643 Y26.4219 I-4.8420 J-8.6561
G00 Z-1.3000
G01 Z-1.8000 F30
G02 X31.0932 Y26.1510 Z-1.9500 I-8.9554 J-4.4261
G03 X30.9643 Y26.4219 Z-2.1000 I-9.0843 J-4.1552
G02 X27.0953 Y13.3982 I-8.9554 J-4.4261 F250
G00 Z-1.2000
G02 X21.3473 Y12.0245 I-5.0834 J8.5578
G00 Z-1.6000
G01 Z-2.1000 F30
G02 X21.2475 Y12.0314 Z-2.1500 I0.6462 J9.9693
G03 X21.3473 Y12.0245 Z-2.2000 I0.7459 J9.9624
G02 X12.0038 Y21.8883 I0.6462 J9.9693 F250
G00 Z-1.2000
G02 X13.6867 Y27.5535 I9.9529 J0.1259
G00 Z-1.6000
G01 Z-2.1000 F30
G02 X13.7426 Y27.6364 Z-2.1500 I8.3096 J-5.5441
G03 X13.6867 Y27.5535 Z-2.2000 I8.2536 J-5.6270
G02 X26.9007 Y30.7118 I8.3096 J-5.5441 F250
G00 Z-1.2000
G02 X30.9643 Y26.4219 I-4.8420 J-8.6561
G00 Z-1.6000
G01 Z-2.1000 F30
G02 X31.0082 Y26.3320 Z-2.1500 I-8.9554 J-4.4261
G03 X30.9643 Y26.4219 Z-2.2000 I-8.9993 J-4.3362
G02 X27.0953 Y13.3982 I-8.9554 J-4.4261 F250
G00 Z-1.2000
G02 X21.3473 Y12.0245 I-5.0834 J8.5578
G00 Z5.0000


(No. 3: Part 5)
G00 X5.9592 Y31.1530 Z5.0000
G00 Z0.5000
G01 Z0.0000 F30
G02 X5.9872 Y31.3486 Z-0.1500 I0.0193 J0.0970
G03 X5.9592 Y31.1530 Z-0.3000 I-0.0086 J-0.0986
G02 X6.0103 Y31.3437 I0.0193 J0.0970 F250
G02 X5.9592 Y31.1530 I-0.0318 J-0.0937
G02 X5.9872 Y31.3486 Z-0.4500 I0.0193 J0.0970 F30
G03 X5.9592 Y31.1530 Z-0.6000 I-0.0086 J-0.0986
G02 X6.0103 Y31.3437 I0.0193 J0.0970 F250
G02 X5.9592 Y31.1530 I-0.0318 J-0.0937
G02 X5.9872 Y31.3486 Z-0.7500 I0.0193 J0.0970 F30
G03 X5.9592 Y31.1530 Z-0.9000 I-0.0086 J-0.0986
G02 X6.0103 Y31.3437 I0.0193 J0.0970 F250
G02 X5.9592 Y31.1530 I-0.0318 J-0.0937
G02 X5.9872 Y31.3486 Z-1.0500 I0.0193 J0.0970 F30
G03 X5.9592 Y31.1530 Z-1.2000 I-0.0086 J-0.0986
G02 X6.0103 Y31.3437 I0.0193 J0.0970 F250
G02 X5.9592 Y31.1530 I-0.0318 J-0.0937
G02 X5.9872 Y31.3486 Z-1.3500 I0.0193 J0.0970 F30
G03 X5.9592 Y31.1530 Z-1.5000 I-0.0086 J-0.0986
G02 X6.0103 Y31.3437 I0.0193 J0.0970 F250
G02 X5.9592 Y31.1530 I-0.0318 J-0.0937
G02 X5.9872 Y31.3486 Z-1.6500 I0.0193 J0.0970 F30
G03 X5.9592 Y31.1530 Z-1.8000 I-0.0086 J-0.0986
G02 X6.0103 Y31.3437 I0.0193 J0.0970 F250
G02 X5.9592 Y31.1530 I-0.0318 J-0.0937
G02 X5.9872 Y31.3486 Z-1.9500 I0.0193 J0.0970 F30
G03 X5.9592 Y31.1530 Z-2.1000 I-0.0086 J-0.0986
G02 X6.0103 Y31.3437 I0.0193 J0.0970 F250
G02 X5.9592 Y31.1530 I-0.0318 J-0.0937
G02 X5.8861 Y31.2148 Z-2.1500 I0.0193 J0.0970 F30
G03 X5.9592 Y31.1530 Z-2.2000 I0.0925 J0.0352
G02 X6.0103 Y31.3437 I0.0193 J0.0970 F250
G02 X5.9592 Y31.1530 I-0.0318 J-0.0937
G00 Z5.0000


(No. 4: Part 4)
G00 X37.9471 Y31.1848 Z5.0000
G00 Z0.5000
G01 Z0.0000 F30
G02 X38.0883 Y31.3229 Z-0.1500 I0.0744 J0.0652
G03 X37.9471 Y31.1848 Z-0.3000 I-0.0668 J-0.0729
G02 X38.1037 Y31.3050 I0.0744 J0.0652 F250
G02 X37.9471 Y31.1848 I-0.0823 J-0.0550
G02 X38.0883 Y31.3229 Z-0.4500 I0.0744 J0.0652 F30
G03 X37.9471 Y31.1848 Z-0.6000 I-0.0668 J-0.0729
G02 X38.1037 Y31.3050 I0.0744 J0.0652 F250
G02 X37.9471 Y31.1848 I-0.0823 J-0.0550
G02 X38.0883 Y31.3229 Z-0.7500 I0.0744 J0.0652 F30
G03 X37.9471 Y31.1848 Z-0.9000 I-0.0668 J-0.0729
G02 X38.1037 Y31.3050 I0.0744 J0.0652 F250
G02 X37.9471 Y31.1848 I-0.0823 J-0.0550
G02 X38.0883 Y31.3229 Z-1.0500 I0.0744 J0.0652 F30
G03 X37.9471 Y31.1848 Z-1.2000 I-0.0668 J-0.0729
G02 X38.1037 Y31.3050 I0.0744 J0.0652 F250
G02 X37.9471 Y31.1848 I-0.0823 J-0.0550
G02 X38.0883 Y31.3229 Z-1.3500 I0.0744 J0.0652 F30
G03 X37.9471 Y31.1848 Z-1.5000 I-0.0668 J-0.0729
G02 X38.1037 Y31.3050 I0.0744 J0.0652 F250
G02 X37.9471 Y31.1848 I-0.0823 J-0.0550
G02 X38.0883 Y31.3229 Z-1.6500 I0.0744 J0.0652 F30
G03 X37.9471 Y31.1848 Z-1.8000 I-0.0668 J-0.0729
G02 X38.1037 Y31.3050 I0.0744 J0.0652 F250
G02 X37.9471 Y31.1848 I-0.0823 J-0.0550
G02 X38.0883 Y31.3229 Z-1.9500 I0.0744 J0.0652 F30
G03 X37.9471 Y31.1848 Z-2.1000 I-0.0668 J-0.0729
G02 X38.1037 Y31.3050 I0.0744 J0.0652 F250
G02 X37.9471 Y31.1848 I-0.0823 J-0.0550
G02 X37.9267 Y31.2784 Z-2.1500 I0.0744 J0.0652 F30
G03 X37.9471 Y31.1848 Z-2.2000 I0.0948 J-0.0284
G02 X38.1037 Y31.3050 I0.0744 J0.0652 F250
G02 X37.9471 Y31.1848 I-0.0823 J-0.0550
G00 Z5.0000


(No. 5: Part 1)
G00 X-1.8355 Y24.7932 Z5.0000
G00 Z0.5000
G01 Z0.0000 F30
G03 X-1.8686 Y24.4951 Z-0.1500 I23.8323 J-2.7965
G02 X-1.8355 Y24.7932 Z-0.3000 I23.8654 J-2.4984
G03 X25.7507 Y-1.7037 I23.8323 J-2.7965 F250
G03 X31.4987 Y-0.0388 I-3.6868 J23.4831
G03 X40.6526 Y37.1001 I-9.4943 J22.0377
G03 X36.3367 Y41.2455 I-18.4936 J-14.9345
G03 X-0.4034 Y30.6036 I-14.3380 J-19.2411
G03 X-1.8355 Y24.7932 I22.1804 J-8.5487
G03 X-1.8686 Y24.4951 Z-0.4500 I23.8323 J-2.7965 F30
G02 X-1.8355 Y24.7932 Z-0.6000 I23.8654 J-2.4984
G03 X25.7507 Y-1.7037 I23.8323 J-2.7965 F250
G03 X31.4987 Y-0.0388 I-3.6868 J23.4831
G03 X40.6526 Y37.1001 I-9.4943 J22.0377
G03 X36.3367 Y41.2455 I-18.4936 J-14.9345
G03 X-0.4034 Y30.6036 I-14.3380 J-19.2411
G03 X-1.8355 Y24.7932 I22.1804 J-8.5487
G03 X-1.8686 Y24.4951 Z-0.7500 I23.8323 J-2.7965 F30
G02 X-1.8355 Y24.7932 Z-0.9000 I23.8654 J-2.4984
G03 X25.7507 Y-1.7037 I23.8323 J-2.7965 F250
G03 X31.4987 Y-0.0388 I-3.6868 J23.4831
G03 X40.6526 Y37.1001 I-9.4943 J22.0377
G03 X36.3367 Y41.2455 I-18.4936 J-14.9345
G03 X-0.4034 Y30.6036 I-14.3380 J-19.2411
G03 X-1.8355 Y24.7932 I22.1804 J-8.5487
G03 X-1.8686 Y24.4951 Z-1.0500 I23.8323 J-2.7965 F30
G02 X-1.8355 Y24.7932 Z-1.2000 I23.8654 J-2.4984
G03 X25.7507 Y-1.7037 I23.8323 J-2.7965 F250
G03 X31.4987 Y-0.0388 I-3.6868 J23.4831
G03 X40.6526 Y37.1001 I-9.4943 J22.0377
G03 X36.3367 Y41.2455 I-18.4936 J-14.9345
G03 X-0.4034 Y30.6036 I-14.3380 J-19.2411
G03 X-1.8355 Y24.7932 I22.1804 J-8.5487
G03 X-1.8686 Y24.4951 Z-1.3500 I23.8323 J-2.7965 F30
G02 X-1.8355 Y24.7932 Z-1.5000 I23.8654 J-2.4984
G03 X25.7507 Y-1.7037 I23.8323 J-2.7965 F250
G00 Z-1.2000
G03 X31.4987 Y-0.0388 I-3.6868 J23.4831
G03 X31.7735 Y0.0817 Z-1.3500 I-9.4943 J22.0377 F30
G02 X31.4987 Y-0.0388 Z-1.5000 I-9.7691 J21.9172
G03 X40.6526 Y37.1001 I-9.4943 J22.0377 F250
G00 Z-1.2000
G03 X36.3367 Y41.2455 I-18.4936 J-14.9345
G03 X36.0951 Y41.4233 Z-1.3500 I-14.3380 J-19.2411 F30
G02 X36.3367 Y41.2455 Z-1.5000 I-14.0963 J-19.4189
G03 X-0.4034 Y30.6036 I-14.3380 J-19.2411 F250
G00 Z-1.2000
G03 X-1.8355 Y24.7932 I22.1804 J-8.5487
G01 Z-1.5000 F30
G03 X-1.8686 Y24.4951 Z-1.6500 I23.8323 J-2.7965
G02 X-1.8355 Y24.7932 Z-1.8000 I23.8654 J-2.4984
G03 X25.7507 Y-1.7037 I23.8323 J-2.7965 F250
G00 Z-1.2000
G03 X31.4987 Y-0.0388 I-3.6868 J23.4831
G01 Z-1.5000 F30
G03 X31.7735 Y0.0817 Z-1.6500 I-9.4943 J22.0377
G02 X31.4987 Y-0.0388 Z-1.8000 I-9.7691 J21.9172
G03 X40.6526 Y37.1001 I-9.4943 J22.0377 F250
G00 Z-1.2000
G03 X36.3367 Y41.2455 I-18.4936 J-14.9345
G01 Z-1.5000 F30
G03 X36.0951 Y41.4233 Z-1.6500 I-14.3380 J-19.2411
G02 X36.3367 Y41.2455 Z-1.8000 I-14.0963 J-19.4189
G03 X-0.4034 Y30.6036 I-14.3380 J-19.2411 F250
G00 Z-1.2000
G03 X-1.8355 Y24.7932 I22.1804 J-8.5487
G00 Z-1.3000
G01 Z-1.8000 F30
G03 X-1.8686 Y24.4951 Z-1.9500 I23.8323 J-2.7965
G02 X-1.8355 Y24.7932 Z-2.1000 I23.8654 J-2.4984
G03 X25.7507 Y-1.7037 I23.8323 J-2.7965 F250
G00 Z-1.2000
G03 X31.4987 Y-0.0388 I-3.6868 J23.4831
G00 Z-1.3000
G01 Z-1.8000 F30
G03 X31.7735 Y0.0817 Z-1.9500 I-9.4943 J22.0377
G02 X31.4987 Y-0.0388 Z-2.1000 I-9.7691 J21.9172
G03 X40.6526 Y37.1001 I-9.4943 J22.0377 F250
G00 Z-1.2000
G03 X36.3367 Y41.2455 I-18.4936 J-14.9345
G00 Z-1.3000
G01 Z-1.8000 F30
G03 X36.0951 Y41.4233 Z-1.9500 I-14.3380 J-19.2411
G02 X36.3367 Y41.2455 Z-2.1000 I-14.0963 J-19.4189
G03 X-0.4034 Y30.6036 I-14.3380 J-19.2411 F250
G00 Z-1.2000
G03 X-1.8355 Y24.7932 I22.1804 J-8.5487
G00 Z-1.6000
G01 Z-2.1000 F30
G03 X-1.8469 Y24.6939 Z-2.1500 I23.8323 J-2.7965
G02 X-1.8355 Y24.7932 Z-2.2000 I23.8438 J-2.6972
G03 X25.7507 Y-1.7037 I23.8323 J-2.7965 F250
G00 Z-1.2000
G03 X31.4987 Y-0.0388 I-3.6868 J23.4831
G00 Z-1.6000
G01 Z-2.1000 F30
G03 X31.5905 Y0.0010 Z-2.1500 I-9.4943 J22.0377
G02 X31.4987 Y-0.0388 Z-2.2000 I-9.5861 J21.9979
G03 X40.6526 Y37.1001 I-9.4943 J22.0377 F250
G00 Z-1.2000
G03 X36.3367 Y41.2455 I-18.4936 J-14.9345
G00 Z-1.6000
G01 Z-2.1000 F30
G03 X36.2564 Y41.3051 Z-2.1500 I-14.3380 J-19.2411
G02 X36.3367 Y41.2455 Z-2.2000 I-14.2577 J-19.3007
G03 X-0.4034 Y30.6036 I-14.3380 J-19.2411 F250
G00 Z-1.2000
G03 X-1.8355 Y24.7932 I22.1804 J-8.5487
G00 Z5.0000
G00 X0.0000 Y0.0000

M05
M30
